/* XPM */
static char *rupx256[] = {
/* columns rows colors chars-per-pixel */
"256 256 210 2 ",
"   c #26173F",
".  c #2B1C44",
"X  c #2F1E49",
"o  c #271840",
"O  c #311F4C",
"+  c #331F51",
"@  c #32204E",
"#  c #302147",
"$  c #352253",
"%  c #382357",
"&  c #3C2C54",
"*  c #3B255B",
"=  c #3D2B5B",
"-  c #372258",
";  c #2F2147",
":  c #3E2761",
">  c #3F2862",
",  c #412D5E",
"<  c #403258",
"1  c #44365A",
"2  c #402764",
"3  c #412965",
"4  c #452B6B",
"5  c #482C6F",
"6  c #4C3C64",
"7  c #4B356C",
"8  c #4A3667",
"9  c #472B70",
"0  c #4A2E73",
"q  c #4E2E79",
"w  c #532F7D",
"e  c #502B77",
"r  c #4D3076",
"t  c #4F3079",
"y  c #50307A",
"u  c #553B7B",
"i  c #513875",
"p  c #503C6D",
"a  c #4F4164",
"s  c #54446D",
"d  c #574A6B",
"f  c #564274",
"g  c #5B447B",
"h  c #5E4B79",
"j  c #5A4874",
"k  c #604C7E",
"l  c #615575",
"z  c #65557D",
"x  c #675A7A",
"c  c #6D627E",
"v  c #562F81",
"b  c #5A2E85",
"n  c #5E2E89",
"m  c #573280",
"M  c #5A3384",
"N  c #5C3B84",
"B  c #5F3288",
"V  c #622D8D",
"C  c #63338C",
"Z  c #643C8C",
"A  c #603D87",
"S  c #652D90",
"D  c #673490",
"F  c #693592",
"G  c #6B3C93",
"H  c #673890",
"J  c #713E98",
"K  c #703F97",
"L  c #5E4782",
"P  c #614586",
"I  c #624B83",
"U  c #66448C",
"Y  c #684A8C",
"T  c #665383",
"R  c #6B548B",
"E  c #6D598A",
"W  c #6A5A83",
"Q  c #715C8D",
"!  c #6D4393",
"~  c #6D4C92",
"^  c #714597",
"/  c #724D96",
"(  c #724099",
")  c #754D99",
"_  c #794C9E",
"`  c #6D5390",
"'  c #725195",
"]  c #735B94",
"[  c #765399",
"{  c #7B539D",
"}  c #775898",
"|  c #7A599B",
" . c #6F6183",
".. c #74638C",
"X. c #796C8C",
"o. c #746885",
"O. c #7D738D",
"+. c #7B6B92",
"@. c #7C629C",
"#. c #7B6797",
"$. c #7E7091",
"%. c #7E52A1",
"&. c #7D4DA2",
"*. c #816C9D",
"=. c #817594",
"-. c #897D9C",
";. c #857798",
":. c #825CA4",
">. c #8459A6",
",. c #8562A5",
"<. c #846CA2",
"1. c #8A64AA",
"2. c #8D6BAB",
"3. c #896CA7",
"4. c #916CAE",
"5. c #8E73AA",
"6. c #8A77A5",
"7. c #9174AD",
"8. c #927AAD",
"9. c #936BB1",
"0. c #9473B1",
"q. c #9A7BB5",
"w. c #9A79B5",
"e. c #8B819B",
"r. c #948AA3",
"t. c #9483AB",
"y. c #9A8DAD",
"u. c #9387A6",
"i. c #9B92AB",
"p. c #9F98AA",
"a. c #9780B1",
"s. c #9981B3",
"d. c #9D8BB5",
"f. c #9F82B8",
"g. c #9E91B2",
"h. c #8F81A2",
"j. c #A29AAD",
"k. c #A097AF",
"l. c #A285BB",
"z. c #A58CBD",
"x. c #A48EBB",
"c. c #A193B5",
"v. c #A59BB3",
"b. c #A595BB",
"n. c #A994BE",
"m. c #A99DBA",
"M. c #A89CB9",
"N. c #ABA5B4",
"B. c #ADA4BC",
"V. c #ABA4B4",
"C. c #B0A8BC",
"Z. c #B6B0BF",
"A. c #AA8DC1",
"S. c #AD94C3",
"D. c #AE9CC2",
"F. c #B29BC6",
"G. c #B59CC9",
"H. c #B094C6",
"J. c #B3A3C6",
"K. c #B5ABC3",
"L. c #B5A2C8",
"P. c #B9A3CC",
"I. c #BCABCD",
"U. c #B8ADC7",
"Y. c #BAB3C4",
"T. c #BEB9C6",
"R. c #BEB3CC",
"E. c #B7B1C2",
"W. c #BFA9D0",
"Q. c #C2BBCC",
"!. c #C0B6CE",
"~. c #C3ACD3",
"^. c #C4B3D3",
"/. c #C8B6D7",
"(. c #C6B9D4",
"). c #C9BAD7",
"_. c #CCBCD9",
"`. c #CBB7D9",
"'. c #C6C2CE",
"]. c #CBC4D4",
"[. c #CEC9D5",
"{. c #CEC3DA",
"}. c #C7C0D1",
"|. c #D2C4DE",
" X c #D3CCDD",
".X c #D1CED6",
"XX c #D6D1DD",
"oX c #D9D5DE",
"OX c #DBD8DF",
"+X c #D6CBE1",
"@X c #D9CEE4",
"#X c #D5C6E0",
"$X c #DCD4E5",
"%X c #DDDBE1",
"&X c #DFD5E8",
"*X c #E1DDE6",
"=X c #E0D6E8",
"-X c #E6DDED",
";X c #E3E0E7",
":X c #E6E2EB",
">X c #E9E4EE",
",X c #EBE9EE",
"<X c #ECE6F1",
"1X c #EEEBF2",
"2X c #F1EDF4",
"3X c #F3F1F6",
"4X c #F7F5F8",
"5X c #F8F6FA",
"6X c #FFFFFF",
"7X c None",
/* pixels */
"7X7X7X7X7X7X7X7X7X7X7X7X7X7X7X7X7X7X7X7X7X7X7X7X7X7X7X7X7X7X7X7X7X7X7X7X7X7X7X7X7X7X7X7X7X7X7X7X7X7X7X7X7X7X7X7X7X7X7X7X7X7X7X7X7X7X7X7X7X7X7X7X7X7X7X7X7X7X7X7X7X7X7X7X7X7X7X7X7X7X7X7X7X7X7X7X7X7X7X7X7X7X7X7X7X7X7X7X7X7X7X7X7X7X7X7X7X7X7X7X7X7X7X7X7X7X7X7X7X7X7X7X7X7X7X7X7X7X7X7X7X7X7X7X7X7X7X7X7X7X7X7X7X7X7X7X7X7X7X7X7X7X7X7X7X7X7X7X7X7X7X7X7X7X7X7X7X7X7X7X7X7X7X7X7X7X7X7X7X7X7X7X7X7X7X7X7X7X7X7X7X7X7X7X7X7X7X7X7X7X7X7X7X7X7X7X7X7X7X7X7X7X7X7X7X7X7X7X7X7X7X7X7X7X7X7X7X7X7X7X7X7X7X7X7X7X7X7X7X7X7X7X7X7X7X7X",
"7X7X7X7X7X7X7X7X7X7X7X7X7X7X7X7X7X7X7X7X7X7X7X7X7X7X7X7X7X7X7X7X7X7X7X7X7X7X7X7X7X7X7X7X7X7X7X7X7X7X7X7X7X7X7X7X7X7X7X7X7X7X7X7X7X7X7X7X7X7X7X7X7X7X7X7X7X7X7X7X7X7X7X7X7X7X7X7X7X7X7X7X7X7X7X7X7X7X7X7X7X7X7X7X7X7X7X7X7X7X7X7X7X7X7X7X7X7X7X7X7X7X7X7X7X7X7X7X7X7X7X7X7X7X7X7X7X7X7X7X7X7X7X7X7X7X7X7X7X7X7X7X7X7X7X7X7X7X7X7X7X7X7X7X7X7X7X7X7X7X7X7X7X7X7X7X7X7X7X7X7X7X7X7X7X7X7X7X7X7X7X7X7X7X7X7X7X7X7X7X7X7X7X7X7X7X7X7X7X7X7X7X7X7X7X7X7X7X7X7X7X7X7X7X7X7X7X7X7X7X7X7X7X7X7X7X7X7X7X7X7X7X7X7X7X7X7X7X7X7X7X7X7X7X7X7X",
"7X7X7X7X7X7X7X7X7X7X7X7X7X7X7X7X7X7X7X7X7X7X7X7X7X7X7X7X7X7X7X7X7X7X7X7X7X7X7X7X7X7X7X7X7X7X7X7X7X7X7X7X7X7X7X7X7X7X7X7X7X7X7X7X7X7X7X7X7X7X7X7X7X7X7X7X7X7X7X7X7X7X7X7X7X7X7X7X7X7X7X7X7X7X7X7X7X7X7X7X7X7X7X7X7X7X7X7X7X7X7X7X7X7X7X7X7X7X7X7X7X7Xr 0 r 0 r r t r r r t t 7X7X7X7X7X7X7X7X7X7X7X7X7X7X7X7X7X7X7X7X7X7X7X7X7X7X7X7X7X7X7X7X7X7X7X7X7X7X7X7X7X7X7X7X7X7X7X7X7X7X7X7X7X7X7X7X7X7X7X7X7X7X7X7X7X7X7X7X7X7X7X7X7X7X7X7X7X7X7X7X7X7X7X7X7X7X7X7X7X7X7X7X7X7X7X7X7X7X7X7X7X7X7X7X7X7X7X7X7X7X7X7X7X7X7X7X7X7X7X7X7X7X",
"7X7X7X7X7X7X7X7X7X7X7X7X7X7X7X7X7X7X7X7X7X7X7X7X7X7X7X7X7X7X7X7X7X7X7X7X7X7X7X7X7X7X7X7X7X7X7X7X7X7X7X7X7X7X7X7X7X7X7X7X7X7X7X7X7X7X7X7X7X7X7X7X7X7X7X7X7X7X7X7X7X7X7X7X7X7X7X7X7X7X7X7X7X7X7X7X7X7X7X7X7X7X7X7X7X7X7X7X7X7X7X7X7X7X7X7Xr 5 r r 0 r 0 r 0 r 0 r t r t t t t t t t t y t 7X7X7X7X7X7X7X7X7X7X7X7X7X7X7X7X7X7X7X7X7X7X7X7X7X7X7X7X7X7X7X7X7X7X7X7X7X7X7X7X7X7X7X7X7X7X7X7X7X7X7X7X7X7X7X7X7X7X7X7X7X7X7X7X7X7X7X7X7X7X7X7X7X7X7X7X7X7X7X7X7X7X7X7X7X7X7X7X7X7X7X7X7X7X7X7X7X7X7X7X7X7X7X7X7X7X7X7X7X7X7X7X7X7X7X7X",
"7X7X7X7X7X7X7X7X7X7X7X7X7X7X7X7X7X7X7X7X7X7X7X7X7X7X7X7X7X7X7X7X7X7X7X7X7X7X7X7X7X7X7X7X7X7X7X7X7X7X7X7X7X7X7X7X7X7X7X7X7X7X7X7X7X7X7X7X7X7X7X7X7X7X7X7X7X7X7X7X7X7X7X7X7X7X7X7X7X7X7X7X7X7X7X7X7X7X7X7X7X7X7X7X7X7X7X7X7X7X5 5 0 > r 0 0 5 0 0 0 r 0 r r 0 r r r r r t t r r t t t t t y t y t y w 7X7X7X7X7X7X7X7X7X7X7X7X7X7X7X7X7X7X7X7X7X7X7X7X7X7X7X7X7X7X7X7X7X7X7X7X7X7X7X7X7X7X7X7X7X7X7X7X7X7X7X7X7X7X7X7X7X7X7X7X7X7X7X7X7X7X7X7X7X7X7X7X7X7X7X7X7X7X7X7X7X7X7X7X7X7X7X7X7X7X7X7X7X7X7X7X7X7X7X7X7X7X7X7X7X7X7X7X7X7X",
"7X7X7X7X7X7X7X7X7X7X7X7X7X7X7X7X7X7X7X7X7X7X7X7X7X7X7X7X7X7X7X7X7X7X7X7X7X7X7X7X7X7X7X7X7X7X7X7X7X7X7X7X7X7X7X7X7X7X7X7X7X7X7X7X7X7X7X7X7X7X7X7X7X7X7X7X7X7X7X7X7X7X7X7X7X7X7X7X7X7X7X7X7X7X7X7X7X7X7X7X7X7X7X4 5 4 5 4 4 9 5 5 0 r 0 9 0 7 0 0 0 0 5 r r 0 r r r r r r t r t t t t y t y t t t t w y q w w y w w 7X7X7X7X7X7X7X7X7X7X7X7X7X7X7X7X7X7X7X7X7X7X7X7X7X7X7X7X7X7X7X7X7X7X7X7X7X7X7X7X7X7X7X7X7X7X7X7X7X7X7X7X7X7X7X7X7X7X7X7X7X7X7X7X7X7X7X7X7X7X7X7X7X7X7X7X7X7X7X7X7X7X7X7X7X7X7X7X7X7X7X7X7X7X7X7X7X7X7X7X7X7X7X",
"7X7X7X7X7X7X7X7X7X7X7X7X7X7X7X7X7X7X7X7X7X7X7X7X7X7X7X7X7X7X7X7X7X7X7X7X7X7X7X7X7X7X7X7X7X7X7X7X7X7X7X7X7X7X7X7X7X7X7X7X7X7X7X7X7X7X7X7X7X7X7X7X7X7X7X7X7X7X7X7X7X7X7X7X7X7X7X7X7X7X7X7X7X7X7X7X7X3 4 3 4 4 4 4 3 5 4 9 4 5 5 5 0 > 0 9 5 0 0 0 0 r 5 r r r r r r r r t t r t t t t t y y t y w y e y w w y y w w w w w m w w 7X7X7X7X7X7X7X7X7X7X7X7X7X7X7X7X7X7X7X7X7X7X7X7X7X7X7X7X7X7X7X7X7X7X7X7X7X7X7X7X7X7X7X7X7X7X7X7X7X7X7X7X7X7X7X7X7X7X7X7X7X7X7X7X7X7X7X7X7X7X7X7X7X7X7X7X7X7X7X7X7X7X7X7X7X7X7X7X7X7X7X7X7X7X7X7X7X",
"7X7X7X7X7X7X7X7X7X7X7X7X7X7X7X7X7X7X7X7X7X7X7X7X7X7X7X7X7X7X7X7X7X7X7X7X7X7X7X7X7X7X7X7X7X7X7X7X7X7X7X7X7X7X7X7X7X7X7X7X7X7X7X7X7X7X7X7X7X7X7X7X7X7X7X7X7X7X7X7X7X7X7X7X7X7X7X7X7X7X7X> 4 4 > > 4 4 3 4 4 4 4 4 5 4 4 4 5 4 4 5 0 r > 0 7 0 0 0 r 0 r 5 0 0 0 r r r r t t r t t t t t t y t y y y w y w e y y v w w w w w w w v w M w w v 7X7X7X7X7X7X7X7X7X7X7X7X7X7X7X7X7X7X7X7X7X7X7X7X7X7X7X7X7X7X7X7X7X7X7X7X7X7X7X7X7X7X7X7X7X7X7X7X7X7X7X7X7X7X7X7X7X7X7X7X7X7X7X7X7X7X7X7X7X7X7X7X7X7X7X7X7X7X7X7X7X7X7X7X7X7X7X7X7X7X7X",
"7X7X7X7X7X7X7X7X7X7X7X7X7X7X7X7X7X7X7X7X7X7X7X7X7X7X7X7X7X7X7X7X7X7X7X7X7X7X7X7X7X7X7X7X7X7X7X7X7X7X7X7X7X7X7X7X7X7X7X7X7X7X7X7X7X7X7X7X7X7X7X7X7X7X7X7X7X7X7X7X7X7X7X7X7X: : : 3 3 3 : 3 4 > 4 > > 9 > r > > 9 3 9 4 5 5 5 5 > 5 5 5 5 0 5 7 5 0 0 0 q 0 r r r r r r t t r t t t t t t y t y t y e q w y w w w y w w w w y v v w M w v v w w v v v v 7X7X7X7X7X7X7X7X7X7X7X7X7X7X7X7X7X7X7X7X7X7X7X7X7X7X7X7X7X7X7X7X7X7X7X7X7X7X7X7X7X7X7X7X7X7X7X7X7X7X7X7X7X7X7X7X7X7X7X7X7X7X7X7X7X7X7X7X7X7X7X7X7X7X7X7X7X7X7X7X7X7X7X7X7X",
"7X7X7X7X7X7X7X7X7X7X7X7X7X7X7X7X7X7X7X7X7X7X7X7X7X7X7X7X7X7X7X7X7X7X7X7X7X7X7X7X7X7X7X7X7X7X7X7X7X7X7X7X7X7X7X7X7X7X7X7X7X7X7X7X7X7X7X7X7X7X7X7X7X7X7X7X7X7X* : = : : : 3 : 3 3 : 3 3 3 3 > > 4 r 9 > > > > r > 4 4 4 5 4 5 0 0 5 9 5 0 0 0 0 0 0 0 0 0 r 0 r r t r r t t t r t t t t t y t y y y t w w v y q t w w w y w w w w v w w w v v v m v v w v v v v b b v 7X7X7X7X7X7X7X7X7X7X7X7X7X7X7X7X7X7X7X7X7X7X7X7X7X7X7X7X7X7X7X7X7X7X7X7X7X7X7X7X7X7X7X7X7X7X7X7X7X7X7X7X7X7X7X7X7X7X7X7X7X7X7X7X7X7X7X7X7X7X7X7X7X7X7X7X7X7X",
"7X7X7X7X7X7X7X7X7X7X7X7X7X7X7X7X7X7X7X7X7X7X7X7X7X7X7X7X7X7X7X7X7X7X7X7X7X7X7X7X7X7X7X7X7X7X7X7X7X7X7X7X7X7X7X7X7X7X7X7X7X7X7X7X7X7X7X7X7X7X7X7X* * * * * : * : * : : : 3 3 : : 3 3 3 > > 4 > 3 > > > q > q > r 4 4 4 4 0 > 5 5 5 9 5 r 0 0 0 0 0 r 0 0 0 r r r r r r t t t t t t t t t y t t t y y y y w q y v w w w w v y y v w w w v v v w w m v v m b m v m v v M b b b b b 7X7X7X7X7X7X7X7X7X7X7X7X7X7X7X7X7X7X7X7X7X7X7X7X7X7X7X7X7X7X7X7X7X7X7X7X7X7X7X7X7X7X7X7X7X7X7X7X7X7X7X7X7X7X7X7X7X7X7X7X7X7X7X7X7X7X7X7X7X7X7X7X",
"7X7X7X7X7X7X7X7X7X7X7X7X7X7X7X7X7X7X7X7X7X7X7X7X7X7X7X7X7X7X7X7X7X7X7X7X7X7X7X7X7X7X7X7X7X7X7X7X7X7X7X7X7X7X7X7X7X7X7X7X7X7X7X7X7X7X* % * * * * * * * : * * : * : : : : * : 3 3 : > 3 3 4 > 4 4 > 9 > r > > r > 4 5 4 5 0 0 0 > 5 5 5 5 0 0 0 0 0 0 0 0 0 0 t t r t 0 t 0 q q t q t t t t t t t y y e w w y q w w y w w w w v w w b w w w v b w v v v v b v v v v b v v w b b b b b b b b b 7X7X7X7X7X7X7X7X7X7X7X7X7X7X7X7X7X7X7X7X7X7X7X7X7X7X7X7X7X7X7X7X7X7X7X7X7X7X7X7X7X7X7X7X7X7X7X7X7X7X7X7X7X7X7X7X7X7X7X7X7X7X7X7X7X7X",
"7X7X7X7X7X7X7X7X7X7X7X7X7X7X7X7X7X7X7X7X7X7X7X7X7X7X7X7X7X7X7X7X7X7X7X7X7X7X7X7X7X7X7X7X7X7X7X7X7X7X7X7X7X7X7X7X7X7X7X7X% % % $ % % % % - * * * * * * : : * : : : : : : : : : 3 3 > 3 3 3 3 4 > > > > q > v > > r > > r > > r 0 9 9 9 9 9 9 9 9 0 i L ` <.g.U.}.].U.d.6.] L u t q q q q q q q t y w e w w e w w w w w w w v w w w w w w w M w w w v v b v m v v b m v b b v b b b b b b b b b b b b n b 7X7X7X7X7X7X7X7X7X7X7X7X7X7X7X7X7X7X7X7X7X7X7X7X7X7X7X7X7X7X7X7X7X7X7X7X7X7X7X7X7X7X7X7X7X7X7X7X7X7X7X7X7X7X7X7X7X7X7X7X",
"7X7X7X7X7X7X7X7X7X7X7X7X7X7X7X7X7X7X7X7X7X7X7X7X7X7X7X7X7X7X7X7X7X7X7X7X7X7X7X7X7X7X7X7X7X7X7X7X7X7X7X7X7X$ $ $ $ $ - % % % % % * % % * * - * - * * * * * * * : > * : : : : : 3 > 3 3 > 3 3 > 3 r > > > > 0 > r > r > r 0 0 > > 4 5 r i L Q 6.g.R. X;X3X5X6X6X6X6X6X6X6X3X:X+XR.b.6.#.Y N t q q w q q q w w q w q w w w v y w v w b w M w w b w v v M w b v v b v b M v b b v b v b b v b b b b n b V b n b n b n n n 7X7X7X7X7X7X7X7X7X7X7X7X7X7X7X7X7X7X7X7X7X7X7X7X7X7X7X7X7X7X7X7X7X7X7X7X7X7X7X7X7X7X7X7X7X7X7X7X7X7X7X7X7X",
"7X7X7X7X7X7X7X7X7X7X7X7X7X7X7X7X7X7X7X7X7X7X7X7X7X7X7X7X7X7X7X7X7X7X7X7X7X7X7X7X7X7X7X7X7X7X7X@ @ $ $ $ $ $ $ $ - $ $ $ - - % $ % % - - * - * * * * * * * : : * = : : : 3 : 3 : 3 3 3 3 3 3 4 4 > q q > > > > > > 0 > > r f Y #.6.M.R.+X:X3X6X6X6X6X6X6X6X6X6X6X6X6X6X6X6X6X6X6X6X6X3X>X$X(.D.t.@.` L m q q q q w w w w w w y v v w w w v v w b w b w b b v v b v b v b v v b b b b b b b b b n b b b b b n n n n n n n n n n n n 7X7X7X7X7X7X7X7X7X7X7X7X7X7X7X7X7X7X7X7X7X7X7X7X7X7X7X7X7X7X7X7X7X7X7X7X7X7X7X7X7X7X7X7X7X7X7X",
"7X7X7X7X7X7X7X7X7X7X7X7X7X7X7X7X7X7X7X7X7X7X7X7X7X7X7X7X7X7X7X7X7X7X7X7X7X7X7X7X7XO @ O @ @ O $ @ @ $ @ $ $ $ $ $ $ - $ - - - - - - * * * - * * * * * : * : * : : : : : : : > 3 3 > 3 > 3 3 3 3 > > > > > > r L R @.u.D.R.$X,X5X6X6X6X6X6X6X6X6X6X6X6X6X6X6X6X6X6X6X6X6X6X6X6X6X6X6X6X6X6X6X6X6X5X1X&X_.J.d.3.' A m w w q w w w w v w v w v w M w w b w m v v v v M v b b b b b b b b b b n b b V b n b n b n M n n n n n n n V n n V V n V V 7X7X7X7X7X7X7X7X7X7X7X7X7X7X7X7X7X7X7X7X7X7X7X7X7X7X7X7X7X7X7X7X7X7X7X7X7X7X7X7X7X",
"7X7X7X7X7X7X7X7X7X7X7X7X7X7X7X7X7X7X7X7X7X7X7X7X7X7X7X7X7X7X7X7X7X7X7XX X X X X @ X X @ @ @ O @ $ @ $ $ $ $ $ $ $ $ % $ % $ % % * % % * * % * * * * * * * : * : * : * : : : : : 3 3 2 > : : 2 3 v L T +.y.K.}.%X1X5X6X6X6X6X6X6X6X6X6X6X6X6X6X6X6X6X6X6X6X6X6X6X6X6X6X6X6X6X6X6X6X6X6X6X6X6X6X6X6X6X6X6X6X6X5X2X*X|.I.x.6.| Y N m w w w w v w v v v v b v b v v v b v b b b b b b b b b b b b b b b V M b b b V n n b n n n n n n V V n n M V V V b V V V 7X7X7X7X7X7X7X7X7X7X7X7X7X7X7X7X7X7X7X7X7X7X7X7X7X7X7X7X7X7X7X7X7X7X7X",
"7X7X7X7X7X7X7X7X7X7X7X7X7X7X7X7X7X7X7X7X7X7X7X7X7X7X7X7X7X7X. O X X O X X X O O X X $ O @ @ + @ @ $ $ @ $ $ $ $ % $ % $ % % % % % % % % * % * * * * * : * : : * : : : : : : : : : 3 7 j R ;.i.U.{.&X2X5X6X6X6X6X6X6X6X6X6X6X6X6X6X6X6X6X6X6X6X6X6X6X6X6X6X6X6X6X6X6X6X6X6X6X6X6X6X6X6X6X6X6X6X6X6X6X6X6X6X6X6X6X6X6X6X6X5X3X:X+XR.n.7.| ~ A m w w v w w v v v v v v b b v v b b b b b v b n b b b b b b V b b b n n n n n n n V b V V V V V V V V V V V V V V V V V 7X7X7X7X7X7X7X7X7X7X7X7X7X7X7X7X7X7X7X7X7X7X7X7X7X7X7X7X7X7X",
"7X7X7X7X7X7X7X7X7X7X7X7X7X7X7X7X7X7X7X7X7X7X7X7X7X7X7X7XX . X . X X O X O X X O @ X @ O @ @ + $ @ $ @ $ $ $ $ $ $ + % % - - % $ - % * - * * * * * * * * : * * * * * : 3 7 g Q -.v.R. X>X3X6X6X6X5X6X6X6X6X6X6X6X6X6X6X6X6X6X6X6X6X6X6X6X6X6X6X6X6X6X6X6X6X6X6X6X6X6X6X6X6X6X6X6X6X6X6X6X6X6X6X6X6X6X6X6X6X6X6X6X6X6X6X6X6X6X6X6X6X6X6X4X>X$X/.D.q.<.^ Z m v w v v v b v v b b b b b b b b b b b V b b b b b b V n n n n n n n b V V b M b V b V b V V V V V V V V V V S 7X7X7X7X7X7X7X7X7X7X7X7X7X7X7X7X7X7X7X7X7X7X7X7X7X7X7X7X",
"7X7X7X7X7X7X7X7X7X7X7X7X7X7X7X7X7X7X7X7X7X7X7X7X7X7X7X. . X . X X X X X X X X O @ @ X @ O @ O O $ @ @ $ $ $ $ $ $ % % $ $ - - - - * - - % % * % - * - - * 3 7 h ..h.m.Q.oX1X4X6X6X6X6X6X6X6X6X6X6X6X6X6X6X6X6X6X6X6X6X6X6X6X6X6X6X6X6X6X6X6X6X6X6X6X6X6X6X6X6X6X6X6X6X6X6X6X6X6X6X6X6X6X6X6X6X6X6X6X6X6X6X6X6X6X6X6X6X6X6X6X6X6X6X6X6X6X6X6X6X6X6X5X,X=X{.J.l.3.[ Z b b v v v v v b b b n b n b b b V b V V b b n n n n n n n V b V V V V n C V V V V V V V V V V V V S V 7X7X7X7X7X7X7X7X7X7X7X7X7X7X7X7X7X7X7X7X7X7X7X7X7X7X7X",
"7X7X7X7X7X7X7X7X7X7X7X7X7X7X7X7X7X7X7X7X7X7X7X7X7X. . . X . . X X X X X X X O X X @ @ @ @ @ O $ O $ $ + $ $ $ $ $ $ $ $ - - - - % % - % % % = 3 p T +.u.B.].%X1X5X6X6X6X6X6X6X6X6X6X6X6X6X6X6X6X6X6X6X6X6X6X6X6X6X6X6X6X6X6X6X6X6X6X6X6X6X6X6X6X6X6X6X6X6X6X6X5X5X6X6X6X6X6X6X6X6X6X6X6X6X6X6X6X6X6X6X6X6X6X6X6X6X6X6X6X6X6X6X6X6X6X6X6X6X6X6X6X6X6X6X6X6X6X6X5X2X-X|.I.z.5.| ! C b v b b b b b b n b b b V b b n n n n n V n n V b b V V V V C V b V V V V V V V V S S S V S 7X7X7X7X7X7X7X7X7X7X7X7X7X7X7X7X7X7X7X7X7X7X7X7X7X",
"7X7X7X7X7X7X7X7X7X7X7X7X7X7X7X7X7X7X7X7X7X7X7X7X. . . . . . X X X X X X O X O O @ X @ X @ @ + @ $ @ $ $ + $ $ $ $ $ % $ $ $ $ $ * 3 s x $.i.K.[.;X2X5X6X6X6X6X6X6X6X6X6X6X6X6X6X6X6X6X6X6X6X6X6X6X6X6X6X6X6X6X6X6X6X6X6X6X6X6X6X6X6X6X6X6X6X6X6X5X3X>X+X^.S.0.@.,.7.n.!.+X-X2X6X6X6X6X6X6X6X6X6X6X6X6X6X6X6X6X6X6X6X6X6X6X6X6X6X6X6X6X6X6X6X6X6X6X6X6X6X6X6X6X6X6X6X6X6X6X6X2X<X+X^.S.7.:./ C M b b b b b b b V n n n n n n n n M V V V b V V b V V V V V V V V V V V V V S S S 7X7X7X7X7X7X7X7X7X7X7X7X7X7X7X7X7X7X7X7X7X7X7X7X",
"7X7X7X7X7X7X7X7X7X7X7X7X7X7X7X7X7X7X7X7X7X7X7X. . . . . . X X . X X X X O X X O O O + X @ @ + O @ $ + + @ O O + + $ * 8 s W ;.p.Y.XX:X3X6X6X6X6X6X6X6X6X6X6X6X6X6X6X6X6X6X6X6X6X6X6X6X6X6X6X6X6X6X6X6X6X6X6X6X6X6X6X6X6X6X6X6X6X6X6X6X2X-X XI.x.5.| ! C m v b v v v v b n ! | 2.z.I.|.-X2X5X6X5X6X6X6X6X6X6X6X6X6X6X6X6X6X6X6X6X6X6X6X6X6X6X6X6X6X6X6X6X6X6X6X6X6X6X6X6X6X6X6X6X6X6X6X6X3X<X$X/.H.q.,.[ G C b b b b n n n n n n V V V b V M V V V V V V V V V V V V V S V S V S S 7X7X7X7X7X7X7X7X7X7X7X7X7X7X7X7X7X7X7X7X7X7X7X",
"7X7X7X7X7X7X7X7X7X7X7X7X7X7X7X7X7X7X7X7X7X7X7X. . . . . X . . X X X X X X X O X O X @ @ + O O X O X O + = 8 j  .e.v.Q.oX,X4X6X6X6X6X6X6X6X6X6X6X6X6X6X6X6X6X6X6X6X6X6X6X6X6X6X6X6X6X6X6X6X6X6X6X6X6X6X6X6X6X6X6X6X6X6X6X5X,X*X_.L.d.3.[ U M v v v v v v b v b v b b b b v b b v b v C Z { 2.q.G._.$X1X5X6X6X6X6X6X6X6X6X6X6X6X6X6X6X6X6X6X6X6X6X6X6X6X6X6X6X6X6X6X6X6X6X6X6X6X6X6X6X6X6X6X6X6X6X6X6X5X1X=X_.L.l.2.{ G V n n n b V b V b V V V n b V V V V V V V V V V S S V S S S 7X7X7X7X7X7X7X7X7X7X7X7X7X7X7X7X7X7X7X7X7X7X7X",
"7X7X7X7X7X7X7X7X7X7X7X7X7X7X7X7X7X7X7X7X7X7X. . . . . . . X . . X X X X X X O X O O . O O @ = 6 h o.r.B.'.%X1X5X6X6X6X6X6X6X6X6X6X6X6X6X6X6X6X6X6X6X6X6X6X6X6X6X6X6X6X6X6X6X6X6X6X6X6X6X6X6X6X6X6X6X6X6X6X6X3X>X$X/.F.s.,./ U C v v v v v v v v b v b v b v b v v b b b b b b b b b b b b b b b V Z ) :.q.F./.$X<X4X6X6X6X6X6X6X6X6X6X6X6X6X6X6X6X6X6X6X6X6X6X6X6X6X6X6X6X6X6X6X6X6X6X6X6X6X6X6X6X6X6X6X6X6X6X6X5X2X-X|.I.A.7.>.^ H V n V n n V V V V V V V V V V V V S S V S S S S 7X7X7X7X7X7X7X7X7X7X7X7X7X7X7X7X7X7X7X7X7X7X",
"7X7X7X7X7X7X7X7X7X7X7X7X7X7X7X7X7X7X7X7X7X. . . . . . . X . X X X . ; . X . X + & 6 l X.r.C.[.*X3X5X6X6X6X6X6X6X6X6X6X6X6X6X6X6X6X6X6X6X6X6X6X6X6X6X6X6X6X6X6X6X6X6X6X6X6X6X6X6X6X6X6X6X6X6X6X6X3X:X X^.S.7.*.! A v w w w b w w v v v v v m b b v b b v v M b M b b w b b b b b b b b b b b b b v b b b b b V H ^ :.0.A.~.+X:X3X6X6X6X6X6X6X6X6X6X6X6X6X6X6X6X6X6X6X6X6X6X6X6X6X6X6X6X6X6X6X6X6X6X6X6X6X6X6X6X6X6X6X6X6X6X6X6X2X:X+X^.S.q.:.( G V n n n V V V V V S V S V S S S S S S 7X7X7X7X7X7X7X7X7X7X7X7X7X7X7X7X7X7X7X7X7X",
"7X7X7X7X7X7X7X7X7X7X7X7X7X7X7X7X7X7X7X7X7X. . . . . . . X . . . . X $ a x $.i.E..X:X3X6X6X6X6X6X6X6X6X6X6X6X6X6X6X6X6X6X6X6X6X6X6X6X6X6X6X6X6X6X6X6X6X6X6X6X6X6X6X6X6X6X6X6X6X6X6X5X2X-X|.I.b.3.| U N v w e w w v w v v w w w b v v b v v b m b v b m b b b v M b b b b b b b b b b b V b b b n b b n b b b b b b b b b n C ! %.2.z.P.|.-X2X5X6X6X6X6X6X6X6X6X6X6X6X6X6X6X6X6X6X6X6X6X6X6X6X6X6X6X6X6X6X6X6X6X6X6X6X6X6X6X6X6X6X6X6X6X6X6X3X<X$X`.G.q.1.&.F V V V V S V V S V S S S S 7X7X7X7X7X7X7X7X7X7X7X7X7X7X7X7X7X7X7X7X7X",
"7X7X7X7X7X7X7X7X7X7X7X7X7X7X7X7X7X7X7X7X7X. o . . . . . . . X . & e.[.,X4X6X6X6X6X6X6X6X6X6X6X6X6X6X6X6X6X6X6X6X6X6X6X6X6X6X6X6X6X6X6X6X6X6X6X6X6X6X6X6X6X6X6X6X6X6X6X5X1X$X{.J.d.<.' Z M y w w w w v w b v v w v v v v b w b w v b v v v v v v b m v b v b b b v b b b b b v b b b b b b b b b b V b n b b n b b n n n b n b n n b n V G { 2.l.P._.$X1X5X6X6X6X6X6X6X6X6X6X6X6X6X6X6X6X6X6X6X6X6X6X6X6X6X6X6X6X6X6X6X6X6X6X6X6X6X6X6X6X6X6X6X6X6X6X6X5X<X@XA.G V V V S S V S S S S D 7X7X7X7X7X7X7X7X7X7X7X7X7X7X7X7X7X7X7X7X7X",
"7X7X7X7X7X7X7X7X7X7X7X7X7X7X7X7X7X7X7X7X. . . o . . . . . ; . 6 T.6X6X6X6X6X6X6X6X6X6X6X6X6X6X6X6X6X6X6X6X6X6X6X6X6X6X6X6X6X6X6X6X6X6X6X6X6X6X6X6X6X6X6X6X3X<X$X/.D.a.@.~ N m w w w w w w w w v w v v v m v w m v v v v v v v M b v v v v v v b v b m b v b b v b b e b b b b b b b b b b b b b b V b b b b n b n b n n n n n n n n n n n b b n n C G ) ,.q.G.(.@X<X3X6X6X6X6X6X6X6X6X6X6X6X6X6X6X6X6X6X6X6X6X6X6X6X6X6X6X6X6X6X6X6X6X6X6X6X6X6X6X6X6X6X6X6X6X|._ V V V S S V S S V S S 7X7X7X7X7X7X7X7X7X7X7X7X7X7X7X7X7X7X7X7X",
"7X7X7X7X7X7X7X7X7X7X7X7X7X7X7X7X7X7X7X7Xo . . . . . . . X . & T.6X6X6X6X6X6X6X6X6X6X6X6X6X6X6X6X6X6X6X6X6X6X6X6X6X6X6X6X6X6X6X6X6X6X6X6X6X6X5X3X:X+X^.b.8.| Y N y w e w w w w w w w w w v w v w w w w v v w v v w v v v v v v v b v v b b v b m b m b v b m v b b b b b b b b b b b b b n n b b b b b b n n n b b n n b b n n b n n n n n n V n n n n n n n V V F ) >.0.S.^.+X>X2X5X6X6X6X6X6X6X6X6X6X6X6X6X6X6X6X6X6X6X6X6X6X6X6X6X6X6X6X6X6X6X6X6X6X6X6X6X6X6X_.F S S V S S S S S S S 7X7X7X7X7X7X7X7X7X7X7X7X7X7X7X7X7X7X7X7X",
"7X7X7X7X7X7X7X7X7X7X7X7X7X7X7X7X7X7X7X7Xo . . . . . . . . . O.6X6X6X6X6X6X6X6X6X6X6X6X6X6X6X6X6X6X6X6X6X6X6X6X6X6X6X6X6X6X6X6X6X5X2X*X{.I.c.3.} P N y q q q e w w w w y v y w w v w w v w v w v w v v v v v v v v v v v v w m v v v v v v v v b v M v v b m b M b b b b b b b b b b b b b b b b b V V b n b b V n n n n n b b V n n n b n b n n n n n n b V n n V n n n n n D ( >.4.A.~.|.=X1X5X6X6X6X6X6X6X6X6X6X6X6X6X6X6X6X6X6X6X6X6X6X6X6X6X6X6X6X6X6X6X6X6X6Xq.V S S S V S S V S S 7X7X7X7X7X7X7X7X7X7X7X7X7X7X7X7X7X7X7X7X",
"7X7X7X7X7X7X7X7X7X7X7X7X7X7X7X7X7X7X7X7X. o . . . . . . . @ T.6X6X6X6X6X6X6X6X6X6X6X6X6X6X6X6X6X6X6X6X6X6X6X6X6X6X6X5X1X$X).K.s.<.' P m e q q q q w w e y v y w w w w w w v w w y w w w v w v w w v w v v w v y v v v v v v v b v v v b v b b v v b b b v b b b b b b b b b v b b b b b n b b b b b b b b b b b n b M V b b V b n n n V b V V n n V n n V n V n V n n V V V V n n n n V D J >.>.l.P._.=X1X5X6X6X6X6X6X6X6X6X6X6X6X6X6X6X6X6X6X6X6X6X6X6X6X6X6X6X6X_.S V V V S S S S S S 7X7X7X7X7X7X7X7X7X7X7X7X7X7X7X7X7X7X7X7X",
"7X7X7X7X7X7X7X7X7X7X7X7X7X7X7X7X7X7X7X7Xo . . o . . . . ; & oX6X6X6X6X6X6X6X6X6X6X6X6X6X6X6X6X6X6X6X6X6X3X>X@X(.B.t.@.` L t q q q q q q q q t q m q m q t v q v t v w w t w v y w w v v w m w v w w v v w b M w w v w b w b w b v v v M v b m b v b b v b b b b b b b b b b b b b b b b b b b b b b V b b b V b b b V b n n b V b n V M b C b V b V n V V V b V b V V V C V V V C b V V n V n n n V S J &.>.q.H.`.@X<X3X6X6X6X6X6X6X6X6X6X6X6X6X6X6X6X6X6X6X6X6X6X-XJ V S S V S S S S S 7X7X7X7X7X7X7X7X7X7X7X7X7X7X7X7X7X7X7X7X",
"7X7X7X7X7X7X7X7X7X7X7X7X7X7X7X7X7X7X7X7X. o . . . . X . . & %X6X6X6X6X6X6X6X6X6X6X6X6X6X6X5X2X:X XR.b.6.#.Y N t q 0 q q q q q t q m t m t v q v q v w w q v v t m q w v v w w v w v y v v w m w v w v w w w w w b w b w M w b w v v v b v v v v b m b v b M v M v b b b b b v b b b b b b n b n b b b b V b b b V M V b b b V b V b n n V b V b b V n M b V b C V V b V V b b V V V V V V V V V V V V V V V S V S J ( >.w.H.~.@X-X3X5X5X6X6X6X6X6X6X6X6X6X6X6X6X6X-XJ V S V S S S V S S 7X7X7X7X7X7X7X7X7X7X7X7X7X7X7X7X7X7X7X7X",
"7X7X7X7X7X7X7X7X7X7X7X7X7X7X7X7X7X7X7X7X. o . . . . . . . & %X6X6X6X6X6X6X6X6X6X6X>X{.U.d.6.] L m t q 0 t q t t q t t t t t t v t t t q q v q q w t t w q m q w v q v q q w w v w y y v w v w v w m w v b w w b w v w b w C w M v b v b M v v b v v b m v v v v v b e b b v b b b b b b b n b n b V V b b b n b b V b b b V b V n n n n b V V b V b V V V b V V V b b C V V M V V V V V V V V V V V V V S V V V S S V V V V V F ( >.9.A.~.|.<X6X6X6X6X6X6X6X6X6X6X-XJ S S V S S S S S S 7X7X7X7X7X7X7X7X7X7X7X7X7X7X7X7X7X7X7X7X",
"7X7X7X7X7X7X7X7X7X7X7X7X7X7X7X7X7X7X7X7X. .   . . . X . . 1 %X6X6X6X6X6X6X6X6X1Xg.Y u r 0 q 0 q r t q q t t t t q t v t t t t t q m y m t t t m w w w w w q m v q m q m m w v y w w v w v w v w w w M w w b w b v m b w w w b w M v v v v v b m v v b b b M b v b b b b b b b b b b b b b b b b b b b b b b b V b b b V b M V b n n n n V M V V b V b V V V V b V b V V V V V V b V b C V n V V V V V V V S V V S V S V V V V S S S V V S F _ H.2X6X6X6X6X6X6X6X6X-XJ V S S V S S S S S 7X7X7X7X7X7X7X7X7X7X7X7X7X7X7X7X7X7X7X7X",
"7X7X7X7X7X7X7X7X7X7X7X7X7X7X7X7X7X7X7X7X. . . . . . . . . 1 %X6X6X6X6X6X6X6X,X<.0 q q q q t t t r r t t t t t t t t y t t y t m t t t t t q t q w q v w y w v y w y v t v v t v v w y v v v w v w w b w v v w w w v v v w M w b v b v v M v v b v b b v M v b b b b b b b b b b b b n b n b n b b b b b b b b b V b n n b n b V n n n n n n V b n V b C C V b V b V b V V V C V V V V V V V V V n V V V V S V S V V S V S V V S S S S S S S V S 9.<X6X6X6X6X6X6X6X-XJ V V S S S S S S S 7X7X7X7X7X7X7X7X7X7X7X7X7X7X7X7X7X7X7X7X",
"7X7X7X7X7X7X7X7X7X7X7X7X7X7X7X7X7X7X7X7Xo . . . . . . . . < %X6X6X6X6X6X6X6Xu.9 r r r r r t r r r t t t t t t t y t y y t t t t v t m t t v t v w y y y w w q w w w w v q v t v w w v w w y v v b w m w v w m v v v v v b v b w v v b v m b b v v M M v b b b v b b b b b b b b b b b b b b n b b V V b b b V b b b n b n n b V n n n b n n b V V b V b b C b V V V V V V V b V C V b V V V V V V V V V V V V V V S S S V S S V V S S S S S S S S A.6X6X6X6X6X6X6X-XJ S S V V S S S S S 7X7X7X7X7X7X7X7X7X7X7X7X7X7X7X7X7X7X7X7X",
"7X7X7X7X7X7X7X7X7X7X7X7X7X7X7X7X7X7X7X7Xo . . . . . . . . < %X6X6X6X6X6X6X%X1 3 r r r r r t y r r t t t t t t t t t y y t t t t m t q m w q m q y w w y w w w w w w m q v q v v v y v y v y v y w w v v v v m v v v m v v v v m v b m v v v v v v b n b b v b b b b b b b b v b b b b b b b b b b b b b b b b V V V M n b n b b n n n n n C n n b V V V V b V C V b b C b V V V V V V C V V V n V V V V V S V V V V V S V S V V V S S S S S S S S ( -X6X6X6X6X6X6X-XJ S S V S S S S S S 7X7X7X7X7X7X7X7X7X7X7X7X7X7X7X7X7X7X7X7X",
"7X7X7X7X7X7X7X7X7X7X7X7X7X7X7X7X7X7X7X7X. o . . . . . . . = %X6X6X6X6X6X6XZ.. : r r r t t r r t r t t t t t t t t v t t t t v t t y t t w t q q w w e y w t q m w w q t v v m q w w w v v v v v w v w v v w v w v v v v v v v v m v v b b v v v b m b v m b v b b b e b b b b b b b b n b b b b b M V n b n b b b b n n n n n n n n n n n n n n n n V w V V V b V b V C V V b V b V V V V V V V V V V V V S V V V S S V S S V S S S S S S S S S S S `.6X6X6X6X6X6X-XJ n S S V S S S S S 7X7X7X7X7X7X7X7X7X7X7X7X7X7X7X7X7X7X7X7X",
"7X7X7X7X7X7X7X7X7X7X7X7X7X7X7X7X7X7X7X7X; o . . . . . . . 1 %X6X6X6X6X6X6XN.o @ r r r r t r t r t t t t t t t t t t t m q t t y t t t t w q q m q v t q t v q v y w w y v w v v w w m w y v v y w M v v v v v w q m v v v v v v v b M b b v v M v b M b b v M v v b b b v b b b b b b n b b n b b V b b V m b V b n b n b b b V b V b V V w w V V b n V n V V C V V b V V b V V V b n V V V V V V V V V V S V V V V S V S V V S S S S S S S S S S S ~.6X6X6X6X6X6X-XJ V S V S S S S S S 7X7X7X7X7X7X7X7X7X7X7X7X7X7X7X7X7X7X7X7X",
"7X7X7X7X7X7X7X7X7X7X7X7X7X7X7X7X7X7X7X7X. . . . . . . . . = %X6X6X6X6X6X6XN.. . 5 r r r r y t r t t t t t t t t t t t t t t t y v t m t w t q m t t v v q t v t v w w w y w w y w w w v v w w v w w m w w v M w v v v v v v v v v v v v v v b b b v v v b M b b b b b v b b b b b b b b b b b b b b b b b b b b n n n n V b V b V b V b V V V V b V n b V b V b b V V V V V V b V V V V n V V V n V V V V V S V V S S S S S V V S S S S S V S S S S ~.6X6X6X6X6X6X-XJ V V S S S V S S S 7X7X7X7X7X7X7X7X7X7X7X7X7X7X7X7X7X7X7X7X",
"7X7X7X7X7X7X7X7X7X7X7X7X7X7X7X7X7X7X7X7Xo . . . . . . . . 1 %X6X6X6X6X6X6XN.o . 3 r r t t r t r r t t t y t t t t t t t y y t y m q m y w w t q m q t t v t t v w w w w w v w v w w w v v v v y w w v w w w w b v v v v M v v v v v v v b v v v v b b v v v b b b b b b b b v b n b b b b b n b V b b V V b b V b n b n b n V b w V V V C w w V V V b V V V V b n n b C V b V V V V V V V V V V V V V V V V V V V S S V V S V S S S S S S S S S S S ~.6X6X6X6X6X6X-XJ S V S S S S S S S 7X7X7X7X7X7X7X7X7X7X7X7X7X7X7X7X7X7X7X7X",
"7X7X7X7X7X7X7X7X7X7X7X7X7X7X7X7X7X7X7X7X. o . o . . X . . & %X6X6X6X6X6X6XN.. . % r r t t r t r r t t y t t t t t t m t t y t y t t t t q t w w q v v q t v v v w w y w w v y w v w w w y v v v w b w b b b w w v m v v v v v v v v v v m v b v v v M b b b M v v b b b b b b b b b b b b b n b b b b b b b n b b n n n n b b n b C w V V V V C b V b V M b V V V n V V C C V V n V n V V V V V n V V V S V S V V V S S S V V S S S S S S S S S S S ~.6X6X6X6X6X6X-XJ V S V S S S S S S 7X7X7X7X7X7X7X7X7X7X7X7X7X7X7X7X7X7X7X7X",
"7X7X7X7X7X7X7X7X7X7X7X7X7X7X7X7X7X7X7X7Xo . . . . . . . . < %X6X6X6X6X6X6XN.. o . 0 r t t r t r t t t t t t y t t t y y y t t y t m q q t w w w y y m q v t v q w w y w v w y v y w w v v w v w w w v v w b w w m v v v v v v v M b v b M b v b v b M b b v b b b b v b b b b b b b b b b b b b b b V b V b b b b b V b b n n n V b n n V b V V b V V b V b V C n n V V V V M V V V V V V V V V V V V S V S V V V S V V V S V V S S S S S V S S S S ~.6X6X6X6X6X6X-XJ S S S V S S V S S 7X7X7X7X7X7X7X7X7X7X7X7X7X7X7X7X7X7X7X7X",
"7X7X7X7X7X7X7X7X7X7X7X7X7X7X7X7X7X7X7X7X. o . . . . . . . < %X6X6X6X6X6X6XN.. o . 3 t t t t r r t r t t t y t t t q y t y y t y t q t m w t q t v q w w q t t v w y w w w w w w v w w w w v v y w v w v m w w b v v v v v v v v v v v v v v M v b v v v v v M b b b v b b b b b b b n b n b b b b b b b b b b V V b V b b n n n b V n n b C V w V n n V V C V b V n b V V V V V V n n V b V V V n V V V V V S V V S S S S S V S S S S S S S S S S S ~.6X6X6X6X6X6X-XJ V S V S S S S S S 7X7X7X7X7X7X7X7X7X7X7X7X7X7X7X7X7X7X7X7X",
"7X7X7X7X7X7X7X7X7X7X7X7X7X7X7X7X7X7X7X7X. o . . . . . . . = %X6X6X6X6X6X6XN.. o o % r r r r t q t t t t t t t t y t y y y y t y y m m y e t y w w y w q t v q v w w y w y w w v w v w m v y v v M w v w b w w M v v v v v M v m v v v v v b v v v v b v b b b v v b v b b b b b b b b b b b b n b V b n b b b b b V b b b n b n n n n n V b V b n n C b V V V b V n V b M V V V V V V V V V V V V V V V S n V n V S S V V S V S S S S S S S S S S S ~.6X6X6X6X6X6X-X( V V V S S S S S S 7X7X7X7X7X7X7X7X7X7X7X7X7X7X7X7X7X7X7X7X",
"7X7X7X7X7X7X7X7X7X7X7X7X7X7X7X7X7X7X7X7X. . o . . . . . . < %X6X6X6X6X6X6XN.. . . . 5 t t t t r r t t t t y t t t t y t y y t y t y t y y y q w w w w y v t v t w w w w v v y v w y w v w v v w w w m w w b w w v v v v v v v v b v v M v v v b v M b b v M b v b b b b b b b b b b b b b n b b b n b b n b b V b b b V n n n n n n n n b V b V b V V V w b V V V b C C V V V b V V b V V V V V V V V V S S S S V V S S V S V S S S S S S S S S S S ~.6X6X6X6X6X6X-X( V S S V S S V S S 7X7X7X7X7X7X7X7X7X7X7X7X7X7X7X7X7X7X7X7X",
"7X7X7X7X7X7X7X7X7X7X7X7X7X7X7X7X7X7X7X7X; . . . . . . . . < %X6X6X6X6X6X6XN.. . . . > t t t t r t t r t t t t t t m v r r r v r v t t t q q q t m q y w t v q v w w m q q w w w w w v q w v w v w w v v v v v v v v v v v w v b v v v b v v b b v b b v v b b b b b b b b b b b b b b b b b b b n b b b n b n b n b n b n n n n n n n n n V b V n n n n V V V b V M V V b V C V b V V V V V V n n V V V V V V V V V S V S S V S V S S S S S S S S S ~.6X6X6X6X6X6X-XJ V V S S S S S S F 7X7X7X7X7X7X7X7X7X7X7X7X7X7X7X7X7X7X7X7X",
"7X7X7X7X7X7X7X7X7X7X7X7X7X7X7X7X7X7X7X7X. . . . . . . . . < %X6X6X6X6X6X6XN.. o . . - t r r t t r t t t t r t t r r r r m r v r t t t m q m v t q v y w v t v t w w w v v v w m w w v v v v w w b w w w w v w w w v v w v v v v v v v v b v v v v v b v b v v v v b b b v b b b b b b b b b b b b b n b b n n b n n n n b b n n n n n n n n V b C n n n V b V V V V V b V V V b V V V V V V V V V V V V S V V S V S V S V S S V S S S S S S S S S S ~.6X6X6X6X6X6X-XJ V S S V S S S S S 7X7X7X7X7X7X7X7X7X7X7X7X7X7X7X7X7X7X7X7X",
"7X7X7X7X7X7X7X7X7X7X7X7X7X7X7X7X7X7X7X7X. o . o . . . . . < OX6X6X6X6X6X6XN.o . .   ; > t t t t r t t t v r r v r r v m m m > m t m y y q m q q y y w w q v q w w w v t v t w w w w v w w w w w w w b w w w w w v w v v w w w b v v v v v v v v v v v v v b v v b n b b b b b v b b b b b b b b b b b b b b b b b b b n n n n n b V b n V M b V V n n V V C b b n n V C V C V V V n V n V V V V V V V V V V V V V S V S S V V S S S S S S S S S S S ~.6X6X6X6X6X6X-XJ S V S V S S V S S 7X7X7X7X7X7X7X7X7X7X7X7X7X7X7X7X7X7X7X7X",
"7X7X7X7X7X7X7X7X7X7X7X7X7X7X7X7X7X7X7X7X  . . . . . . . . < %X6X6X6X6X6X6XN.. . . . . > t r m > r t t t r r r r v r r r t > m m t q m t y q t v w q w w v q m w w w q m q v w v w w w w v U b.J.G.J.J.G.G.J.J.J.G.J.F.J.G.J.J.G.L.J.L.J.F.J.G.J.L.L.J.G.L.L.L.L.A.H.H.G.G.L.G.H.L.L.F.L.F.G.G.L.G.G.H.S.A.f.7.>.) G n b n b b n n b V b b V b V b V n b b V V V V n n V V V b V V n V V V n V V V V V V S V V V V S S V S S V S S S S S S S S S S S !.6X6X6X6X6X6X-XJ V V S S S S S S S 7X7X7X7X7X7X7X7X7X7X7X7X7X7X7X7X7X7X7X7X",
"7X7X7X7X7X7X7X7X7X7X7X7X7X7X7X7X7X7X7X7Xo . . o . . . . . 1 OX6X6X6X6X6X6XN.o o . . o @ r t t m r t r v r r r r t t v t m m r r v t t t t v q v w w w w w y m w w w w w q m v w v w w v q 0.6X6X6X6X6X6X6X6X6X6X6X6X6X6X6X6X6X6X6X6X6X6X6X6X6X6X6X6X6X6X6X6X6X6X6X6X6X6X6X6X6X6X6X6X6X6X6X6X6X6X6X6X6X6X6X6X5X3X1X=X).S.2.^ C b n b b V V b V b b V b V V b V b b V V b b V V C V V V V V V V V V V V V V V V V S V V S V V S V S S S S S S S S S S ~.6X6X6X6X6X6X-X( V V S S S S S S S 7X7X7X7X7X7X7X7X7X7X7X7X7X7X7X7X7X7X7X7X",
"7X7X7X7X7X7X7X7X7X7X7X7X7X7X7X7X7X7X7X7X. o . . . . . . . < OX6X6X6X6X6X6XN.o .   . o ; > r r r r r r r v r r v t t r t r r t t t q y m t q t q w w w w w w q w y w y w v y w w w w w w w t.6X6X6X6X6X6X6X6X6X6X6X6X6X6X6X6X6X6X6X6X6X6X6X6X6X6X6X6X6X6X6X6X6X6X6X6X6X6X6X6X6X6X6X6X6X6X6X6X6X6X6X6X6X6X6X6X6X6X6X6X6X6X5X>X/.l._ V b V b C b V V b V b C V V V V b V C V V V b V b V V V V V V n V V V V V V V V V S S S S S S S S S S S S S S S S ~.6X6X6X6X6X6X-XJ V S V V S S V S S 7X7X7X7X7X7X7X7X7X7X7X7X7X7X7X7X7X7X7X7X",
"7X7X7X7X7X7X7X7X7X7X7X7X7X7X7X7X7X7X7X7X. o . . . . . . . 1 %X6X6X6X6X6X6XN.. . ; o . . * r m m r t t r r v r r t t m r m t t m t m m y q t q m y e y y w y m w w y w w w v v w w w w v q q.6X6X6X6X6X6X6X6X6X6X6X6X6X6X6X6X6X6X6X6X6X6X6X6X6X6X6X6X6X6X6X6X6X6X6X6X6X6X6X6X6X6X6X6X6X6X6X6X6X6X6X6X6X6X6X6X6X6X6X6X6X6X6X6X6X6X1X(.0.G b b V b V V V b b V b V V b V V V V V V V V n V n V V V V V V V V V V V V V S V S S V S S S S S S S S S S S ~.6X6X6X6X6X6X-XJ S S S S S S S S S 7X7X7X7X7X7X7X7X7X7X7X7X7X7X7X7X7X7X7X7X",
"7X7X7X7X7X7X7X7X7X7X7X7X7X7X7X7X7X7X7X7X. . . . . . . . . & %X6X6X6X6X6X5XN.o o o . o . $ r > > r t r v r r r r t t t t r t t r y t q t t v q m w w y y w q q v w w w w w v y w w w w v q q.6X6X6X6X6X6X6X6X6X6X6X6X6X6X6X6X6X6X6X6X6X6X6X6X6X6X6X6X6X6X6X6X6X6X6X6X6X6X6X6X6X6X6X6X6X6X6X6X6X6X6X6X6X6X6X6X6X6X6X6X6X6X6X6X6X6X6X6X5X$Xl.^ b V b V b V b C C V V V b V C V b V n V V V V V V V V V V V S V S V V S V S V S V V S S S S S S S S S S ~.5X6X6X6X6X6X-XJ V V S V S S S S S 7X7X7X7X7X7X7X7X7X7X7X7X7X7X7X7X7X7X7X7X",
"7X7X7X7X7X7X7X7X7X7X7X7X7X7X7X7X7X7X7X7X. . . . . . . . . < %X6X6X6X6X6X6XN.o . o . . o ; = m m t t t t r v t t t t t m t t t v t t t t w q q q q w w y q v q w w w w y w v w y v w w m w q.6X6X6X6X6X6X6X6X6X6X6X6X6X6X6X6X6X6X6X6X6X6X6X6X6X6X6X6X6X6X6X6X6X6X6X6X6X6X6X6X6X6X6X6X6X6X6X6X6X6X6X6X6X6X6X6X6X6X6X6X6X6X6X6X6X6X6X6X6X6X6X-Xl.G n n V n V V b b b M V V V M V V V C V V b V V V V V V S V V V V V V S V S S V S S S S S S S S S S S ~.6X6X6X6X6X6X-XJ S S S V S S V S S 7X7X7X7X7X7X7X7X7X7X7X7X7X7X7X7X7X7X7X7X",
"7X7X7X7X7X7X7X7X7X7X7X7X7X7X7X7X7X7X7X7X. . o . . . . . . < %X6X6X6X6X6X6XN.. o . . . . o $ > m r r t t r t t t r m t t t t t r v t m t m t m q y w w q t t v w y w w w w w w v y w v w w t.6X6X6X6X6X6X6X6X6X6X6X6X6X6X6X6X6X6X6X6X6X6X6X6X6X6X6X6X6X6X6X6X6X6X6X6X6X6X6X6X6X6X6X6X6X6X6X6X6X6X6X6X6X6X6X6X6X6X6X6X6X6X6X6X6X6X6X6X6X6X6X6X6X$X7.C n n b V V V V V b V V V V V b V V V V V V V V V V V S V S V V S S V V S S V S S S V S V S S S S ~.6X6X6X6X6X6X-XJ V S V S S S S S S 7X7X7X7X7X7X7X7X7X7X7X7X7X7X7X7X7X7X7X7X",
"7X7X7X7X7X7X7X7X7X7X7X7X7X7X7X7X7X7X7X7X. . . . . . . . . = %X6X6X6X6X6X6XN.. o . o . . . . > r r t t t r t r t t t t t m t t t m q q m q w q t y v q m v t q m v w w w v w w v w w w w e 5.6X6X6X6X6X6X6X6X6X6X6X6X6X6X6X6X6X6X6X6X6X6X6X6X6X6X6X6X6X6X6X6X6X6X6X6X6X6X6X6X6X6X6X6X6X6X6X6X6X6X6X6X6X6X6X6X6X6X6X6X6X6X6X6X6X6X6X6X6X6X6X6X6X6X5X^._ n n V V n V b V V b V V V b V b V V V V V V V V V V V V S V V S S V S S V S S S S S V S S S S ~.6X6X6X6X6X6X-X( V S V S S S S S S 7X7X7X7X7X7X7X7X7X7X7X7X7X7X7X7X7X7X7X7X",
"7X7X7X7X7X7X7X7X7X7X7X7X7X7X7X7X7X7X7X7X.   . o . . . . . < %X6X6X6X6X6X6XN.. . .   .   . . * r r t r r m t t t t t v t r r r v t y t y q y y v w w v t q v v y w w y w y w v y w w v v v | 3X6X6X6X6X6X6X6X6X6X6X6X6X6X6X6X6X6X6X6X6X6X6X6X6X6X6X6X6X6X6X6X6X6X6X6X6X6X6X6X6X6X6X6X6X6X6X6X6X6X6X6X6X6X6X6X6X6X6X6X6X6X6X6X6X6X6X6X6X6X6X6X6X6X6X6X:Xw.C n n n V V M V V V C b V V C V V V V n n V V V S V V V V S S V S S V S S S S S S S S S S S ~.6X6X6X6X6X6X-X( V V S V S S S S S 7X7X7X7X7X7X7X7X7X7X7X7X7X7X7X7X7X7X7X7X",
"7X7X7X7X7X7X7X7X7X7X7X7X7X7X7X7X7X7X7X7X. . . . . . . . . < %X6X6X6X6X6X6XN.o . . . o . . . + > t t t t v r r t t t r v t r r t m t t t q m q m w y w w w q m w w w w y v w v y w w w w v N  X6X6X6X6X6X6X6X6X6X6X6X6X6X6X6X6X6X6X6X6X6X6X6X6X6X6X6X6X6X6X6X6X6X6X6X6X6X6X6X6X6X6X6X6X6X6X6X6X6X6X6X6X6X6X6X6X6X6X6X6X6X6X6X6X6X6X6X6X6X6X6X6X6X6X6X6X5XP.G n V V b V V b V V V V V V V V V V V V V V V V V V V V S S V V V V S S S S S S S S S S S ~.6X6X6X6X6X6X-XJ S S S V S S S S S 7X7X7X7X7X7X7X7X7X7X7X7X7X7X7X7X7X7X7X7X",
"7X7X7X7X7X7X7X7X7X7X7X7X7X7X7X7X7X7X7X7X. o . . . . . . . < OX6X6X6X6X6X6XN.. o . . . . . . X - t r t t t t r t t t r r t v r m t t m q q q y y q y w w w y q v y w w w w w w v v w w v w w 5.3X6X6X6X6X6X6X6X6X6X6X6X6X6X6X6X6X6X6X6X6X6X6X6X6X6X6X6X6X6X6X6X6X6X6X6X6X6X6X6X6X6X6X6X6X6X6X6X6X6X6X6X6X6X6X6X6X6X6X6X6X6X6X6X6X6X6X6X6X6X6X6X6X6X6X6X6X6X|._ V n V V b V C V V C V V C V V V V V V V V V S S V V V S S S S V S S S S S S S S S S S ~.6X6X6X6X6X6X-XJ V S V S S S V S S 7X7X7X7X7X7X7X7X7X7X7X7X7X7X7X7X7X7X7X7X",
"7X7X7X7X7X7X7X7X7X7X7X7X7X7X7X7X7X7X7X7Xo . . . . . . . . < OX6X6X6X6X6X6XN.. . o . . . . . . + r r t t t t t t m r m r v t r t m q y y y q e y v y y w w w y w w w w w w w w v w w w v v w m x.4X6X6X6X6X6X6X6X6X6X6X6X6X6X6X6X6X6X6X6X6X6X6X6X6X6X6X6X6X6X6X6X6X6X6X6X6X6X6X6X6X6X6X6X6X6X6X6X6X6X6X6X6X6X6X6X6X6X6X6X6X6X6X6X6X6X6X6X6X6X6X6X6X6X6X6X6X6X$X:.n n V V V V V b b V V V V V V V V V V V V V V V V S S V V S V S V S S S S S S S S S ~.6X6X6X6X6X6X-XJ S S V S S S S S S 7X7X7X7X7X7X7X7X7X7X7X7X7X7X7X7X7X7X7X7X",
"7X7X7X7X7X7X7X7X7X7X7X7X7X7X7X7X7X7X7X7Xo o . . . . . X . < OX6X6X6X6X6X6XN.. o . . o . . . . . > t t t t t r t t t t t r r r v y y y y w y w w y y y e w w w w w w w y v w v y w w w w v w w m 5.+X3X6X6X6X6X5X6X6X6X6X6X6X6X6X6X6X6X5X6X6X5X6X6X5X6X6X5X6X6X5X6X5X6X5X6X5X6X6X6X6X5X6X6X5X6X5X6X6X5X6X6X6X6X6X6X6X6X6X6X6X6X6X6X6X6X6X6X6X6X6X6X6X6X6X6X6X6X-X1.n n V V b V C V V b V V n V V n V V V V V V V V S S V S S V V S V S S S S S S S S ~.6X6X6X6X6X6X-XJ V V S V S S S S S 7X7X7X7X7X7X7X7X7X7X7X7X7X7X7X7X7X7X7X7X",
"7X7X7X7X7X7X7X7X7X7X7X7X7X7X7X7X7X7X7X7X. . . . . . o # . < %X6X6X6X6X6X6XN..   . . . o #   # . # 7 t t t t t t t t y y y t t y y y t y w t v q w y w y w w m w w w w w v q m m v w v w v q m v w Z :.8.q.s.q.q.a.q.s.s.q.q.s.q.q.s.7.7.7.4.7.7.5.7.7.5.7.7.4.5.0.2.5.2.4.4.7.4.0.2.7.4.5.4.3.,.2.4.7.w.l.F.^.@X1X5X6X6X6X6X6X6X6X6X6X6X6X6X6X6X6X6X6X6X6X6X6X6X<X2.b V V C V n V V V n V V V V V V V V V V S V S S V S V V S V V S S S S S S S S S ~.6X6X6X6X6X6X-XJ S V V S S S S S S 7X7X7X7X7X7X7X7X7X7X7X7X7X7X7X7X7X7X7X7X",
"7X7X7X7X7X7X7X7X7X7X7X7X7X7X7X7X7X7X7X7X. o .   . . . . . < OX6X6X6X6X6X6XN.. o . . . .   # . . X 3 e i t y t t t y y y y y t y m y q m q y q m w w w q w y q w w w w w w w v q w w w w w v w v w w e w w e w w e w w w w w w w w w b w w w w w v b v v v b v v v v b v b v v v b b b v b b b b b b b b b n M C ) 2.G.$X3X6X6X6X6X6X6X6X6X6X6X6X6X6X6X6X6X6X6X6X6X-X>.n n n V V n n V V V V V V V V V V V V V S S V S S S S V S S S S S S S S S S S ~.6X6X6X6X6X6X-XJ V S S V S S V S S 7X7X7X7X7X7X7X7X7X7X7X7X7X7X7X7X7X7X7X7X",
"7X7X7X7X7X7X7X7X7X7X7X7X7X7X7X7X7X7X7X7Xo . . . ; . . . . < OX6X6X6X6X6X6XN.  . . . . . .   # . . % e t t t t t t t y t y y t e t m t y t v q m w w q w w y m w w w w y y v v y w w w m v w v w w v v v v w v v v v b w b w b w v v v v v b b b v b M b b v b v v b b b b b b b b b n b n b b n n b b n b b n n b b n H 1.P.>X6X6X6X6X6X6X6X6X6X6X6X6X6X6X6X6X6X6X6X-X{ n V n V V V V V n S n V V V V V V S V V V S V V S V S V S S S S S S S S S S ~.6X6X6X6X6X6X-XJ V V S S S S S S S 7X7X7X7X7X7X7X7X7X7X7X7X7X7X7X7X7X7X7X7X",
"7X7X7X7X7X7X7X7X7X7X7X7X7X7X7X7X7X7X7X7X. . . .   ; . . . < OX6X6X6X6X6X6XN.  o o   # o . . . . . . 4 e t t t t t t y t t y t y t y t y q t q q y w y w w q q v y w w w w v w w w w v w w v w v w m w w v v v w v v w b M w w b b v v b v v v v v v v b v b b b v b b b b b b b b b b b b b b n n b b n b b n b n n n b b b ) S.>X6X6X6X6X6X6X6X6X6X6X6X6X6X6X6X6X6X6X|.( n V V V n V n V V V V n V V V V V V V V V S S S S V S S S S S S S S S S V ~.6X6X6X6X6X6X-X( V S S V S S S S S 7X7X7X7X7X7X7X7X7X7X7X7X7X7X7X7X7X7X7X7X",
"7X7X7X7X7X7X7X7X7X7X7X7X7X7X7X7X7X7X7X7X; . o . . . . . . < OX6X6X6X6X6X6XN..   #   .   #   . . . . % q t t i e t t y w y y t y t q y t y t y v v q t w t v t v w w w w w y v w v y m q v v v w w w b w b w w C w v v v v v v v b w w b b w b b b M v v v v b b b b b v b b b b b b b b b b n b b b b n n b n b n n b n n b b V ) G.3X6X6X6X6X6X6X6X6X6X6X6X6X6X6X6X6X6X~.C V C V V n V V V V V V V V V V V V V V S S V V S V S S S S S S S S S S S ~.6X6X6X6X6X6X-XJ V V V S S S S S S 7X7X7X7X7X7X7X7X7X7X7X7X7X7X7X7X7X7X7X7X",
"7X7X7X7X7X7X7X7X7X7X7X7X7X7X7X7X7X7X7X7X. . . . . . . . . < OX6X6X6X6X6X6XN.. . . . #     # . . . . . 4 t t t y t y y y y y t y t m y q w q y q t v v t v t v q w w w w v v v y v q v v t v v m w w w b w w w w v v v v m v v v v b M w w b w b v b v b b M b b b b b b v b b b b b b b n b b b b n b n b n b n n n b n b b V b b n 1.@X6X6X6X6X6X6X6X6X6X6X6X6X6X6X6X6X5Xl.V n n V V V V n V V n V V V V V S V V S V S S V V V S S S S S S S S S S ~.6X6X6X6X6X6X-XJ V S S V S S S S S 7X7X7X7X7X7X7X7X7X7X7X7X7X7X7X7X7X7X7X7X",
"7X7X7X7X7X7X7X7X7X7X7X7X7X7X7X7X7X7X7X7Xo   . o . . . . . < OX6X6X6X6X6X6XN.o .   #   . #   # . . . . * r y t t t t y y t y t y m t y m m t w q q t t q q v t v w w w y w y v w w y v v v w w v w M b w w b M w v v v v v v v m v v b b w b M b b v v b M v b v b b b b b b b b b n b b b b b b b b b n n b b V b n n b b V b V n n b G L.5X6X6X6X6X6X6X6X6X6X6X6X6X6X6X6X<X>.n V n V V V V V V V V V V S V S V V S V S S V V S S S S S S S S S S S ~.6X6X6X6X6X6X-XJ S V S S S S S S S 7X7X7X7X7X7X7X7X7X7X7X7X7X7X7X7X7X7X7X7X",
"7X7X7X7X7X7X7X7X7X7X7X7X7X7X7X7X7X7X7X7X. . . . . . . . . < OX6X6X6X6X6X6XN.. . #   . . o # . . . . . X 5 e r t t t y t y y t y v t y t q q q m v t v v t t v t y w w w w w v w v w t v w w v w w w w b w w w w v v v v v w v b m v w M b w b v v v M b v b v v b b v b b b b b b b b b b b b b b n b b b b b b n n b n b b V b n n n n C l.2X6X6X6X6X6X6X6X6X6X6X6X6X6X6X6X_.G n V n V V V V V V V V V V V V V V V S V S S V S S S S S S S S S S S ~.6X6X6X6X6X6X-XJ V S V S S S S S S 7X7X7X7X7X7X7X7X7X7X7X7X7X7X7X7X7X7X7X7X",
"7X7X7X7X7X7X7X7X7X7X7X7X7X7X7X7X7X7X7X7X. o o . . . . . . < %X6X6X6X6X6X6XN.. o .   . . # o # o X . X . - q t t t y y y y t t y t m q t w t q q m w t w t v t v w w v q q v w w w w v v w v v v w M w v v v b w w b w b w C w w b v b m m b v m v b v M b m b M b b b b b b b b b b b b b b b n n b V b b n n b n n b n b n V b n n n n n n 0.<X6X6X6X6X6X6X6X6X6X6X6X6X6X6X6Xl.V n V V V V n V V V V V V V V V V S S V S S V S S S S S S S S S S S ~.6X6X6X6X6X6X-XJ V S V S S S S S S 7X7X7X7X7X7X7X7X7X7X7X7X7X7X7X7X7X7X7X7X",
"7X7X7X7X7X7X7X7X7X7X7X7X7X7X7X7X7X7X7X7X. . . . . . . . . 1 %X6X6X6X6X6X6XN.. . . . . . o # o # . . . . X 4 t t t t y t y y t y t t t m w t y v q w w w v t v q w m q m m w w v y w y w v y m w w v v w v w w w w w b w w w w C v v b v b v v b b v v b v b b b v b w b b b b b b b b b b b b b V b b b b b V b b n n n n n M V n n n b n n b 1.<X6X6X6X6X6X6X6X6X6X6X6X6X6X6X-X) n V V V V V V V V V S S V V V V S V S S V V V S S S V S V S S S S ~.6X6X6X6X6X6X-XJ V V S S S V S S S 7X7X7X7X7X7X7X7X7X7X7X7X7X7X7X7X7X7X7X7X",
"7X7X7X7X7X7X7X7X7X7X7X7X7X7X7X7X7X7X7X7Xo . o . . . . . . < %X6X6X6X6X6X6XN.  o . o # o # o # o . . X . . - q t y t y y t y t y q m t t w q v t y q w t q v q v w w v t v q q m v w v v w v w v w v w v v v m b b w C w w V b w b v v v v v v b v b b b b m b v b b b b b b b b b V b b b b n n b b V b b b b b V b n n b n b b n n n n n n n n 4.2X6X6X6X6X6X6X6X6X6X6X6X6X6X6XG.V n V n V V V n V V V V V V V V S V V S V V S S S S S S V S S S S ~.6X6X6X6X6X6X-XJ S V S S S S S S S 7X7X7X7X7X7X7X7X7X7X7X7X7X7X7X7X7X7X7X7X",
"7X7X7X7X7X7X7X7X7X7X7X7X7X7X7X7X7X7X7X7Xo . . . . . . . . < %X6X6X6X6X6X6XN.o o # o o . . . o # . . . . X X 9 q t t y t y y t y t t q m t t q t w w w w q v m q w w q t v v v v w w y v v w v w w w v v v w v w w v w w w w w b v m b v v b m v v M b w v b b M v b b b b b v b b b b b n b v n b b w V b V w V b n b M n n n n n n n n n n n n n f.4X6X6X6X6X6X6X6X6X6X6X6X6X6X<X{ V V V V V V V V V V S V S V V S S S V S V S S S S S S S S S S S ~.6X6X6X6X6X6X-XJ V S V S S S S S S 7X7X7X7X7X7X7X7X7X7X7X7X7X7X7X7X7X7X7X7X",
"7X7X7X7X7X7X7X7X7X7X7X7X7X7X7X7X7X7X7X7X. . . o . . X . . 1 %X6X6X6X6X6X5XN.o # o # o # . o # . . . . . X . + q t t y y y t t y t m t m t t q v y w y y v w q m w w w w q m v y v w v v w m w v w M w v b w w b b w v v w w b w v v v v v v v b v b v b M v b b v b b v b b v b b b b b b b b b V b b V n b n b b b V V b b M V b V M V n n V b n V G.6X6X6X6X6X6X6X6X6X6X6X6X6X6XG.V V V V n V V V V V V V S V V S S V S S V S S S S S S S S S S S ~.6X6X6X6X6X6X-XJ S S S V S S V S S 7X7X7X7X7X7X7X7X7X7X7X7X7X7X7X7X7X7X7X7X",
"7X7X7X7X7X7X7X7X7X7X7X7X7X7X7X7X7X7X7X7X. o . . . . . . . = %X6X6X6X6X6X6XN.o o . o o o . . . . . . . X . X X 4 t y y t y y q y t q t t w t q m w w y y w w v y w y w w v v q v w m q q v w v w w w w v w w M w w b v v C w w b M v M b v b m b M v b v b b b m b b b b b b b b V b b b b b b b b b b b b n n b V b b b b V b b n b V b n n b V n n ! #X6X6X6X6X6X6X6X6X6X6X6X6X6X-X_ V V V S V n V V V S V V V V V V S S V S V S S S S S S S S S S ~.6X6X6X6X6X6X-XJ V S V S S S S S S 7X7X7X7X7X7X7X7X7X7X7X7X7X7X7X7X7X7X7X7X",
"7X7X7X7X7X7X7X7X7X7X7X7X7X7X7X7X7X7X7X7Xo . . . . . . . . 1 %X6X6X6X6X6X6XN.# o o o # o . . . . . . . . . X . + q y t y y y t y v t v v q w q q w y m e t q m w y w y w v t y w w w w m y v w v w b v w v w v w v v v v M w b w v v v v v v b v b v b b v b v b v b b b b b b b b b b b b n b b b b b b b b b V V b b b b V b V n n V b b V V b n n n :.2X6X6X6X6X6X6X6X6X6X6X6X6X6XA.n V V n S V V V V V V V S V S V S S V V S V S S S S S S S S S ~.6X6X6X6X6X6X-X( V V V S S S S S S 7X7X7X7X7X7X7X7X7X7X7X7X7X7X7X7X7X7X7X7X",
"7X7X7X7X7X7X7X7X7X7X7X7X7X7X7X7X7X7X7X7X. o . . . . . . . & %X6X6X6X6X6X6XN.o   # # o ; .   # . X . . . X . . X 3 t y y t y t y t t t t y y y v e y w w w w q v w w w w w w v v w w w v v w v w w w v m w b v w v m v v w b w b v v v b v M v b v b v m b M b v b b v b b b b b b b b b b b b b V b b V b b b b b b V V b b V b n n b b V b V V n V n n F.6X6X6X6X6X6X6X6X6X6X6X6X6X#XS V V V V V V V S S V V V V V S V S S V S S V S S S S S S S S ~.6X6X6X6X6X6X-X( V S S V S S V S S 7X7X7X7X7X7X7X7X7X7X7X7X7X7X7X7X7X7X7X7X",
"7X7X7X7X7X7X7X7X7X7X7X7X7X7X7X7X7X7X7X7Xo . . o . # o # . < %X6X6X6X6X6X6XN.o o . . . . . o # . . X . X . X X X @ q y y y y t t y t t m q m q w q m v t q v t v w w w y w w v w w w w v v w v w w v v v v v v w v v v v b w b w v b v b v v v b v v v b b v b b b b b b v b b b b b b b b b b n b b b b b b b b V V M b b n b V n n n n b V b V C b n n ^ -X6X6X6X6X6X6X6X6X6X6X6X6X5X1.n S V S n V V V V V V V V V S S V S V S S S S S S S S S S S ~.6X6X6X6X6X6X-XJ V V S S S S S S F 7X7X7X7X7X7X7X7X7X7X7X7X7X7X7X7X7X7X7X7X",
"7X7X7X7X7X7X7X7X7X7X7X7X7X7X7X7X7X7X7X7X. . . . . . . . . < OX6X6X6X6X6X6XN.. o . . . . . # o # . . . . . . . . . * y y w y t y t w y y q q y q v q t q t t v t w w w w w v w w v w w w w v w v w v v w v w v v v v v v v v w b v v v v b v v b v M b b M v b b v b b b b b b b b b b b b b b b b V V b V b b V b b b V n b V b n n n n V b V b b V b V V z.6X6X6X6X6X6X6X6X6X6X6X6X6XP.V n V n V V V V V V S V S V S V V S V S S S S S S V S S S S ~.6X6X6X6X6X6X-XJ V S S V S S S S S 7X7X7X7X7X7X7X7X7X7X7X7X7X7X7X7X7X7X7X7X",
"7X7X7X7X7X7X7X7X7X7X7X7X7X7X7X7X7X7X7X7X. o . . . o . . . < OX6X6X6X6X6X6XN.o . o .   . . o . . . . . . ; X X . . O 0 q t t y y m q y y y w y m q y t v v v q v w w w w w w w w w w w v v w v w v w w v v v v w m v v v w w w b b v v v v b b v v b M v v b b v b b b b b b b b b b b b b b b n b b b b b n b b n b n b b V b V n n n n b V b C V V b b b ( -X6X6X6X6X6X6X6X6X6X6X6X6X&XJ V V n n V V V S V V V V V S V S S V V V S S S S S S S S S ~.6X6X6X6X6X6X-XJ S V S V S S V S S 7X7X7X7X7X7X7X7X7X7X7X7X7X7X7X7X7X7X7X7X",
"7X7X7X7X7X7X7X7X7X7X7X7X7X7X7X7X7X7X7X7X. o . . . . . # . < OX6X6X6X6X6X6XN.. o # o . . # o . . . . X . . . . X X X * q y t t t t t y y y q q w t v v t q t v t w w y w w v w w w w w v w v m w w w v v v w v w v v v v b w b v v v v w b v v v b v b v b v b v w b b v b b b b b b b b b n b b b b V b b b n b b n b V b M V b n n n n V b V n b V n V V n F.6X6X6X6X6X6X6X6X6X6X6X6X4X>.n V V V V V V V V S V S V V S V S S S S S S S S S S S S S ~.6X6X6X6X6X6X-XJ V V S S S S S S S 7X7X7X7X7X7X7X7X7X7X7X7X7X7X7X7X7X7X7X7X",
"7X7X7X7X7X7X7X7X7X7X7X7X7X7X7X7X7X7X7X7X. . o . . . . . . < OX6X6X6X6X6X6XN.. o o . # o . . . . . . . . . . X X . . X 4 t t t y m m q t y y w y w w q y t v q v w y w w w w w v q v q v v w v w w v v v v v v v w v v v v v v v v v v v v b v b M v b v v b b v b b b b b b b b n b b b n b n b b b b b V b b b V b b n n b V b n n n n B n n n b V b V V b :.2X6X6X6X6X6X6X6X6X6X6X6X6Xz.V V V V V V V V V V V V V S S V S V S S V S S S S S S S S ~.6X6X6X6X6X6X-X( V V S S S S S S S 7X7X7X7X7X7X7X7X7X7X7X7X7X7X7X7X7X7X7X7X",
"7X7X7X7X7X7X7X7X7X7X7X7X7X7X7X7X7X7X7X7X. . . . . . . . . < OX6X6X6X6X6X6XN.. . # o o . . . . # . . X . X . X . X X . % q t y y t t m y q w w q w w w y v t v t w v w w y w w w v q v v w v w m w w v w v w v w v v v v w b v b b m v b v v b v v b b v b v b v b b e b b b b b b b b n b b b b b V V b M b b V b n V M n n b n n n B b n n V n V b V b b V H |.6X6X6X6X6X6X6X6X6X6X6X6X`.V V V V V V S V S V S S V S V S S V V S S S S S S S V S S ~.6X6X6X6X6X6X-XJ V S V V S S V S S 7X7X7X7X7X7X7X7X7X7X7X7X7X7X7X7X7X7X7X7X",
"7X7X7X7X7X7X7X7X7X7X7X7X7X7X7X7X7X7X7X7X. . . . . . . . . < OX6X6X6X6X6X6XN.. o o o # . . o # . . . . . X . . X X . X X > y t t t t q t q t q m e w w w q v q v w y w w m w w w v q v v w v v w v v w b w v v w v v v v b v b v v v v b v v b v v b M v b b b b b b b b b b b b b b b b b b b b b b b n b n b b b n b n b n b n n n n n n n V n V b b V V b V z.6X6X6X6X6X6X6X6X6X6X6X6X&XG V V n V V V S V V V V S S V V S V S S S S S S S S S S S ~.6X6X6X6X6X6X-XJ S S S S S S S S S 7X7X7X7X7X7X7X7X7X7X7X7X7X7X7X7X7X7X7X7X",
"7X7X7X7X7X7X7X7X7X7X7X7X7X7X7X7X7X7X7X7X. o o . . . . . . < OX6X6X6X6X6X6XN.o . o # o . . . . . . . X . . X . X . X X . + 0 y t v q m y w t w y y y w w v q m q w w w w w w w w v q e v e w w w v e w w w w w w w w v w w w e v v v v v v v v v v v v b v v v v e b b b b b v v b b b b b b b n n b b b n b b V V b V b n n n n n n n n n n n n b V V b C V V >.4X6X6X6X6X6X6X6X6X6X6X6X2X%.n V V V V V V V V S V S V S V S S S S S S S S S S S S S ~.6X6X6X6X6X6X-XJ V V S V S S S S S 7X7X7X7X7X7X7X7X7X7X7X7X7X7X7X7X7X7X7X7X",
"7X7X7X7X7X7X7X7X7X7X7X7X7X7X7X7X7X7X7X7X. o o . . . . . . < %X6X6X6X6X6X6XN.. o . . . . o X . . . . . X X . X X . X X X X - q t t t y m q y v q w w e y w v q m w w e w N } } } [ } } } } } } } } } } | | } | | | | } | | | } | [ [ } | | | | | | | | | | { | | | | { | %.| | [ V b b b b b b b V b b V b b b b n b V b b V V M V b V b V V C V V n n n V n n ! -X6X6X6X6X6X6X6X6X6X6X6X5X9.n V V V V V V V V V V V S V V S S V S S S S S S S S S S H.2X6X6X6X6X6X-XJ S S S V S S V S S 7X7X7X7X7X7X7X7X7X7X7X7X7X7X7X7X7X7X7X7X",
"7X7X7X7X7X7X7X7X7X7X7X7X7X7X7X7X7X7X7X7X. . . . . . . . . 1 %X6X6X6X6X6X6XN.o . . . o o . o X . . X . . . X X . X X . X X X 4 t m t t t t q v t w w y y y q m q w w w w b.3X2X3X3X2X2X3X3X3X3X2X3X3X2X3X3X2X2X3X2X3X2X3X2X3X2X3X3X3X3X3X2X2X3X2X3X3X2X2X3X3X3X3X3X3X3X3X3X3X3X1X@XA.! v b b b n b b b b b b b V b n b n b b b V b V b C w w V w b C n n V n V C _.6X6X6X6X6X6X6X6X6X6X6X6Xw.n V n V V V S V V S V S S S S V V S S S S S S S S V S S ~.5X6X6X6X6X6X-XJ V S V S S S S S S 7X7X7X7X7X7X7X7X7X7X7X7X7X7X7X7X7X7X7X7X",
"7X7X7X7X7X7X7X7X7X7X7X7X7X7X7X7X7X7X7X7Xo . o . . . . . . < %X6X6X6X6X6X6XN.o o . o . . . X . . . . X . X . . X . X X . X . + 0 t t t m t v t q y m w w v q m v y w w w I.6X6X6X6X6X6X6X6X6X6X6X6X6X6X6X6X6X6X6X6X6X6X6X6X6X6X6X6X6X6X6X6X6X6X6X6X6X6X6X6X6X6X6X6X6X6X6X6X6X6X6X6X6X@X>.b b b b b b b b b b b b V M V b b V V b V b w V V V V V V n n n b V n n G.6X6X6X6X6X6X6X6X6X6X6X6XH.n V V V V V V V V V V S V S S S S S S V S S S S S S S S ~.5X6X6X6X6X6X-X( V S V S S S S S S 7X7X7X7X7X7X7X7X7X7X7X7X7X7X7X7X7X7X7X7X",
"7X7X7X7X7X7X7X7X7X7X7X7X7X7X7X7X7X7X7X7Xo . . . . . . . . < %X6X6X6X6X6X6XN.. . . . o . . . . . . . . . . X . . X X . X X X X * q v t y t q q m y y e y y w q v w w w y I.6X6X6X6X6X6X6X6X6X6X6X6X6X6X6X6X6X6X6X6X6X6X6X6X6X6X6X6X6X6X6X6X6X6X6X6X6X6X6X6X6X6X6X6X6X6X6X6X6X6X6X6X6X6X&X^ n b b V b b V V b n b b n b n b b b b b V V V V w b V n n n V V n V n l.6X6X6X6X6X6X6X6X6X6X6X6X~.V V V V V V V S V V V V V S V S V V S S S S S S S S S S ~.5X6X6X6X6X6X-X( V V S V S S S S S 7X7X7X7X7X7X7X7X7X7X7X7X7X7X7X7X7X7X7X7X",
"7X7X7X7X7X7X7X7X7X7X7X7X7X7X7X7X7X7X7X7X. . . o . . X . . 1 %X6X6X6X6X6X5XN..   . o . ; . . . . . . . . X X . X . X . X X X X X 4 t w y q q y v w w q w w y w w w y w w I.6X6X6X6X6X6X6X6X6X6X6X6X6X6X6X6X6X6X6X6X6X6X6X6X6X6X6X6X6X6X6X6X6X6X6X6X6X6X6X6X6X6X6X6X6X6X6X6X6X6X6X6X6X6X6XG.M b b b V M b b n b b n b n b n n b V b V b b b V V b n n n V V V V b w.6X6X6X6X6X6X6X6X6X6X6X6X).V V V V V V V V V V V S S V S S V S S S S S S S S S S S ~.6X6X6X6X6X6X-XJ S S S V S S S S S 7X7X7X7X7X7X7X7X7X7X7X7X7X7X7X7X7X7X7X7X",
"7X7X7X7X7X7X7X7X7X7X7X7X7X7X7X7X7X7X7X7X. o . . . . . . . = %X6X6X6X6X6X6XN.  . o . . o . . . . . . X . . . . X X X X X X X X X % q y y y w q t y w y w w q w w w w w w I.6X6X6X6X6X6X6X6X6X6X6X6X6X6X6X6X6X6X6X6X6X6X6X6X6X6X6X6X6X6X6X6X6X6X6X6X6X6X6X6X6X6X6X6X6X6X6X6X6X6X6X6X6X6X6X&X! n b b n b b n b b V b V n n b n V b V b b V b C b V n n n n b V n n 1.6X6X6X6X6X6X6X6X6X6X6X6X_.D V n V V V V V V V V S V S S V S V V S S S S S S S S S ~.6X6X6X6X6X6X-XJ V S V S S S V S S 7X7X7X7X7X7X7X7X7X7X7X7X7X7X7X7X7X7X7X7X",
"7X7X7X7X7X7X7X7X7X7X7X7X7X7X7X7X7X7X7X7Xo . . . . . . . . 1 %X6X6X6X6X6X6XN.. . o . . o . . . . . . X . X . . X . X X ; X X X X X * w t q m y v w w w y y w w w w w w w I.6X6X6X6X6X6X6X6X6X6X6X6X6X6X6X6X6X6X6X6X6X6X6X6X6X6X6X6X6X6X6X6X6X6X6X6X6X6X6X6X6X6X6X6X6X6X6X6X6X6X6X6X6X6X6X3X%.b b b b b n b n b b b n n b n n b n b V V b b V n n V n n n V b V b :.5X6X6X6X6X6X6X6X6X6X6X6X|.V V V V V V S V S V V S V S V S V S S S S S S S S S S S ~.6X6X6X6X6X6X-XJ S S V S S S S S S 7X7X7X7X7X7X7X7X7X7X7X7X7X7X7X7X7X7X7X7X",
"7X7X7X7X7X7X7X7X7X7X7X7X7X7X7X7X7X7X7X7X. o . . . . . . . & %X6X6X6X6X6X6XN.. . . . o ; . . . X . . . . . X . . X X X X ; X ; X X X 4 y t q y q w w y q w w w w w w w w I.6X6X6X6X6X6X6X6X6X6X6X6X6X6X6X6X6X6X6X6X6X6X6X6X6X6X6X6X6X6X6X6X6X6X6X6X6X6X6X6X6X6X6X6X6X6X6X6X6X6X6X6X6X6X6X4X%.b b n b b b n b b V b n n n b b V b V b V b b V n V n n V b V V V b ,.4X6X6X6X6X6X6X6X6X6X6X6X|.C V V V V V V V V V V S S V S V V S V S S S S S S V S S ~.5X6X6X6X6X6X-XJ V V S V S S S S S 7X7X7X7X7X7X7X7X7X7X7X7X7X7X7X7X7X7X7X7X",
"7X7X7X7X7X7X7X7X7X7X7X7X7X7X7X7X7X7X7X7X; . . . o . . . . < %X6X6X6X6X6X6XN.o o . . . . . . . . o X X . . X X . X X X X ; X X X X X + q y y w q y w w e y w w w w w w e n.6X6X6X6X6X6X6X6X6X6X6X6X6X6X6X6X6X6X6X6X6X6X6X6X6X6X6X6X6X6X6X6X6X6X6X6X6X6X6X6X6X6X6X6X6X6X6X6X6X6X6X6X6X6X6X1X/ b b n b b n b n b b n n n n b n n n n n n n n b b V C b V b V V C b >.5X6X6X6X6X6X6X6X6X6X6X6X|.V V V V V V V V V V V S S V S V V S S S S S S S S S S S ~.6X6X6X6X6X6X-XJ V S S S S S S S S 7X7X7X7X7X7X7X7X7X7X7X7X7X7X7X7X7X7X7X7X",
"7X7X7X7X7X7X7X7X7X7X7X7X7X7X7X7X7X7X7X7X. . . . . . . . . < %X6X6X6X6X6X6XN.. . . o . . . o . . X . o . X . . X . X X X . X X X X X X : e w y w w w w w y m w w w w w w <.5X6X6X6X6X6X6X6X6X6X6X6X6X6X6X6X6X6X6X6X6X6X6X6X6X6X6X6X6X6X6X6X6X6X6X6X6X6X6X6X6X6X6X6X6X6X6X6X6X6X6X6X6X6X6X XC n b b n b n n b n b b n b n b n b n n n n n b V V b b V b V b V b n 4.5X6X6X6X6X6X6X6X6X6X6X6X_.V V V V S V V V V V V V S S S S V V S S V S S V S S S S ~.6X6X6X6X6X6X-XJ S S V V S S V S S 7X7X7X7X7X7X7X7X7X7X7X7X7X7X7X7X7X7X7X7X",
"7X7X7X7X7X7X7X7X7X7X7X7X7X7X7X7X7X7X7X7X. o . . . . . . . 1 OX6X6X6X6X6X6XN.. o . o . . . # # . X o X . . . X X . X X X X X X X X X X O 4 e q w y w w y v q q m w y w w M _.6X6X6X6X6X6X6X6X6X6X6X6X6X6X6X6X6X6X6X6X6X6X6X6X6X6X6X6X6X6X6X6X6X6X6X6X6X6X6X6X6X6X6X6X6X6X6X6X6X6X6X6X6X5X0.v b n b b b n b n b n n n n n n b n n n n n n V V b V n n V n b V V n q.6X6X6X6X6X6X6X6X6X6X6X6X(.V V V V V V S V V V V S S V V S V S S S S S S S S S S S ~.6X6X6X6X6X6X-X( V S V S S S S S S 7X7X7X7X7X7X7X7X7X7X7X7X7X7X7X7X7X7X7X7X",
"7X7X7X7X7X7X7X7X7X7X7X7X7X7X7X7X7X7X7X7Xo . . . . . . . . < OX6X6X6X6X6X6XN.. . o . . . . o . . . . X . . ; X . X X . X X ; X X X O X X + 9 w w w w q y q m q w w w w w w } *X6X6X6X6X6X6X6X6X6X6X6X6X6X6X6X6X6X6X6X6X6X6X6X6X6X6X6X6X6X6X6X6X6X6X6X6X6X6X6X6X6X6X6X6X6X6X6X6X6X6X6X6XP.B M b b n n b b n b b n n b b n b V b n b n n n b V V b n V n n V V b b S.6X6X6X6X6X6X6X6X6X6X6X6XP.V V V V V S V V V V V S S V S V V S S V S S S S S S S S ~.6X6X6X6X6X6X-XJ V S S V S S S S S 7X7X7X7X7X7X7X7X7X7X7X7X7X7X7X7X7X7X7X7X",
"7X7X7X7X7X7X7X7X7X7X7X7X7X7X7X7X7X7X7X7X. . . o . . . . . < OX6X6X6X6X6X6XN.. o . o . . o . . . . . . . . X . . X X . X X X X X X O X + X + q w w q w w t v v t w w y w w w |  X5X6X6X6X6X6X6X6X6X6X6X6X6X6X6X6X6X6X6X6X6X6X6X6X6X6X6X6X6X6X6X6X6X6X6X6X6X6X6X6X6X6X6X6X6X6X6X6X6X<XS.C b b b b b b b n b b n b n n n n n b n n n n n n b C V M C n n n V n n V ~.6X6X6X6X6X6X6X6X6X6X6X6XA.V n V V V V V V V V V V S S S V V S S S S S S S S S S S ~.6X6X6X6X6X6X-XJ V V S S S S S S S 7X7X7X7X7X7X7X7X7X7X7X7X7X7X7X7X7X7X7X7X",
"7X7X7X7X7X7X7X7X7X7X7X7X7X7X7X7X7X7X7X7X. o . . . . . . . < OX6X6X6X6X6X6XN.. o . . o . . . o # . o X . X . X X X . X X X X X X X X X O O + 2 w w m q y v q t v w w w w w w w Z 8.I.{.{.{.{.{.|.{.{.{.{.{.{.{.|.{.{.{.|.{.|.{.{.{.{.{.{.{.{.{.{.|.{.|.|._.(././.(.(.(.(././.(.^.A.( M n b b n b n b n b b n n b b b n b n n V b n n n n n b V V n n n n n C V C +X6X6X6X6X6X6X6X6X6X6X6X5X9.V V V V V V V S S V V S S V V S V S S S S S S S S S S S ~.6X6X6X6X6X6X-XJ S S V V S S S S S 7X7X7X7X7X7X7X7X7X7X7X7X7X7X7X7X7X7X7X7X",
"7X7X7X7X7X7X7X7X7X7X7X7X7X7X7X7X7X7X7X7Xo o . . . . . # . < OX6X6X6X6X6X6XN.. o . o . . . # # . o X X . o . X . . X . . X ; X ; X X X X O X O 4 w t m q t t v t y w w w w w w w e v m m m m M m M m M m M m M M m M M M m M m M M M M M M M M M M M M M M M M b b b b b b b M b b v b b b b b b b b n n n n b b n n b n b b b V n n b V b V V b n n n V n V b _ <X6X6X6X6X6X6X6X6X6X6X6X5X>.n S V V V V V V V V V V V S V S V S S S S S S S S S S S ~.6X6X6X6X6X6X-XJ V S V S S S S S S 7X7X7X7X7X7X7X7X7X7X7X7X7X7X7X7X7X7X7X7X",
"7X7X7X7X7X7X7X7X7X7X7X7X7X7X7X7X7X7X7X7Xo . . . . . . . . < %X6X6X6X6X6X6XN.. . o . . o . o . . X X . . X . X . X X X X . . X X O X + X O O X + 0 w q q v v q v v y e w w w v y y m w w w w w w w w w v w w v w v w v v v v v v v v v v v v b b v v b v v b b v v b b b b b b v b b b b n b n b b n b b b n n b V M V b n V b b n b V b b C b V V n n n V b V 4.5X6X6X6X6X6X6X6X6X6X6X6X<X&.V V V V V V V S V V V S V S S S V V S S S S S S S S S S ~.6X6X6X6X6X6X-XJ V S S V S S S S S 7X7X7X7X7X7X7X7X7X7X7X7X7X7X7X7X7X7X7X7X",
"7X7X7X7X7X7X7X7X7X7X7X7X7X7X7X7X7X7X7X7X. . . o . . . . . < %X6X6X6X6X6X5XN..   # o o # o # o # . . X . X . X X . X . X # X X O X O X X X @ X O * q w w e y w w w w w w y w w v w w w v m w b w w v m w w w C w v m v v v v v m v v M b v v v v v v b b b n v v b b v b b b v b b b b b b b b b b b b b n b b M b b n b n b n n n n n n n n b V n n b V V n n P.6X6X6X6X6X6X6X6X6X6X6X6X#XF V V b V V V V V V V V V S S V S S S S S S S S V S S S S ~.6X6X6X6X6X6X-X( V S V S S S S S S 7X7X7X7X7X7X7X7X7X7X7X7X7X7X7X7X7X7X7X7X",
"7X7X7X7X7X7X7X7X7X7X7X7X7X7X7X7X7X7X7X7Xo . . . . . . . . < %X6X6X6X6X6X6XN.. . o # o ; # o . . . . . . . X . X X X X # . X X . X X X O X X @ X O 2 e w y v w w w w w w w w w w w w w w w w w v w w v v b w w w v v v v v v v v v v v M M v v v v b v v v M v b b b b b b b b b b b b b n b n b n n b n b n b V b n n n n n b n n n n n n n V b n V n n b V G -X6X6X6X6X6X6X6X6X6X6X6X6XP.V V V V V V V V V V V S V S V V S V S S S S S S V S S S S ~.6X6X6X6X6X6X-XJ V V S S S V S S S 7X7X7X7X7X7X7X7X7X7X7X7X7X7X7X7X7X7X7X7X",
"7X7X7X7X7X7X7X7X7X7X7X7X7X7X7X7X7X7X7X7X. . . . . . . . . = OX6X6X6X6X6X6XN.. . o # o o . . . . . . X . X . X X . O X . O X X O X O X O O O X @ O O 4 w q m w y w w w y y w w v v w w m v w v w w b w v w w b w w v v m w b v v v v v b b v m v v M v v v M M b b b b v b b b b b b b b n b n b b b b n n b b b V V b b b V V M n n n n n V n V V n b V V n 0.5X6X6X6X6X6X6X6X6X6X6X6X6Xw.V V V V V V V V V V V V V S V S S V V S S S S S S S S S S ~.6X6X6X6X6X6X-XJ S V S S S S S S S 7X7X7X7X7X7X7X7X7X7X7X7X7X7X7X7X7X7X7X7X",
"7X7X7X7X7X7X7X7X7X7X7X7X7X7X7X7X7X7X7X7X. o o . . . . . . < OX6X6X6X6X6X6XN.o . ; o o # . o . # . . . . . X X . X . . O . X X ; X X X O O X O O O O + 9 v q w v w w w w m v w w w w w v w v w v w w w b w b w w v v v v M v v v v v v v b b b b b M b b b b M v b b b b b b b b b b b b b b b b V b b n b n n n b b n n b b b V n n n n n M V M n n V b n C /.6X6X6X6X6X6X6X6X6X6X6X6X1X_ n V V V V V V V S V V S V V S S V S S S S S S S S S S S S ~.6X6X6X6X6X6X-XJ V S V S S S S S S 7X7X7X7X7X7X7X7X7X7X7X7X7X7X7X7X7X7X7X7X",
"7X7X7X7X7X7X7X7X7X7X7X7X7X7X7X7X7X7X7X7X. o . . . . . . . & *X6X6X6X6X6X6XN.  . o o o ; . # o # X . . . . . X . . X . X X X X X X X X O O X O # O O O - 0 q v w w y w w y w w w w w w m v w v w w w w b v w b M w v w b w b w b v v v v v v b b b v v M b b M b b b b b w V b b b b b b b b b n b b V b n b n b b n n b n n b V n n n n V b V n n n n n n >.2X6X6X6X6X6X6X6X6X6X6X6X6X_.F V n V V V V V S V S V V V S S S V S S S S S S S S S S S S ~.6X6X6X6X6X6X-XJ S S S V S S V S S 7X7X7X7X7X7X7X7X7X7X7X7X7X7X7X7X7X7X7X7X",
"7X7X7X7X7X7X7X7X7X7X7X7X7X7X7X7X7X7X7X7X. . o . . ; . . . < *X6X6X6X6X6X6XN.    # # o o . o . . . . . . X . X X X X . X X X X X X O X O O O O X O O O O : q q w w w w w v w v w w w w v w v w m w M v w w b w w m v v w b w M w b v v v v v v b v v b b v b v v b w b b V w b b b b b b b b b b b b b b n b b b n n b V b n V b n n n n b V b n V n n V C ~.6X6X6X6X6X6X6X6X6X6X6X6X6XA.n V V V n V V V V V V V S V S V S S V V V S S S S S S S S S ~.6X6X6X6X6X6X-XJ V S V S S S S S S 7X7X7X7X7X7X7X7X7X7X7X7X7X7X7X7X7X7X7X7X",
"7X7X7X7X7X7X7X7X7X7X7X7X7X7X7X7X7X7X7X7X. o . . . . . . . < %X6X6X6X6X6X6XN.o   o # o ; . . # . . . . . . ; X . . X X X X ; X X X X X O O X O O O O + X O > w w w w w w w v w v w w w v m w b w w w w v v w b w v v w b C w w b v v m b b v v M v v b v v b b v b b b b w b b b b b b b b b n n b b b b b b b b b V n b b M b V b n M V V b V n n n n n ,.3X6X6X6X6X6X6X6X6X6X6X6X6X1X%.n V V V V V V V V V S V V V S V V S V S S S S S S S S S S S ~.6X6X6X6X6X6X-X( V V V S S S S S S 7X7X7X7X7X7X7X7X7X7X7X7X7X7X7X7X7X7X7X7X",
"7X7X7X7X7X7X7X7X7X7X7X7X7X7X7X7X7X7X7X7X. . . . . . . . . = %X6X6X6X6X6X5XN.# # o o # o . o . . . . X . X . X . X X . X X X X X X X X O O # X O O O O O O + 4 w y w w v y w w w m w w w w w w w m w v v w M w w v v b w w w b w m b v m b v v b M v b v b b v b b b w b V w b b b V b b b b b b V b b V V b b V b b b V b V b b V b V b b V n n n n n G |.6X6X6X6X6X6X6X6X6X6X6X6X6X`.C V V V V V V V S V S V V S V V S S V S S V S S S S S S S S S ~.6X6X6X6X6X6X-X( V S S V S S V S S 7X7X7X7X7X7X7X7X7X7X7X7X7X7X7X7X7X7X7X7X",
"7X7X7X7X7X7X7X7X7X7X7X7X7X7X7X7X7X7X7X7X. . . . . . . . . < %X6X6X6X6X6X6XN.  o o # o o # o # o # o . . . . . # X X . . X X ; X O X X O O O O X O O O O O O $ 5 w w w w w w w w w w M w b w b w w b w v v m v w v v v v v v b w b w v v b v b v b m b v b M b m b b b b b b b b b b b b b b b b b b V b n b n n n n b V b b b V n n n n n n b V n n n z.6X6X6X6X6X6X6X6X6X6X6X6X5X5X>.n V V V V n V V V V V S V V S V S V V V S V S S S S S S S S S ~.6X6X6X6X6X6X-XJ V V S S S S S S F 7X7X7X7X7X7X7X7X7X7X7X7X7X7X7X7X7X7X7X7X",
"7X7X7X7X7X7X7X7X7X7X7X7X7X7X7X7X7X7X7X7X. . . . . . . . . < %X6X6X6X6X6X6XN.. o   # # o o # . . # . . . # # ; . . X X X X X X X X X X O O X O O O O O @ @ @ @ $ 0 w w w w w w w w w w w w w w v w w v w v w w b v v m v v w M w b v v b m b b m v b v b v v b b v b v b b b b b b b b b n n b n b b b b b n b b n b b b b V V b n n n b n n V b C b :.<X6X6X6X6X6X6X6X6X6X6X6X6X6X@XS V V V V V V V V V V V V V V V S S S S V S S S S S S S S S S S ~.6X6X6X6X6X6X-XJ V S S V S S S S S 7X7X7X7X7X7X7X7X7X7X7X7X7X7X7X7X7X7X7X7X",
"7X7X7X7X7X7X7X7X7X7X7X7X7X7X7X7X7X7X7X7X. . . o . . . X . 1 %X6X6X6X6X6X6XN.. o # o o ; # ; o . . . . . . X . . X X . X X X X X X X X X X O X O # O @ O O @ @ O % e e w v w w w w w w w v w v w w M w b w M v w v v v v b b w b m v v v b v v b b v b b b b b b b b v b b b b b b b b b b b b b V b b V n b b b b b V V n b b V n n n n n V b V n / @X6X6X6X6X6X6X6X6X6X6X6X6X6X5Xq.n V V n V n V V V S V S S V V S S V V S V S S S S S S S S S S S ~.6X6X6X6X6X6X-XJ S V S V S S V S S 7X7X7X7X7X7X7X7X7X7X7X7X7X7X7X7X7X7X7X7X",
"7X7X7X7X7X7X7X7X7X7X7X7X7X7X7X7X7X7X7X7Xo o . . . . . . . = %X6X6X6X6X6X6XN.. o o o # o . o # . . . . . . . ; . . X X X X X . ; O X + X O O X O O O O O O @ @ O O , e w w w w v w w w M w v w m w w v w v w b w v v m v m w b w v v b m w b m v v M v v b v M v v b b v b b v b b b b b n b b n b b b b b n b V V b b b n b C b n n n n n n V b G /.6X6X6X6X6X6X6X6X6X6X6X6X6X6X&XJ n V V n V V n V V V V V V V S V V S S S V V S S S S S S S S S S !.6X6X6X6X6X6X-XJ V V S S S S S S S 7X7X7X7X7X7X7X7X7X7X7X7X7X7X7X7X7X7X7X7X",
"7X7X7X7X7X7X7X7X7X7X7X7X7X7X7X7X7X7X7X7X. . . . . . . . . < OX6X6X6X6X6X6XN.o o . o # . o # o # . . X . O # . X X X . . X X X ; X O X O O O X O O O O O O @ @ @ + O , w w w w w b w w w b w w w w v v w w v w b b w m v b w b w v v w M b b w b b v b v v v b b b b b b b v b b b b b n b b b b b b V b b b b b b n n n n n b n n n n n n n n Z P.6X6X6X6X6X6X6X6X6X6X6X6X6X6X5Xw.V V V V V V V V V V V S V V V V S S V V V S V S S S S S S S S S S ~.6X6X6X6X6X6X-X( V V S S S S S S S 7X7X7X7X7X7X7X7X7X7X7X7X7X7X7X7X7X7X7X7X",
"7X7X7X7X7X7X7X7X7X7X7X7X7X7X7X7X7X7X7X7X. o o . . . . . . < %X6X6X6X6X6X6XN.o .   # o . # o # o . . . . . . . X . X X X X X X X X X X X X O X O @ O @ O O @ @ @ O O O 2 w w w v w w w w w w w w w w v v b w w w w w v v w M w b b v b b w M M b v b M v b M b v b b v b b b b b b b b b b b n b C b b b b n n b n n b n b n b n n n n n n n G P.6X6X6X6X6X6X6X6X6X6X6X6X6X6X6X_.F V n V V V V V V V V V V V V S V V V S S S S S S S S S S S S S S S ~.6X6X6X6X6X6X-XJ V S V V S S V S S 7X7X7X7X7X7X7X7X7X7X7X7X7X7X7X7X7X7X7X7X",
"7X7X7X7X7X7X7X7X7X7X7X7X7X7X7X7X7X7X7X7X. . . . . . . . . < OX6X6X6X6X6X6XN.. o . o . . o . o # X . . . . . X . X X . X X X X X X X X O X X @ X O O O # O @ @ @ + O + + 2 w w w w w w w w w V w w b w v b w M w w b w w b w b w v v b w w b w b v v b b v b b M b b b b b b b b n v b n n b b b b b C b n b n n b n n b b V V b n n n n b K ^.6X6X6X6X6X6X6X6X6X6X6X6X6X6X6X2X:.n V V V V V V V V V V V S V S V V S V S S V V S S S S S S S S S S S ~.6X6X6X6X6X6X-XJ S S S S S S S S S 7X7X7X7X7X7X7X7X7X7X7X7X7X7X7X7X7X7X7X7X",
"7X7X7X7X7X7X7X7X7X7X7X7X7X7X7X7X7X7X7X7Xo o . . . . . . . < OX6X6X6X6X6X6XN.. . .   . . . . # . . . X . ; X . X . X X X X ; X X X O X O O @ X @ O O O O O @ @ @ + + O + + 4 w w w w w w b w w w w w M w w w b w b w b w C w w M v m b w M b w b M b v v v M b b b b v b b b b b b n b b b b b b b b w V b n b b b n n n b b b C n n n n { |.6X6X6X6X6X6X6X6X6X6X6X6X6X6X6X6XH.V n V n V V V V V n V V V V V V V V V S V S S S V S S S S S S S S S S ~.5X6X6X6X6X6X-XJ V V S V S S S S S 7X7X7X7X7X7X7X7X7X7X7X7X7X7X7X7X7X7X7X7X",
"7X7X7X7X7X7X7X7X7X7X7X7X7X7X7X7X7X7X7X7X  . . ; . . . . . < OX6X6X6X6X6X6XN.o o . . . . . o # . . . . . . X . X . X X . X X ; X X X X + # O X @ O @ O @ O @ @ @ O O $ O O $ 4 w w w w w w w w w w M w b v w v v m v v v b w b w v v v b m b v v M b v v M v b v b v b b b b v b b V b b b b b n n b b b b n b n V b b V b n b V n b C q.>X6X6X6X6X6X6X6X6X6X6X6X6X6X6X6X6X|.G V n V V V V V V V V V V S S V S V V S S S V S V S S S S S S S S S S S ~.6X6X6X6X6X6X-XJ S S S V S S V S S 7X7X7X7X7X7X7X7X7X7X7X7X7X7X7X7X7X7X7X7X",
"7X7X7X7X7X7X7X7X7X7X7X7X7X7X7X7X7X7X7X7X. . . o o ; . . . < %X6X6X6X6X6X6XN.o . . o . . . . . . . . X . X . X . X X X X X X X X X O X X X O @ X @ X @ X O @ @ @ + $ O + $ @ $ 5 w w w w V w w w w w w w v v v w w v v v m v w b v b v m v v b v b v M b b v b v b b b v b b b b b b b b b b b n b n b n n b b n b n b V b n b b n { ~.5X6X6X6X6X6X6X6X6X6X6X6X6X6X6X6X6X<X:.n V V V n V V V V V V V V V V V V V V V V S S V V S S S S V S V S S S S ~.6X6X6X6X6X6X-XJ V S V S S S S S S 7X7X7X7X7X7X7X7X7X7X7X7X7X7X7X7X7X7X7X7X",
"7X7X7X7X7X7X7X7X7X7X7X7X7X7X7X7X7X7X7X7X. o . . . . . . . < OX6X6X6X6X6X6XN.o . . o . . . . . . . . . . X . X . . X . X ; X ; X X X X O O O @ X O O O O O @ @ @ O $ $ O $ @ @ $ 0 w w w w w w w w w v v v w v w v v v v v v v v v v b v v b b v m v v b b b b v b b v b b b b b b b b b b b n b n b b n b b b n b n b b b b V ( S.<X6X6X6X6X6X6X6X6X6X6X6X6X6X6X6X6X6X4Xw.n V V V n n V V V n V V V V V V V V V V S V V V S S V S S S S S V S S S S ~.6X6X6X6X6X6X-X( V S V S S S S S S 7X7X7X7X7X7X7X7X7X7X7X7X7X7X7X7X7X7X7X7X",
"7X7X7X7X7X7X7X7X7X7X7X7X7X7X7X7X7X7X7X7X. o . . . . . . . < OX6X6X6X6X6X6XN.. o . . o . . o # . . . X . . X . X X X X . X X X X X X X O X O X @ # O @ O O # @ @ O @ @ + @ @ $ @ + e w w w w w V v m w v m v v v v v v m v v v m b M v v v v m b v b v b v M b v v b b b b b b b b b b b b b b b b n b n b n b n n n b b C { H.-X6X6X6X6X6X6X6X6X6X6X6X6X6X6X6X6X6X6X5XH.V n V n V n n V V V V V V V V V V S V V S V S S S V S S S S S S S S S S S S ~.6X6X6X6X6X6X-X( V V S V S S S S S 7X7X7X7X7X7X7X7X7X7X7X7X7X7X7X7X7X7X7X7X",
"7X7X7X7X7X7X7X7X7X7X7X7X7X7X7X7X7X7X7X7X; . . . . . . . . < OX6X6X6X6X6X6XN.o . o # # o # o . . . . . . X X X . . X X X X X X X + X X + X O O X O O O @ O @ @ @ @ $ @ + $ @ @ $ + , 5 w w w w w w v v w v w v w v v v v v v v v v v v v v v m v v b m v b v M b b v b b b b b b v b b b b v b b b n b b b b b v b C [ f./.2X6X6X6X6X6X6X6X6X6X6X6X6X6X6X6X6X6X6X6X6XP.H V V V n V V V V n V V V V V V V S V V V V S S S S V S S S S S S S S S S S S ~.6X6X6X6X6X6X-XJ S S S V S S S S S 7X7X7X7X7X7X7X7X7X7X7X7X7X7X7X7X7X7X7X7X",
"7X7X7X7X7X7X7X7X7X7X7X7X7X7X7X7X7X7X7X7X. . . . . . . . . < OX6X6X6X6X6X6XN.. o o o o . . . . . X . . . X . . X . X X . X X X X X X X X X O O X O O O O O @ + # @ O @ + @ @ $ @ + O + 4 w w w w w w y A A Z A A A A A A Z A Z A Z A A Z Z Z Z Z Z Z Z Z Z Z Z Z Z Z Z Z B C Z C G Z Z H H Z G H Z H H Z ! ) :.w.G.|.1X5X6X6X6X6X6X6X6X6X6X6X6X6X6X6X6X6X6X6X6X6X6X/.G b V n V V V b n V V V V V n V V V V V V V V V V V V S S V S S S S S S S S S S ~.6X6X6X6X6X6X-XJ V S V S S S V S S 7X7X7X7X7X7X7X7X7X7X7X7X7X7X7X7X7X7X7X7X",
"7X7X7X7X7X7X7X7X7X7X7X7X7X7X7X7X7X7X7X7X. o . . . . . . . < %X6X6X6X6X6X6XN.o . # o # o . . . # . . . . . . X X X X X X X X X X X X + O O O O O O # O O O @ @ @ @ $ O O $ @ $ @ + + + < e e w w A 8.(.@X$X$X$X$X=X$X$X$X$X$X$X$X$X$X$X$X$X$X$X$X$X$X$X$X&X$X$X$X$X$X$X$X$X$X$X&X$X$X$X$X$X$X$X$X$X$X=X=X-X1X4X6X6X6X6X6X6X6X6X6X6X6X6X6X6X6X6X6X6X6X6X6X6X6X6X6X^.G V V n V n V V V n V V V V V V V V V S V S V V S V S S V V S V S S S S S S S S S ~.6X6X6X6X6X6X-XJ S S V S S S S S S 7X7X7X7X7X7X7X7X7X7X7X7X7X7X7X7X7X7X7X7X",
"7X7X7X7X7X7X7X7X7X7X7X7X7X7X7X7X7X7X7X7Xo . . o . . . . . < %X6X6X6X6X6X6XN.. o o . o # . . . . . . . X X . X . . X X . . X X X X X X X O X X O O O O O @ @ @ @ @ @ @ + O + @ $ + + $ $ % e w / _.5X6X6X6X6X6X6X6X6X6X6X6X6X6X6X6X6X6X6X6X6X6X6X6X6X6X6X6X6X6X6X6X6X6X6X6X6X6X6X6X6X6X6X6X6X6X6X6X6X6X6X6X6X6X6X6X6X6X6X6X6X6X6X6X6X6X6X6X6X6X6X6X6X6X6X6X6X5X~.G n b V V V n C n V V V V V V V V V V V V V V V V V S S V S V S S V S S S S S S S S ~.6X6X6X6X6X6X-XJ V V S V S S S S S 7X7X7X7X7X7X7X7X7X7X7X7X7X7X7X7X7X7X7X7X",
"7X7X7X7X7X7X7X7X7X7X7X7X7X7X7X7X7X7X7X7X. . . o . . . . . 1 %X6X6X6X6X6X6XN.# o .   . . . . . . . X . X . X X X . X . X X X . X X O X O X O O O O O @ O O @ @ # @ O $ @ $ + O $ $ @ $ @ + $ g +X6X6X6X6X6X6X6X6X6X6X6X6X6X6X6X6X6X6X6X6X6X6X6X6X6X6X6X6X6X6X6X6X6X6X6X6X6X6X6X6X6X6X6X6X6X6X6X6X6X6X6X6X6X6X6X6X6X6X6X6X6X6X6X6X6X6X6X6X6X6X6X6X6X6X6X6X6X5XF.C b V n V V V C V V V V V V V V V V V V V V S V V V S V S S V S S V S S S S S S S S S ~.6X6X6X6X6X6X-XJ S V V S S S S S S 7X7X7X7X7X7X7X7X7X7X7X7X7X7X7X7X7X7X7X7X",
"7X7X7X7X7X7X7X7X7X7X7X7X7X7X7X7X7X7X7X7Xo o . . . . . . . & %X6X6X6X6X6X6XN.o . . . . . . . . . . . . . ; . . . X X X X X O # X X X X O X O O # # O O O O @ @ @ @ @ @ O O O $ O @ $ @ $ + $ v.6X6X6X6X6X6X6X6X6X6X6X6X6X6X6X6X6X6X6X6X6X6X6X6X6X6X6X6X6X6X6X6X6X6X6X6X6X6X6X6X6X6X6X6X6X6X6X6X6X6X6X6X6X6X6X6X6X6X6X6X6X6X6X6X6X6X6X6X6X6X6X6X6X6X6X6X6X2Xq.C V V V V V V b b V b V V V b V V V n V V V V V V V V V S V V S S V S S S S S S S S S S ~.6X6X6X6X6X6X-XJ V S S V S S V S S 7X7X7X7X7X7X7X7X7X7X7X7X7X7X7X7X7X7X7X7X",
"7X7X7X7X7X7X7X7X7X7X7X7X7X7X7X7X7X7X7X7X. . o . . . . . . = %X6X6X6X6X6X6XN.. o .   . . . . . . . . . . . X . X . X . X . # X X O X X O O # @ X O O @ O O @ @ @ @ $ O $ $ O @ $ $ @ $ $ + 6 %X6X6X6X6X6X6X6X6X6X6X6X6X6X6X6X6X6X6X6X6X6X6X6X6X6X6X6X6X6X6X6X6X6X6X6X6X6X6X6X6X6X6X6X6X6X6X6X6X6X6X6X6X6X6X6X6X6X6X6X6X6X6X6X6X6X6X6X6X6X6X6X6X6X6X6X6X@X,.V b V b V n b V b V V n V V V V V V V V V V V S V S V S V S S V S S V S S S S S S S S S S ~.6X6X6X6X6X6X-XJ V V S S S S S S S 7X7X7X7X7X7X7X7X7X7X7X7X7X7X7X7X7X7X7X7X",
"7X7X7X7X7X7X7X7X7X7X7X7X7X7X7X7X7X7X7X7X. o . . . . . ; . < %X6X6X6X6X6X6XN.o . . . . . o . . . . . X . . . X . X X X X X X X ; O X X O O O X O O O O O O @ @ @ O O $ O $ @ $ @ $ $ $ $ O W 4X6X6X6X6X6X6X6X6X6X6X6X6X6X6X6X6X6X6X6X6X6X6X6X6X6X6X6X6X6X6X6X6X6X6X6X6X6X6X6X6X6X6X6X6X6X6X6X6X6X6X6X6X6X6X6X6X6X6X6X6X6X6X6X6X6X6X6X6X6X6X6X6X6X6X3XP.^ V b V V V n V C V C V V V V n V V V V V V V V V V V V V V S V S S S V S S S S S S S S S S V ~.6X6X6X6X6X6X-X( V S S V S S S S S 7X7X7X7X7X7X7X7X7X7X7X7X7X7X7X7X7X7X7X7X",
"7X7X7X7X7X7X7X7X7X7X7X7X7X7X7X7X7X7X7X7X. o . . . . . . . 1 %X6X6X6X6X6X6XN.      . . . . . ; ; X . . . . ; X X . . X X X X X X . . O O O O X O O O O O O @ @ @ @ O $ X @ @ $ @ @ @ $ $ O ..6X6X6X6X6X6X6X6X6X6X6X6X6X6X6X6X6X6X6X6X6X6X6X6X6X6X6X6X6X6X6X6X6X6X6X6X6X6X6X6X6X6X6X6X6X6X6X6X6X6X6X6X6X6X6X6X6X6X6X6X6X6X6X6X6X6X6X6X6X6X6X6X6X5X@X2.C n n n V b V V b C V V V C V V V V V n V V V V V V V V V S S n S V V V S V S S S S S S S S S S ~.6X6X6X6X6X6X-XJ V V V S S S S S S 7X7X7X7X7X7X7X7X7X7X7X7X7X7X7X7X7X7X7X7X",
"7X7X7X7X7X7X7X7X7X7X7X7X7X7X7X7X7X7X7X7X. o . . . . . . . < %X6X6X6X6X6X6XN.  . ;   ;   . o o . . . . . . X . X X X . X X X X X O O X O X O # O O # O O O @ @ @ @ $ @ $ $ @ @ $ $ @ $ $ + X.5X6X6X6X6X6X6X6X6X6X6X6X6X6X6X6X6X6X6X6X6X6X6X6X6X6X6X6X6X6X6X6X6X6X6X6X6X6X6X6X6X6X6X6X6X6X6X6X6X6X6X6X6X6X6X6X6X6X6X6X6X6X6X6X6X6X6X6X6X6X6X6X-Xz.G n n V n V V V b b V V V b b V V b n V V V V V b V V V V V V V S S V S S S S S S S S S S S S S S S ~.6X6X6X6X6X6X-XJ V S S V S S S S S 7X7X7X7X7X7X7X7X7X7X7X7X7X7X7X7X7X7X7X7X",
"7X7X7X7X7X7X7X7X7X7X7X7X7X7X7X7X7X7X7X7X. . . . . . . . . = %X6X6X6X6X6X6XN.  . . . .   . ; . . . . . . X . . X . X X X X ; X X X O O O X O O O O O O O O @ @ @ O $ @ + @ @ $ @ $ @ @ $ @ X.6X6X6X6X6X6X6X6X6X6X6X6X6X6X6X6X6X6X6X6X6X6X6X6X6X6X6X6X6X6X6X6X6X6X6X6X6X6X6X6X6X6X6X6X6X6X6X6X6X6X6X6X6X6X6X6X6X6X6X6X6X6X6X6X6X6X6X6X6X6X:XH.^ b n n n n V V b b V V V V V M V V V V n V V V V V V V V V V V V S n S V S S V n S S S S S S S S S S S ~.6X6X6X6X6X6X-XJ S V S S S S S S S 7X7X7X7X7X7X7X7X7X7X7X7X7X7X7X7X7X7X7X7X",
"7X7X7X7X7X7X7X7X7X7X7X7X7X7X7X7X7X7X7X7Xo . . . . . . . . < %X6X6X6X6X6X5XN.;   .   . ; . o ; . . . X . . . X . X X X . X X X X X X X X O O # O @ O O @ O @ @ @ @ O $ O $ @ @ @ $ $ @ $ @ X.5X6X6X6X6X6X6X6X6X6X6X6X6X6X6X6X6X6X6X6X6X6X6X6X6X6X6X6X6X6X6X6X6X6X6X6X6X6X6X6X6X6X6X6X6X6X6X6X6X6X6X6X6X6X6X6X6X6X6X6X6X6X6X6X6X6X6X5X@Xz.) b V b V n n n b V V C V b b V V V V V n V V V V V V n V V V V V V V V S S S V S S S S S S S S S S S S S S ~.6X6X6X6X6X6X-XJ V S V S S S S S S 7X7X7X7X7X7X7X7X7X7X7X7X7X7X7X7X7X7X7X7X",
"7X7X7X7X7X7X7X7X7X7X7X7X7X7X7X7X7X7X7X7X. . . . . . . . X 1 %X6X6X6X6X6X6XN.o o . . . . . . . . . X X . X . . X X X . . X X ; X X O X X X O O O O O O @ O @ @ @ @ @ @ O $ @ $ @ $ @ $ $ O X.5X6X6X6X6X6X6X6X6X6X6X6X6X6X6X6X6X6X6X6X6X6X6X6X6X6X6X6X6X6X6X6X6X6X6X6X6X6X6X6X6X6X6X6X6X6X6X6X6X6X6X6X6X6X6X6X6X6X6X6X6X6X6X6X5X:XP.4.G b n n V b V C w C V V V V C n V V V C V V V V C V V V V V V V V S V V V V V V V S V V S V S S S S S S S S S S ~.6X6X6X6X6X6X-X( V S V S S S S S S 7X7X7X7X7X7X7X7X7X7X7X7X7X7X7X7X7X7X7X7X",
"7X7X7X7X7X7X7X7X7X7X7X7X7X7X7X7X7X7X7X7X; . . o . . . . . & %X6X6X6X6X6X6XN.. o . . o . ; o . . . . . . . X . . . X X X X X X X X X X O O O X O O O O O O @ # @ @ @ @ + + @ @ $ @ $ @ $ + X.6X6X6X6X6X6X6X6X6X6X6X6X6X6X6X6X6X6X6X6X6X6X6X6X6X6X6X6X6X6X6X6X6X6X6X6X6X6X6X6X6X6X6X6X6X6X6X6X6X6X6X6X6X6X6X6X6X6X6X6X6X<X+XG.2.^ n b n n n n V b w V V V V w V V b V V b V V b V V b V V V V V V n V V V S V S V S V S S S S S S S S S V S V S S S S ~.6X6X6X6X6X6X-XJ V V S S S V S S S 7X7X7X7X7X7X7X7X7X7X7X7X7X7X7X7X7X7X7X7X",
"7X7X7X7X7X7X7X7X7X7X7X7X7X7X7X7X7X7X7X7Xo . . . . . . . . 1 %X6X6X6X6X6X6XN.o . . o . . . ; o . . . . . . . X . X X . X X X . X X X X O O X O O O # O O O @ @ @ @ $ X + $ @ $ @ $ @ @ $ X X.6X6X6X6X6X6X6X6X6X6X6X6X6X2X1X1X1X1X1X1X1X1X<X2X1X1X2X1X<X2X1X1X1X2X1X1X1X1X2X1X<X<X1X1X1X1X2X2X<X<X1X1X1X1X<X-X$X|.I.z.2.( C n n b n n n n n V b V V V V V w V w V n V V V V b C n V V V V n V V V V V V V V V V V V S S V S V V S S S S S S V S S S S ~.6X6X6X6X6X6X-XJ S V S S S S S S S 7X7X7X7X7X7X7X7X7X7X7X7X7X7X7X7X7X7X7X7X",
"7X7X7X7X7X7X7X7X7X7X7X7X7X7X7X7X7X7X7X7X. o . o . . . . . & %X6X6X6X6X6X6XN.. o . o . . . o ; . . . X . X X . X . X X X X X ; X X O X O O O O X O O @ O O @ @ @ @ @ $ O @ @ $ @ $ $ @ + @ +.5X6X6X6X6X6X6X6X6X6X6X6X X} / ' / ' ' ' / ' ' / ' ' ' ' ) / / [ ' / [ / [ ) ) ) ) K [ ) [ ) [ ) _ ( [ ) _ ) / ! Z n b n b b b n b n b n n n n n V b V V w V V V V C V n b C V n V V V V M V V V V V V V V V V S V V V V V S V S S V S S S S S S S S S S ~.6X6X6X6X6X6X-XJ V S V S S S S S S 7X7X7X7X7X7X7X7X7X7X7X7X7X7X7X7X7X7X7X7X",
"7X7X7X7X7X7X7X7X7X7X7X7X7X7X7X7X7X7X7X7X. . . . . . . . . < %X6X6X6X6X6X6XN.o o o . . o . . . . . X X . . X . X X X . . ; X ; X X X X O X X O O O O O O O @ O ; @ @ @ + @ $ $ @ $ @ $ $ @ X.6X6X6X6X6X6X6X6X6X6X6X6XB.* e v v w b w w w v v b v v b v v v b b v v b w b b b b b b b b b b b b b b n b b b b b n n b n b n n b n n n n n V b V b w C b V V V w V n n V V V M V V b V V V V V V V n V V V n S S V V V S S S S n S S S S S S S S S S S ~.6X6X6X6X6X6X-XJ S S S V S S V S S 7X7X7X7X7X7X7X7X7X7X7X7X7X7X7X7X7X7X7X7X",
"7X7X7X7X7X7X7X7X7X7X7X7X7X7X7X7X7X7X7X7Xo . o . . . . . . < %X6X6X6X6X6X6XN.o . X o . . . . . . . . . . X . X . . X X X X X X X X X X O O O O X O O O @ O O $ @ @ @ $ O $ X O $ $ @ @ $ @ X.5X6X6X6X6X6X6X6X6X6X6X6XC.% + 9 v b b v b b v v v v v v b v v b v b v b b b b b b b b b b b b b n b b b b b n b n b b n n n n n b n n b n n b C b V V V V b b V V V n V b V V V V b C V b V V V V n V V V V S V V V S S V V S V S S S S S S S S S S S S ~.6X6X6X6X6X6X-XJ V S V S S S S S S 7X7X7X7X7X7X7X7X7X7X7X7X7X7X7X7X7X7X7X7X",
"7X7X7X7X7X7X7X7X7X7X7X7X7X7X7X7X7X7X7X7X. o . . . . . . . = %X6X6X6X6X6X6XN.. o   . . . . . . . . . . . . X . X X X X X ; X X X O X X O O O O X O # @ O O @ @ @ @ @ @ @ + $ $ @ + $ $ $ O ..6X6X6X6X6X6X6X6X6X6X6X6XJ.+ + : 4 w w v b v b v v b v b b v b v b v b b b b b b b b b b b b b b b b b b b n n n b V n n b n b V V b b V b V V b b V b V b V b C V V V n V V V b V V V V V C V V V V V V V V S V V S n S V S S V V S V S S S S S S S S S ~.6X6X6X6X6X6X-X( V V V S S S S S S 7X7X7X7X7X7X7X7X7X7X7X7X7X7X7X7X7X7X7X7X",
"7X7X7X7X7X7X7X7X7X7X7X7X7X7X7X7X7X7X7X7X. o . . . . . . . < %X6X6X6X6X6X6XN.. . . .   . . . . X . . X . . . X . . X X X X X X X X X X O X X O O O O O O O @ @ @ @ @ $ @ @ O O $ $ + + $ @ X.5X6X6X6X6X6X6X6X6X6X6X6XC., + + % 2 e b w b v v v b v b v b v b v M b b w b w b b b b b b b b b b b V n b b b b b b b n V b b b b V V b V b b C V b V n n n C V b b n n n C V V C V b V V V V V V V V V V V S n S n S S S V S S V S S V S S S S S S S S ~.6X6X6X6X6X6X-X( V S S V S S V S S 7X7X7X7X7X7X7X7X7X7X7X7X7X7X7X7X7X7X7X7X",
"7X7X7X7X7X7X7X7X7X7X7X7X7X7X7X7X7X7X7X7X. . . . . . . . . < %X6X6X6X6X6X6XN.o . . o o . . . . . X . . . X X . X . X . X ; X X X O X X O O X O X @ O O O @ @ @ @ @ $ O @ $ X $ O $ $ @ $ O ..6X6X6X6X6X6X6X6X6X6X6X6XC.% % % % $ * r m v v b b v b v b m M v b b b b v b b b b b b b b b b b b b b b V n n b n n b V b n n b n n n n n n n n b V b V b V V V C V C V V b V C V n V n n V V S V V V V V V V V V V V S V S S V S V S S S S S S S S S S ~.6X6X6X6X6X6X-XJ V V S S S S S S F 7X7X7X7X7X7X7X7X7X7X7X7X7X7X7X7X7X7X7X7X",
"7X7X7X7X7X7X7X7X7X7X7X7X7X7X7X7X7X7X7X7X. . . . . . . . . < %X6X6X6X6X6X6XN.. o . o . . . . # . . . . . . . . X X X X . X X ; X X X X O O X O O O O O @ O @ @ @ O O $ O $ $ $ O $ @ @ $ + X.6X6X6X6X6X6X6X6X6X6X6X6XC.% $ % - - % * 4 w v m v b v b v b b v b b v b b b b b b b b b n b b b b n b b b b b b b b b b n n n n V b n n n n n n C V V b b V b V b V b b V V b n V V V V V V V V n V V V V V V V V V V S S V V S V S S S S S S V S S S S ~.6X6X6X6X6X6X-XJ V S S V S S S S S 7X7X7X7X7X7X7X7X7X7X7X7X7X7X7X7X7X7X7X7X",
"7X7X7X7X7X7X7X7X7X7X7X7X7X7X7X7X7X7X7X7X. . . . . . . . . 1 OX6X6X6X6X6X6XN.o . . o . . o # o # . . . . X . X . . X X . X X X X X X X O O O X X # O O O O O @ # O $ @ @ X O $ $ @ $ $ $ @ X.6X6X6X6X6X6X6X6X6X6X6X6XC.% % % % - % % * 3 e v b v v b b b v b b b b b b b v b b b b n b b b n b b n b b n V b b V V V b n b b b C n n n n n b V b C n n V b V V n V b V V V V n V n V n V n S V V V V V V S V V V V S S V S S V V S S S S S S S S S S ~.6X6X6X6X6X6X-XJ S V S V S S V S S 7X7X7X7X7X7X7X7X7X7X7X7X7X7X7X7X7X7X7X7X",
"7X7X7X7X7X7X7X7X7X7X7X7X7X7X7X7X7X7X7X7X. o . o . . . . . < OX6X6X6X6X6X6XN.. o . . . . . o . . . . X . . X . X . X X X X X X X O X X O X O O + O O O O O @ @ @ O $ @ $ $ + $ O $ $ @ + @ X.5X6X6X6X6X6X6X6X6X6X6X6XC.% $ % % % % % % % 2 0 v v m v b m b v M v v b v b b b b b b b b b b b b b b b b n b n b w b b n b n V b b n n n n n C b V n n n n V V b C V V M V V V V C n V S n V V V V V V V V V V S V V S V S V S V S S S S S S S S S S S ~.6X6X6X6X6X6X-XJ V V S S S S S S S 7X7X7X7X7X7X7X7X7X7X7X7X7X7X7X7X7X7X7X7X",
"7X7X7X7X7X7X7X7X7X7X7X7X7X7X7X7X7X7X7X7Xo . . . . . . . . 1 OX6X6X6X6X6X6XN.. o o . . . . . . . . . . . X . o X X X X . X X X X X X O O O X O X O O @ O O @ @ @ @ @ $ O @ @ $ O $ @ $ $ O X.5X6X6X6X6X6X6X6X6X6X6X6XC.- % % % $ - % % % % * 4 w v b b w C w b b b b b b b b b b b n b b b n b n b b w V b b b V b b b V n n b V V b b n b b b V n n n B V n b V n n V V V V V V V V V V V V V V V V V V V V V V V S V S S V V S S S S S S V S S S S ~.6X6X6X6X6X6X-X( V V S S S S S S S 7X7X7X7X7X7X7X7X7X7X7X7X7X7X7X7X7X7X7X7X",
"7X7X7X7X7X7X7X7X7X7X7X7X7X7X7X7X7X7X7X7X.   . . . . . . . < OX6X6X6X6X6X6XN.o . . . . . . . o # X . . . . X X . . X . X X X X X O X X X O X O X # O O O @ @ @ @ @ @ O $ $ + @ $ $ @ @ $ O X.6X6X6X6X6X6X6X6X6X6X6X6XC.- % % - - * % % * * - - : e v b w b b M v b b b v b b v b b b b b b n b b b V V b b n n b V V b b b n b b b V V b V V V b V n n n n V V n V n V M V b b V V n n V V V V n V V V V V S V V V S S V S S S V S S S S S S S S S S ~.6X6X6X6X6X6X-XJ V S V V S S V S S 7X7X7X7X7X7X7X7X7X7X7X7X7X7X7X7X7X7X7X7X",
"7X7X7X7X7X7X7X7X7X7X7X7X7X7X7X7X7X7X7X7Xo . . . . . . . . < OX6X6X6X6X6X6XN.o o . o . o o # # . . . X . . . X X X X X X X X X X X X O O O O O O O O @ O O @ @ # O @ $ O O @ $ @ $ @ $ $ @ X.5X6X6X6X6X6X6X6X6X6X6X6XC.- % % - % % % % % % * * - * 5 w b w b b b b b b b b b b b b b b b b b b b b V w b n b n n b b V b b V V b V b V b b V b V n V n n V M V V n V V V V C V n n V V V V V V V V V V S S V V V V V S V V S V S S S S S S S S S S S ~.6X6X6X6X6X6X-XJ S S S S S S S S S 7X7X7X7X7X7X7X7X7X7X7X7X7X7X7X7X7X7X7X7X",
"7X7X7X7X7X7X7X7X7X7X7X7X7X7X7X7X7X7X7X7X. o . . . . . . . < %X6X6X6X6X6X6XN.. . . . . o # o . . . . . . X ; . X . X X . X X X X X X X O O X X O O O O O O O $ O O $ O + $ @ O $ @ $ @ $ @ X.6X6X6X6X6X6X6X6X6X6X6X6XB.% $ % - % % % * * % % * - * - 2 e b b b w v b v b b b b b b b b b b b n b b b V b b n b b b V b n b b b V b V b b b C C V n n n n n V V n C n V b V n V V V V n V V n V V V V V V V V V V S V V S S V V S V S S S S S S S S S ~.6X6X6X6X6X6X-XJ V V S V S S S S S 7X7X7X7X7X7X7X7X7X7X7X7X7X7X7X7X7X7X7X7X",
"7X7X7X7X7X7X7X7X7X7X7X7X7X7X7X7X7X7X7X7X. . . o . . . . . < OX6X6X6X6X6X5XN..   o # # o # o # . . X . . . X . X . X X . X # X X O X X X X X O # O O O O O @ @ @ @ @ $ + $ O $ O $ @ $ $ + X.6X6X6X6X6X6X6X6X6X6X6X6XC.% % % % % & - % * - % - * * - * * 9 v M M b b b b b b v b b b b w V b b b b n b n b n b b b V V b b b V b n n n n n n V b b V b V b C b V n n n V V V V C V n V V n V V V V V V V V V S V V V S S S V V V S S S S S S S S S S G.5X6X6X6X6X6X-XJ S S S V S S V S S 7X7X7X7X7X7X7X7X7X7X7X7X7X7X7X7X7X7X7X7X",
"7X7X7X7X7X7X7X7X7X7X7X7X7X7X7X7X7X7X7X7Xo . . o . . . . . < OX6X6X6X6X6X6XN.. . o o o o o # . . . . X . . . X X X X X X X X X X X X O O O O O @ O @ O O O @ @ @ @ O O O O $ @ $ $ @ $ + O X.5X6X6X6X6X6X6X6X6X6X6X6XC.% $ % - $ - % * - % * - * * * * - - > q v v b b b b b b b b b b V b b n b b b b b n b b V b b b b n n M V n n n n n n b V V V b V C V V V V n V n b V V n V n V V V V V V V V V V V S V V V S V S V S S S V S S S S S S S S S ~.5X6X6X6X6X6X-XJ V S V S S S S S S 7X7X7X7X7X7X7X7X7X7X7X7X7X7X7X7X7X7X7X7X",
"7X7X7X7X7X7X7X7X7X7X7X7X7X7X7X7X7X7X7X7X. . . . . . . . . 1 OX6X6X6X6X6X6XN.. . # o o ; . . . . . . . . X X . . . X X . X X X X X O X O X @ O X O @ O # O @ @ @ @ $ @ O $ O $ @ @ $ $ $ + X.5X6X6X6X6X6X6X6X6X6X6X6XC.$ $ % - - - - % * % - * * - * * * - : * > e b b b b b b b b b b b b b n b b n b n b n b b b b V V V b V b n n n n n n C b b V V b V w V b n n V C C V V n V V n V V V V V V V V V V V V V V V S V S V V V V S S S S S S S S S ~.5X6X6X6X6X6X-X( V S V S S S S S S 7X7X7X7X7X7X7X7X7X7X7X7X7X7X7X7X7X7X7X7X",
"7X7X7X7X7X7X7X7X7X7X7X7X7X7X7X7X7X7X7X7X. o . . . . . . . < OX6X6X6X6X6X6XN.o . o # # o .   # . . . . X . X X X . X X . X X X X X X X O X X O O O O O O O @ @ @ O O $ $ O $ $ @ $ @ $ + O X.6X6X6X6X6X6X6X6X6X6X6X6XC.% % - - - = % % % & * * - * - * - : - - * 2 9 v b b b b b b b b b b b b b b b n b n b b V V b b b b b V b n n n n n n b V b V b V V V V b V n n V b n V V V n V V V V V n n V V V V S V S V V S S S S V S S S S S S S S S S S ~.6X6X6X6X6X6X-X( V V S V S S S S S 7X7X7X7X7X7X7X7X7X7X7X7X7X7X7X7X7X7X7X7X",
"7X7X7X7X7X7X7X7X7X7X7X7X7X7X7X7X7X7X7X7X. . o . . . . . . < OX6X6X6X6X6X6XN.  . o o . o . # o # . . . . X . X . X X X . X O . X O O X O X O O O # O O @ @ @ @ # @ $ O @ O $ $ @ @ $ $ $ O X.5X6X6X6X6X6X6X6X6X6X6X6XC.- % % % % - % % * % * * % * * * % * * * : 2 + 2 e b b b b b n b b n b n b V b b V b n b b b n b n b b b V V b V n V M b V V b V b b V C V b V V V V V V b V V n V V V V V V V V V V V V V S V S S V S V S S S S S S V S S S S ~.6X6X6X6X6X6X-XJ S S S V S S S S S 7X7X7X7X7X7X7X7X7X7X7X7X7X7X7X7X7X7X7X7X",
"7X7X7X7X7X7X7X7X7X7X7X7X7X7X7X7X7X7X7X7X. o . . . . . . . < OX6X6X6X6X6X6XN.    # # o ; . o . . X . . . . . X X . X X X X O # O X X X O O X X # O O O O O @ @ @ O O $ O $ @ O $ $ @ $ @ + X.6X6X6X6X6X6X6X6X6X6X6X6XC.- % % % % - & * % % % - * * % * * * * - * : : : 2 2 e b b b b b b b b b b b b b b n b n b b b V b b V V b b V b n b V V b b V b V C V b V V V M b V V V V V n V V V V V V V V V V V V V V V V V S S V S V S S S S S S S S S S ~.6X6X6X6X6X6X-XJ V S V S S S V S S 7X7X7X7X7X7X7X7X7X7X7X7X7X7X7X7X7X7X7X7X",
"7X7X7X7X7X7X7X7X7X7X7X7X7X7X7X7X7X7X7X7Xo . . . . . . . . < OX6X6X6X6X6X6XN.o   o o # o o # # . . . X . . ; . # . X X . . # X O O X X O O O # O O O O O O @ @ @ O $ O $ O + $ @ $ @ @ $ O X.6X6X6X6X6X6X6X6X6X6X6X6XC.- % % % % - % % * % * % * - * * % * * * * + 2 : + * 2 9 b b b b b b n b b b b b b b b b M V b b V b b b V V M b V b V b V n n V n b V V V V b V V V V C V V V n V V V n V n V V V V V V V S V S V S V S S S S S S S S S S S S ~.6X6X6X6X6X6X-XJ S S V S S S S S S 7X7X7X7X7X7X7X7X7X7X7X7X7X7X7X7X7X7X7X7X",
"7X7X7X7X7X7X7X7X7X7X7X7X7X7X7X7X7X7X7X7X. o . . . . X . . < OX6X6X6X6X6X5XN.# # o # o . . o . . . . . . X . . X . X O . . O X # X X X O O O O O O O @ O O @ O @ O $ @ @ $ O @ @ $ @ $ $ + X.5X6X6X6X6X6X6X6X6X6X6X6XB.% $ % % $ * % % % % * * % * * * = * * * * + : : - : * - 2 q b b b b b b m V b b V V b b V b n b V b b V M b b V b b V V n n V b C V V b M V V V M V V V b n V V n V V V V V V V V V V S V V V S S V S S V S S S S S V S S S S ~.5X6X6X6X6X6X-XJ V V S V S S S S S 7X7X7X7X7X7X7X7X7X7X7X7X7X7X7X7X7X7X7X7X",
"7X7X7X7X7X7X7X7X7X7X7X7X7X7X7X7X7X7X7X7X. . . . . . . . . < %X6X6X6X6X6X6XN..   . . . o #   # . . . . . . # . . X X . X . ; O . X O O O O O O O O O O @ O @ @ @ @ $ O O @ @ $ @ $ @ @ $ O X.5X6X6X6X6X6X6X6X6X6X6X6XC.% $ % % - % % * % % * % * * * * - * * * = 2 2 * * * * * * 2 4 e b b n b b n b b n b n n b b n n b b V b b V b V b b V b b V b V n V V b V C n n V n V n S n n D n V V V V V V V V V S S V V S S V S V V S V S S S S S S S S S ~.6X6X6X6X6X6X-XJ V S S S S S S S S 7X7X7X7X7X7X7X7X7X7X7X7X7X7X7X7X7X7X7X7X",
"7X7X7X7X7X7X7X7X7X7X7X7X7X7X7X7X7X7X7X7X. o   . . . . . . 1 OX6X6X6X6X6X6XN.. o . . . .   # . . . . # . # . # . . X X X X X X X X X . O X O . O O O O O O @ @ # @ @ $ + $ @ @ $ $ @ $ $ O X.6X6X6X6X6X6X6X6X6X6X6X6XC.% - % % % % % % % * % % * * * * * * * - * + 2 , * 2 * 2 * * * 2 4 e b b n b b b n n b n b n n n n b V V b b V n n b C V C n V b V b V C V n V V n V n B S S n n S n V V V n V S V S V V V V V S S V S V V S S S S S S S S S S ~.6X6X6X6X6X6X-XJ S S V V S S S S S 7X7X7X7X7X7X7X7X7X7X7X7X7X7X7X7X7X7X7X7X",
"7X7X7X7X7X7X7X7X7X7X7X7X7X7X7X7X7X7X7X7Xo . o . ; . . . o < OX6X6X6X6X6X6XN.  . . . . . .   # . . . . . . . X . X X . X X X ; X O O . O . O O O O # O O O @ @ @ @ @ O O @ @ $ @ $ @ $ $ O X.6X6X6X6X6X6X6X6X6X6X6X6XC.% $ % - - * % % * * % * % * - * = * * * * * * * * * * * 2 2 : : : 2 e w b n n b n b b n b b n n b b b b V n n n n b V b V V b V b b V b V V n V B n n S n n V V V V V V V V V S V V S V V V S S V S S V S S S S V S S S S S S ~.6X6X6X6X6X6X-X( V S V S S S S S S 7X7X7X7X7X7X7X7X7X7X7X7X7X7X7X7X7X7X7X7X",
"7X7X7X7X7X7X7X7X7X7X7X7X7X7X7X7X7X7X7X7X. . . . o . . . . < OX6X6X6X6X6X6XN.  o o   # o . . . . . . . . X X . X . X X . X X X X . O O O O O O O O O @ O O @ @ @ @ @ $ + $ @ @ $ @ $ @ $ + X.5X6X6X6X6X6X6X6X6X6X6X6XC.% - % - - % % * % % * % * * - * - * * * * * * * : 2 * * * * * * : * + 2 9 e b n n b n b n V b n n b b C b n n n n V b V b b V b V V V b V n V n V S B n S C V n V S n V V V V V V V V V V V S S V S V V S S S S S S S S V S S ~.6X6X6X6X6X6X-XJ V S S V S S S S S 7X7X7X7X7X7X7X7X7X7X7X7X7X7X7X7X7X7X7X7X",
"7X7X7X7X7X7X7X7X7X7X7X7X7X7X7X7X7X7X7X7X; . . . . . . . . < %X6X6X6X6X6X5XN.o . #   .   #   . . X . X . . X . X X X . X X X X X X O X X O X O O O # O O O @ @ @ O @ O + $ O $ @ $ @ O $ O X.5X6X6X6X6X6X6X6X6X6X6X6XC.% $ % - - * % % - % % * * = * * * * * - : : * * : * : * : : * : : : , : : 2 5 e n b n b b b b V b n b b V n n n b n n b V V b b b C C b V V n V n V V V n n V V V V n V V n V V V V V V V V V S S S V V S S S S S S S S S S S ~.6X6X6X6X6X6X-XJ V V S S S S S S S 7X7X7X7X7X7X7X7X7X7X7X7X7X7X7X7X7X7X7X7X",
"7X7X7X7X7X7X7X7X7X7X7X7X7X7X7X7X7X7X7X7X. . . . . . . . . < OX6X6X6X6X6X6XZ.# o . . #     # . . . . . . # . . . . X X X X ; X X X X X O O O X O O O O O O # @ @ O $ $ + $ @ @ @ @ $ $ $ + X.6X6X6X6X6X6X6X6X6X6X6X6XC.$ % % - $ % % % * % * % * - * * - * * * * * * * * * * : * : : * : * 2 : : 2 * 2 5 w b b V b V b b n n V b n n n n n n C V b V V V b V V V B V n n n n V V V V V V V V V V V V V V V S S V V S S V V S V S S S S S S S S S S S ~.6X6X6X6X6X6X-XJ S S V V S S S S S 7X7X7X7X7X7X7X7X7X7X7X7X7X7X7X7X7X7X7X7X",
"7X7X7X7X7X7X7X7X7X7X7X7X7X7X7X7X7X7X7X7X. o . . . . . . . < OX6X6X6X6X6X6XT.#     #   . #   # . . . . . O . ; . X X . X X X X X X O X O O # O O O @ @ O O @ @ @ @ @ @ O O O $ $ $ @ $ $ O X.5X6X6X6X6X6X6X6X6X6X6X6XC.% $ % % - % % * % % % % * % * * * * * * * * * * * : * * , * : * : * : : * : 2 , 2 2 9 e b b b V V n n b n n n n n n b V b V b b V w V b V V n n S C n n C n n V n V V V n V V V V V V V V V V V S V S V V S S S S S S S S S F #X6X6X6X6X6X6X-XJ V S V S S S S S F 7X7X7X7X7X7X7X7X7X7X7X7X7X7X7X7X7X7X7X7X",
"7X7X7X7X7X7X7X7X7X7X7X7X7X7X7X7X7X7X7X7Xo . . o . . . . . < OX6X6X6X6X6X6XoX<   #   . . o # . . . . . . . . . O . X X X . X X X X X O O O . O O O O O O O @ @ @ @ @ $ O + $ @ @ $ $ + + + X.6X6X6X6X6X6X6X6X6X6X6X6XC.% - % % % % & % * % * % * * - * * * * * * * : * : * : 2 * * : : : : : : : 2 : : * 2 2 3 4 e b b b b n V b n n n n n C b V V V V V V V b C n V n n n V V V V V C V V V V V V V V V V S V V V S V S S S V S S S S S S S S S S J =X6X6X6X6X6X6X-XJ V S S V S S S S S 7X7X7X7X7X7X7X7X7X7X7X7X7X7X7X7X7X7X7X7X",
"7X7X7X7X7X7X7X7X7X7X7X7X7X7X7X7X7X7X7X7X. o . o . . . . . & oX6X6X6X6X6X6X,Xd   . . . . . . . . X . X . X . X X . X . X X X X ; X X X O X O O O O @ O O O @ @ @ $ O O $ $ O @ $ @ @ $ $ X X.5X6X6X6X6X6X6X6X6X6X6X6XC.- % % $ - % % * % * % * * % % * * * * - * * * * > * : : * : : : : * : : : : 2 : : 3 3 : : 2 4 q b n n n n V b V b w V V V b V n n V V b V n n V V n C V n n V V n V V V V V V V V V V V V V S S V S S V S V S S S S S S S S &.1X6X6X6X6X6X6X-XJ V V S S S S S S S 7X7X7X7X7X7X7X7X7X7X7X7X7X7X7X7X7X7X7X7X",
"7X7X7X7X7X7X7X7X7X7X7X7X7X7X7X7X7X7X7X7X. o . . . . . . . & ].6X6X6X6X6X6X6Xc     . o . . . . . . . . . . X . X X X . X X X X X X O X O O O X O O O @ O O @ @ @ O O $ O + O $ O $ $ @ $ @ X.6X6X6X6X6X6X6X6X6X6X6X6XC.% $ % % - % % % * % % % * * * * % * * * * * = * * : * * : : * * : : : : : : , : : : : , 3 > 2 > 3 9 w n n b V b V V V w b V b n V b V V C V n n V n V V n V n V V V V V V n V V V V V V S V V V S S V V S S S S S S V S S S w.5X6X6X6X6X6X6X@XF V V S V S S S S S 7X7X7X7X7X7X7X7X7X7X7X7X7X7X7X7X7X7X7X7X",
"7X7X7X7X7X7X7X7X7X7X7X7X7X7X7X7X7X7X7X7X. o . . . . . . . # Z.6X6X6X6X6X6X6Xp.  . o . . . . . # . . . X X . . X . X X X . ; ; X X X X O O X O X O O O O O @ @ @ O $ O $ @ @ @ $ @ @ $ $ O X.5X6X6X6X6X6X6X6X6X6X6X6XC.$ % % % - - * % * - * - * * * * * * * * * : * * * * * * * : : * : : : : : * 3 > 3 > 3 3 3 > 2 3 2 : 2 9 v w V S V V V b V b b n b b V b V V n n V V V n V V n V V n V V V V V V V S V V V V S S V V V S V S S S S S S S S S G.6X6X6X6X6X6X6X`.S V V S V S S S S S 7X7X7X7X7X7X7X7X7X7X7X7X7X7X7X7X7X7X7X7X",
"7X7X7X7X7X7X7X7X7X7X7X7X7X7X7X7X7X7X7X7X. . . . . . . . . . r.6X6X6X6X6X6X6XOX<   # . o . . . . . . . . X . X X X X . X X X X X X X X O O X O O O # O O O @ @ @ O O $ O $ @ $ O $ @ $ $ + X.6X6X6X6X6X6X6X6X6X6X6X6XC.- % % % - % & % % * - * - % % = % * : - * * * * : * : : * * : : : = : : * 3 : > * 3 : * 3 > 2 2 2 3 2 > > 2 0 w w V w C V V C n V V V b V n n C n V n V C V V n V V V V V n V V V V V V S V S V S S S V S S S S S S S S S J =X6X6X6X6X6X6X6XG.V V V V S S S S S S 7X7X7X7X7X7X7X7X7X7X7X7X7X7X7X7X7X7X7X7X",
"7X7X7X7X7X7X7X7X7X7X7X7X7X7X7X7X7X7X7X7X. o . . . . . . . . o.5X6X6X6X6X6X6X4Xc   #   . . . . . . . . . X . X . . X X X X X X X O X O X O X X O O O O O @ @ @ # $ $ O $ @ O $ $ $ @ $ + X X.5X6X6X6X6X6X6X6X6X6X6X6XC.$ $ % % - % % * % % * * * * * * - * * * * * * * : * * : : : : > * : : : * 3 * 3 3 : 3 2 > > 3 3 2 3 3 3 > 2 2 5 5 e b V V V b V b C V C b n n V V V n V n n V V n n V V V V V V V V V V V V S V S S V V S S S S S S S S V 9.3X6X6X6X6X6X6X6X0.V V S S S S V S S S 7X7X7X7X7X7X7X7X7X7X7X7X7X7X7X7X7X7X7X7X",
"7X7X7X7X7X7X7X7X7X7X7X7X7X7X7X7X7X7X7X7Xo . . . . . . X X . a :X6X6X6X6X6X6X6XZ.#   . . . . . . . . X . . X . X . X . X X X X X X X X O O O O O # O O O O @ @ @ O O $ O $ @ $ O @ $ @ $ + X.6X6X6X6X6X6X6X6X6X6X6X6XC.% % % % - * % % % % - - * = % * * * * * * * : * * : * : * * : = : : : : : 3 * 3 * : : 3 3 : 3 2 3 3 3 3 4 2 2 2 2 3 4 5 w w V b V b V V V C n n V C n V V V n V V V V V V V V V S V S V S S V S V V S S V V S S V S V S S ~.6X6X6X6X6X6X6X2X&.V S V V V S S S S S 7X7X7X7X7X7X7X7X7X7X7X7X7X7X7X7X7X7X7X7X",
"7X7X7X7X7X7X7X7X7X7X7X7X7X7X7X7X7X7X7X7X. o . . . . . . ; . # T.6X6X6X6X6X6X6X,Xd   o # . . . . . . X . X . . X X . X X . X X X X X X X X X O X O O O @ O @ @ @ X $ @ @ $ @ @ @ $ @ $ $ O X.5X6X6X6X6X6X6X6X6X6X6X6XC.% % % % - - & * - = * % % * * * = * * * * * * * = : * * : : : > > * : : : : 3 : : 3 3 2 > > > 2 3 > > 4 > 4 2 4 2 3 3 2 4 4 e w V V V b V V n n V n V V V V n n V V V V V n V V V S V V V S S S S S S S S S S S S S S V >.<X6X6X6X6X6X6X6X#XS S V S V S S V S S S 7X7X7X7X7X7X7X7X7X7X7X7X7X7X7X7X7X7X7X7X",
"7X7X7X7X7X7X7X7X7X7X7X7X7X7X7X7X7X7X7X7X7X. . . . . . . . . . ;.6X6X6X6X6X6X5X5XN.# o o . . . . . . . . . X X . X X . X X X ; X O X O O O O O O O O O O O @ @ @ $ @ @ @ @ @ $ $ @ $ + + + X.6X6X6X6X6X6X6X6X6X6X6X6XC.% $ % % - % % - * - % * * * - * - * * * * : * * : * * : * : * * : : : : : : : 3 : : : 2 2 > 3 3 3 4 3 > > 3 2 2 4 3 4 4 2 2 2 4 4 5 e b n n V n V n C n V V n V V V V V V V V V V V V V S V S V V S V V V S S S S S S S H.6X6X6X6X6X6X6X6XA.V V S V S S S S S S 7X7X7X7X7X7X7X7X7X7X7X7X7X7X7X7X7X7X7X7X7X",
"7X7X7X7X7X7X7X7X7X7X7X7X7X7X7X7X7X7X7X7X7X. . o . . . . . . . a :X6X6X6X6X6X6X6X,Xd o . . o . . . . X . ; . . X . X X X X X X X O X X O X O O O O O O O O @ @ @ O $ O O $ X $ $ $ @ O $ X X.6X6X6X6X6X6X6X6X6X6X6X6XC.% $ % % - % % * % % * - * - * * * * * - * * * * : * * : * : * : * : : : : : : > = > > > > > 4 > 3 3 > > 4 3 2 3 4 3 3 4 3 4 3 4 4 3 4 5 e w w V V V V V b V n V V V V V V V V V V V V V V V V S V S S V S S S S S S V >.-X6X6X6X6X6X6X6X2X%.V V S S S V S S S S 7X7X7X7X7X7X7X7X7X7X7X7X7X7X7X7X7X7X7X7X7X",
"7X7X7X7X7X7X7X7X7X7X7X7X7X7X7X7X7X7X7X7X7X. . . . . . . ; . X X N.6X6X6X6X6X6X6X6XC.# . . . . . . . . . . . X X X X . X X X X X X X X O O O # O # O @ O O @ @ O @ @ @ + @ $ $ O $ @ $ @ @ +.5X6X6X6X6X6X6X6X6X6X6X6XC.% - % % % & % % * % % - * * - * - * * * : * * = * : * * : : * : : * : : : > : > > > > > > > > 3 3 3 3 4 > 3 3 2 4 3 4 3 4 3 4 4 3 4 4 4 3 4 5 e w w V V V V V n V V V V V n V V V V V V S V S S V V S S V V S S S S S P.6X6X6X6X6X6X6X6X/.D V V S V V S S S S S 7X7X7X7X7X7X7X7X7X7X7X7X7X7X7X7X7X7X7X7X7X",
"7X7X7X7X7X7X7X7X7X7X7X7X7X7X7X7X7X7X7X7X7X7X. ; . . . . . X X . l 3X6X6X6X6X6X6X6X3Xc o . . . . X . X . X . X . . X X . # X X # X X X O O X X # O O @ O O @ @ # O $ $ O @ O $ @ $ @ $ $ @ X.6X6X6X6X6X6X6X6X6X6X6X6XC.% $ % - - * - % % * % % * * * * * * * * * * * * * * : : * > : > > = > : : : : > > > > > > > 3 3 3 3 3 3 > 3 2 3 2 3 3 4 3 3 4 3 4 3 3 4 4 4 2 4 4 4 5 5 w b n V V V V V V V V V V V V V V V V S S V S S V S S S S V 9.2X6X6X6X6X6X6X6X5X9.n S V S S V S S S S 7X7X7X7X7X7X7X7X7X7X7X7X7X7X7X7X7X7X7X7X7X7X",
"7X7X7X7X7X7X7X7X7X7X7X7X7X7X7X7X7X7X7X7X7X7X. . . . . . . . X . @ E.6X6X6X6X6X6X6X6X.X< . . . . . . . . . X . X X X X . X X X X O X X X O O O O O O O O O @ @ @ @ O $ O $ @ @ $ $ @ $ $ @ o.6X6X6X6X6X6X6X6X6X6X6X6XC.% - % - - - - * % % * - * * * * * * * - * * : * > : * * : * : * * > > : : : > > > > > > > > > 3 3 3 3 3 4 3 4 3 4 4 3 4 4 4 3 4 4 4 4 4 4 4 4 4 4 4 4 4 4 0 > v v b n n V V V V V V V V V V S S V S S V S S S S S J @X6X6X6X6X6X6X6X6X|.F V V V V S S V S S S 7X7X7X7X7X7X7X7X7X7X7X7X7X7X7X7X7X7X7X7X7X7X",
"7X7X7X7X7X7X7X7X7X7X7X7X7X7X7X7X7X7X7X7X7X7X. . . . . . X X X . . x 2X6X6X6X6X6X6X6X6Xp.. . . . . . . . . X . . . X . X # O X X X O X O O O X O O @ O O O @ $ @ @ @ O + $ O @ @ $ @ + $ + ..6X6X6X6X6X6X6X6X6X6X6X6XC.% $ % - - - % * - - - - * * - & * * * * * * : * * * * : * * > * : * : : : > > > > > 4 > > > > 3 > > 4 4 > 3 2 3 3 3 3 4 3 3 4 4 4 4 3 3 4 4 4 4 4 4 4 4 5 r > 0 r > r v M b b V V S V V V V S S S V V S V S S S S F.6X6X6X6X6X6X6X6X3X9.V V V V V S V S S S S 7X7X7X7X7X7X7X7X7X7X7X7X7X7X7X7X7X7X7X7X7X7X",
"7X7X7X7X7X7X7X7X7X7X7X7X7X7X7X7X7X7X7X7X7X7X7X. . . . X . . . X . O N.6X6X6X6X6X6X6X6X3Xc o . . . . . . . O ; X X X X . . X X X X X X O O # O O O O @ O O @ O @ O $ $ O $ @ $ @ $ + + $ O +.5X6X6X6X6X6X6X6X6X6X6X6XC.$ % % - $ & - % * - - % = - * - * * * * * * = * : : * * : : > > > > : : : > > > > > > > > > 4 > 4 3 > > > 3 2 4 3 3 4 4 4 4 3 4 3 4 4 4 4 4 4 4 4 5 4 4 5 > r 0 > r r > > 9 9 e e e b n V V V V S S S S S V S V 1.2X6X6X6X6X6X6X6X6X`.S V V V V S V S S S S 7X7X7X7X7X7X7X7X7X7X7X7X7X7X7X7X7X7X7X7X7X7X7X",
"7X7X7X7X7X7X7X7X7X7X7X7X7X7X7X7X7X7X7X7X7X7X7X. . . . . X . X X X . s ;X6X6X6X6X6X6X6X6XOXa o . X . X . . . . . . X X . O X # . X O X O X O O # X O O O O @ @ @ @ @ $ + O $ $ $ $ O + $ @ X.6X6X6X6X6X6X6X6X6X6X6X6XC.% $ % % - * & % * * & - * - & * * * * * * * * * * * : : * : * * > * > : : > > > > > > 3 > > > 3 3 3 3 3 4 3 4 3 4 , 4 3 4 3 4 4 3 4 8 4 4 4 4 4 5 4 4 4 5 r > r r > r t 0 9 9 9 9 e 9 e e w w n n V S V S S S ( @X6X6X6X6X6X6X6X6X<X>.V V V V S S V S V S S 7X7X7X7X7X7X7X7X7X7X7X7X7X7X7X7X7X7X7X7X7X7X7X",
"7X7X7X7X7X7X7X7X7X7X7X7X7X7X7X7X7X7X7X7X7X7X7X7X. . . . . . X . X ; . e.5X6X6X6X6X6X6X6X6XT.& . . . . . # . X X . X X X . X O O X X X X X O O O @ @ O O O # @ @ @ @ O O $ O @ @ $ $ $ + @ o.6X6X6X6X6X6X6X6X6X6X6X6XC.% - % % % - % % - - * * - : - * * * * * * * : * * : * * : * > > > * > : * 2 : > > > 3 > 3 > 3 > 3 3 3 3 > 3 2 3 4 3 3 4 3 4 3 4 4 3 3 , 4 4 4 4 4 4 4 4 5 > r > > r > > r 9 9 9 9 9 9 9 9 9 9 9 9 e e e e b Z ~.6X6X6X6X6X6X6X6X6XS.V V V V V S V S V S S 7X7X7X7X7X7X7X7X7X7X7X7X7X7X7X7X7X7X7X7X7X7X7X7X",
"7X7X7X7X7X7X7X7X7X7X7X7X7X7X7X7X7X7X7X7X7X7X7X7X. . . . X . X X X X . % T.6X6X6X6X6X6X6X6X6Xp.; . . X . . . X X . X X X X X . O X X X O O O X O O @ O @ X @ @ @ @ @ + + $ @ $ @ $ @ $ $ O X.6X6X6X6X6X6X6X6X6X6X6X6XC.% $ - % % - - % * - - - * * - * * * * * * * : * * : * : * : : : : > > : : : : : : 3 3 3 2 : 3 3 3 3 3 3 4 4 3 3 3 3 4 3 4 3 4 4 4 4 3 4 4 4 4 4 4 4 4 5 5 3 5 5 4 0 > r > > 0 > 5 5 0 5 0 9 q 0 r 5 0 0 0 r c.5X6X6X6X6X6X6X6X6X+XG V V V V V S S V V S S 7X7X7X7X7X7X7X7X7X7X7X7X7X7X7X7X7X7X7X7X7X7X7X7X",
"7X7X7X7X7X7X7X7X7X7X7X7X7X7X7X7X7X7X7X7X7X7X7X7X7X. . . . X X . X X X . d :X6X6X6X6X6X6X6X6X4Xe.. . . . X . X . X . . X X X O # X O X O X O X O ; @ O O @ @ @ @ @ @ @ $ @ @ @ $ $ @ @ $ @ X.5X6X6X6X6X6X6X6X6X6X6X6XC.$ % - % - % % * % & * - * - - * * * * * * * * * * * * * : : * > * * : : : : 2 2 : * 3 , : : 3 3 3 3 3 3 > , 2 3 4 3 4 4 3 4 3 3 4 4 4 4 4 4 4 4 4 4 5 4 5 5 5 5 5 0 > 0 7 r 0 r 0 0 5 0 5 5 0 0 0 0 7 0 9 6.3X6X6X6X6X6X6X6X6X2X>.V V V V V V V S V S S 7X7X7X7X7X7X7X7X7X7X7X7X7X7X7X7X7X7X7X7X7X7X7X7X7X",
"7X7X7X7X7X7X7X7X7X7X7X7X7X7X7X7X7X7X7X7X7X7X7X7X7X. . . . X . X X X X X X O.6X6X6X6X6X6X6X6X6X1X... . X . X . X X X . X . X X . X X X X O X O O @ O O O O @ @ # @ @ @ @ $ @ @ @ $ @ $ $ @ X.6X6X6X6X6X6X6X6X6X6X6X6XC.- - $ % % & - - % % % - * * & * * * * * * * : * > * : : * * > * > * > : : : : : : : 3 3 : : 3 3 3 3 3 3 3 3 2 3 3 4 3 5 3 3 5 4 4 4 4 , 4 4 4 4 4 4 4 4 4 5 9 4 5 0 0 > 5 0 0 5 5 5 0 7 5 0 0 5 0 0 0 0 #.>X6X6X6X6X6X6X6X6X6Xz.V V V V V V V S V S V S 7X7X7X7X7X7X7X7X7X7X7X7X7X7X7X7X7X7X7X7X7X7X7X7X7X",
"7X7X7X7X7X7X7X7X7X7X7X7X7X7X7X7X7X7X7X7X7X7X7X7X7X7X. . . . X . X X X X X $ N.6X6X6X6X6X6X6X6X6X,Xx . . . . . X . X X X ; O X O X O X + O O O X ; @ O O O @ @ @ @ @ @ + @ @ $ @ @ $ @ $ @ o.6X6X6X6X6X6X6X6X6X6X6X6XC.% % % % $ - * % * * * - * * * * * * * * * * = * * : * * : : > * > : : : * 3 3 : : 3 3 * 3 : : 3 3 3 3 3 3 3 2 4 4 2 4 2 3 3 3 3 , 4 3 4 4 4 4 4 4 4 5 5 4 4 4 4 5 > 0 r 5 > 0 5 0 5 5 0 0 0 0 0 0 0 0 ] *X6X6X6X6X6X6X6X6X6X`.D V V V V V V V V S S S 7X7X7X7X7X7X7X7X7X7X7X7X7X7X7X7X7X7X7X7X7X7X7X7X7X7X",
"7X7X7X7X7X7X7X7X7X7X7X7X7X7X7X7X7X7X7X7X7X7X7X7X7X7X. . X X X . . X X X X X 1 ].6X6X6X6X6X6X6X6X6X*Xl o X . . . X X . X . O X X O X X O X X O O O O O @ O @ @ @ @ @ @ + @ @ $ $ @ @ + $ O +.6X6X6X6X6X6X6X6X6X6X6X6XC.% - - % - % % % % % * * % - = * * * - - * * * * = : * : * * > : : * : : : * 3 3 * 3 3 : 3 > 3 3 3 3 3 3 3 3 4 3 5 2 3 4 , 5 3 4 4 4 3 4 4 4 4 4 4 9 4 4 5 4 5 5 5 4 5 r 0 r > r 0 0 5 5 0 5 5 r 9 9 R $X6X6X6X6X6X6X6X6X5X$X_ n V V V V V V V V V V V 7X7X7X7X7X7X7X7X7X7X7X7X7X7X7X7X7X7X7X7X7X7X7X7X7X7X",
"7X7X7X7X7X7X7X7X7X7X7X7X7X7X7X7X7X7X7X7X7X7X7X7X7X7X7X. . . . X X X X X X X X s OX6X6X6X6X6X6X6X6X6X%Xl o X . X . X O . O . O X X X X X O O O X O ; O O O ; @ @ @ @ @ + + $ @ @ $ + + $ + ..5X6X6X6X6X6X6X6X6X6X6X6XC.% $ - % - % % * * % % * * * * * - * : * * * : * : : * * : * : : = : : : : : , : : : 3 , 3 > 3 3 3 3 3 3 3 2 2 3 3 3 3 4 2 5 3 4 4 4 4 4 4 4 4 4 4 4 4 4 5 5 4 4 5 5 5 > 5 0 0 r > 5 0 r 5 r r 9 9 R $X6X6X6X6X6X6X6X6X6X<X1.n V V V V V V V V S S S 7X7X7X7X7X7X7X7X7X7X7X7X7X7X7X7X7X7X7X7X7X7X7X7X7X7X7X",
"7X7X7X7X7X7X7X7X7X7X7X7X7X7X7X7X7X7X7X7X7X7X7X7X7X7X7X7XX . X . X X X X X X O X x ,X6X6X6X6X6X6X6X6X6X%Xl X . X . X X X . # X O X X X O X O O X O @ @ O O @ @ @ @ @ @ + @ @ @ @ $ @ $ + @ X.6X6X6X6X6X6X6X6X6X6X6X6XV.$ - - $ - % % * % % % * - % * * * * * : * * : * * * * : * : > * : * * > : : * 2 : : 3 * 3 > 2 3 3 3 3 > 3 3 2 4 3 5 4 2 4 2 2 4 2 4 3 4 4 4 4 4 4 4 4 5 4 4 5 5 5 > 5 7 0 r r 0 > 5 5 5 0 5 5 9 R @X6X6X6X6X6X6X6X6X6X2Xw.n V V V V V V S V V V S 7X7X7X7X7X7X7X7X7X7X7X7X7X7X7X7X7X7X7X7X7X7X7X7X7X7X7X7X",
"7X7X7X7X7X7X7X7X7X7X7X7X7X7X7X7X7X7X7X7X7X7X7X7X7X7X7X7X. . . O X X X X X X X # X X.2X6X6X6X6X6X6X6X6X6X%Xx . . X X . . X O X X X O X O O X @ O O O O O O @ @ @ @ @ @ + @ @ $ @ $ $ $ + @ o.6X6X6X6X6X6X6X6X6X6X6X6X-.+ - - - & % = % % * - * * * - * * * * - * * * * * : * * : : * > > > > > : : 2 3 : : 3 3 3 > 2 3 3 3 3 3 3 3 4 2 2 2 4 4 4 4 4 4 4 3 4 4 4 4 4 4 4 4 4 4 5 5 4 4 5 0 5 > r > > r t 5 r 5 5 5 9 E $X6X6X6X6X6X6X6X6X6X5XA.V V n V V V V V V V V V S 7X7X7X7X7X7X7X7X7X7X7X7X7X7X7X7X7X7X7X7X7X7X7X7X7X7X7X7X",
"7X7X7X7X7X7X7X7X7X7X7X7X7X7X7X7X7X7X7X7X7X7X7X7X7X7X7X7X7XX . O . X X X X X X $ O + e.4X6X6X6X6X6X6X6X6X6X;X .. ; . . X X . # O X X X X X X O O O @ @ X O @ @ @ @ @ @ O $ @ $ @ $ @ $ $ X X.5X6X6X6X6X6X6X6X6X6X6X;Xs $ - % % % & * - - % * - * * * * % * * * * * * * : : * * : * > * > * : : : 3 : > > : : : 3 > 3 3 3 > 4 4 > > > > > > > > > > > > r > r r > > 0 > > > r > r r > > r > 5 5 4 r t > m 5 0 5 0 5 #.%X6X6X6X6X6X6X6X6X6X5XG.C V V V V V V V V V V V V 7X7X7X7X7X7X7X7X7X7X7X7X7X7X7X7X7X7X7X7X7X7X7X7X7X7X7X7X7X",
"7X7X7X7X7X7X7X7X7X7X7X7X7X7X7X7X7X7X7X7X7X7X7X7X7X7X7X7X7X7XX . X X X X X X X X O X @ e.4X6X6X6X6X6X6X6X6X6X,XX.# . X X X O O X X X X + X + O O @ X O @ O @ @ @ @ @ + + + @ @ $ $ @ @ $ + X.6X6X6X6X6X6X6X6X6X6X5Xr.% $ % % % % % % % * % % - * * % * * * * * * : = * * * : * * > * > : : : : : * : > : : 3 3 2 > > 3 3 4 > > 4 > > v > > > r r r r > > > > > > 0 > r r r > r > > 9 r > 0 5 5 5 0 > r > 5 0 5 0 #.:X6X6X6X6X6X6X6X6X6X5XP.C n V b V V V V V V V V V 7X7X7X7X7X7X7X7X7X7X7X7X7X7X7X7X7X7X7X7X7X7X7X7X7X7X7X7X7X7X",
"7X7X7X7X7X7X7X7X7X7X7X7X7X7X7X7X7X7X7X7X7X7X7X7X7X7X7X7X7X7X7X. X X X ; X X X X O O ; $ r.4X6X6X6X6X6X6X6X6X6X3Xe.@ . . # X . O X + X X X O X X # O O @ O @ @ @ @ O @ O @ @ @ $ $ @ @ $ + X.6X6X6X6X6X6X6X6X6X5Xv.= % % - % % $ * % % * * = * - - * * % * * * * * * * * * : * : : * : : = : : : 3 3 : : 3 3 2 > > 3 3 3 > > > > > > > > r > > > > > > > r > > r > 0 r > > r > r r > 9 0 5 7 5 5 > m > m 9 9 0 h.2X6X6X6X6X6X6X6X6X6X6XP.G V V V V V V V V V V V V V 7X7X7X7X7X7X7X7X7X7X7X7X7X7X7X7X7X7X7X7X7X7X7X7X7X7X7X7X7X7X",
"7X7X7X7X7X7X7X7X7X7X7X7X7X7X7X7X7X7X7X7X7X7X7X7X7X7X7X7X7X7X7XO . X X X X X X $ O O O O $ r.4X6X6X6X6X6X6X6X6X6X5Xj.& . . X X X X X X + O O O O O O @ X O # @ @ @ $ $ O $ @ $ @ $ @ $ $ O W 3X5X5X5X6X5X5X1X[.X.= % % % - % - - % % % % - % - * * * * = * * - * * * * * > * : * : : * : : : : : 3 * 3 : : : 2 2 > > > > 4 3 4 > v > > v > > r > > r r > > r > r > 0 > > r > r > 9 r r > r > 7 5 r > r > 9 u g.3X6X6X6X6X6X6X6X6X6X5XP.C n V b V n n V V V V V V V 7X7X7X7X7X7X7X7X7X7X7X7X7X7X7X7X7X7X7X7X7X7X7X7X7X7X7X7X7X7X7X",
"7X7X7X7X7X7X7X7X7X7X7X7X7X7X7X7X7X7X7X7X7X7X7X7X7X7X7X7X7X7X7X7XX X X X X @ X @ X O O @ @ $ r.4X6X6X6X6X6X6X6X6X6X5XZ.1 . . # O X X X X X X O O O O $ O O @ O @ O $ $ O @ @ $ @ $ @ $ $ @ * x  . . . . . .h = % $ % $ % - % - - % % % * - * * * % = * * * * * * * * * : : - = : * * : : : : : * , : 2 * 3 > 2 > > > > 4 3 3 3 > > > > > > > v > > > > v > r > > 0 > 0 > 0 5 > r > r 0 > 4 5 5 5 > m > v L U.4X6X6X6X6X6X6X6X6X6X5XP.H V V b V n V V V V V V V V 7X7X7X7X7X7X7X7X7X7X7X7X7X7X7X7X7X7X7X7X7X7X7X7X7X7X7X7X7X7X7X7X",
"7X7X7X7X7X7X7X7X7X7X7X7X7X7X7X7X7X7X7X7X7X7X7X7X7X7X7X7X7X7X7X7X7XX X X X X X X O O O + @ O $ e.3X6X6X6X6X6X6X6X6X6X6X[.h . . X @ X X @ X ; O + O O O O O @ $ O O @ @ + $ O @ $ $ @ @ $ $ $ + @ + + + @ O + $ $ % % % % - - % $ & % * % % - * - * * * * * * * = : * * * * : : : : : * : * : : : : : : 3 : > 2 2 > 4 2 > 3 > 3 4 > > > v > > > > > r > > > r > r > 0 > 0 > 5 0 > r > 9 r 5 4 5 5 r > > R ].5X6X6X6X6X6X6X6X6X6X5XG.C V b V V V n V n V V V V V 7X7X7X7X7X7X7X7X7X7X7X7X7X7X7X7X7X7X7X7X7X7X7X7X7X7X7X7X7X7X7X7X7X",
"7X7X7X7X7X7X7X7X7X7X7X7X7X7X7X7X7X7X7X7X7X7X7X7X7X7X7X7X7X7X7X7X7X7XX X X X @ X O O O O @ @ O $ =.1X6X6X6X6X6X6X6X6X6X6X;Xo.# X X X X O X $ ; X O O O O O @ @ # @ $ O O $ @ $ @ $ @ @ $ $ $ $ $ $ $ $ $ % $ % % $ % $ % % % % % % % % * % * * * - - * * * * - * : = * * : - : * > * : : : : : : * 3 3 * > 3 3 2 > > 3 3 4 > > 4 > v > > v > > r > v > r r > > > > 0 0 > > 0 > 0 0 > 9 5 5 5 5 9 > r #.*X5X6X6X6X6X6X6X6X6X6X4XA.C n V V M V C V V V V n V V 7X7X7X7X7X7X7X7X7X7X7X7X7X7X7X7X7X7X7X7X7X7X7X7X7X7X7X7X7X7X7X7X7X7X",
"7X7X7X7X7X7X7X7X7X7X7X7X7X7X7X7X7X7X7X7X7X7X7X7X7X7X7X7X7X7X7X7X7X7X7X. + X X @ O O O O @ @ @ O @ o.:X6X6X6X6X6X6X6X6X6X6X3Xr.% X X X X X X O + O # O O O @ @ @ @ O $ O @ @ $ @ $ @ $ $ @ $ $ $ $ $ - $ $ % $ % $ % $ - % % % - % % % * % % - - * * * * * * * * * * * : : - : : : = * : * : : : 3 : 3 : : 3 > 2 > > 3 3 > 4 > > > > > > > > > > > > > > > > r r 0 0 > 0 r > r > 0 0 0 > 4 9 4 4 L d.2X5X6X6X6X6X6X6X6X6X6X1Xf.n V M V b V V V b n V V V b 7X7X7X7X7X7X7X7X7X7X7X7X7X7X7X7X7X7X7X7X7X7X7X7X7X7X7X7X7X7X7X7X7X7X7X",
"7X7X7X7X7X7X7X7X7X7X7X7X7X7X7X7X7X7X7X7X7X7X7X7X7X7X7X7X7X7X7X7X7X7X7X7XX O X X $ @ @ @ O $ O $ O O x oX6X6X6X6X6X6X6X6X6X6X5XY.6 . X X O O ; X O # O O O O @ @ @ $ O O @ @ $ @ $ @ $ $ $ $ @ $ $ $ - $ $ $ $ - % % $ - - - - - % % * % % * * * = - * % * * - : * * * * : : * : : : * : * > : : 3 * : : 3 > 3 3 > > 4 3 3 3 > 4 > > > 9 > 9 > 9 > r > > > > > > > 0 0 > 0 0 0 > 4 4 5 4 5 5 4 L R.5X6X6X6X6X6X6X6X6X6X6X>X2.n n V V b b V C V V n V V V 7X7X7X7X7X7X7X7X7X7X7X7X7X7X7X7X7X7X7X7X7X7X7X7X7X7X7X7X7X7X7X7X7X7X7X7X",
"7X7X7X7X7X7X7X7X7X7X7X7X7X7X7X7X7X7X7X7X7X7X7X7X7X7X7X7X7X7X7X7X7X7X7X7X7XX @ X X X X @ O @ + @ $ $ + j '.6X6X6X6X6X6X6X6X6X6X6XoXc O X # X O O O O O @ O # @ @ @ @ $ + $ @ @ $ @ $ @ $ @ $ $ $ $ $ $ $ $ - $ $ $ & & - - $ - - - - % * = % % * * * * * * : - * * * * : * * : * * : : > * > : : , 3 : : : 3 3 : > > > 3 > 3 3 3 > > 9 > > 9 9 > > r > v > r r > 0 > > 0 0 > > 0 5 5 5 5 4 4 +.@X6X6X6X6X6X6X6X6X6X6X6X$X>.n n n M V V V b V V V V V V 7X7X7X7X7X7X7X7X7X7X7X7X7X7X7X7X7X7X7X7X7X7X7X7X7X7X7X7X7X7X7X7X7X7X7X7X7X",
"7X7X7X7X7X7X7X7X7X7X7X7X7X7X7X7X7X7X7X7X7X7X7X7X7X7X7X7X7X7X7X7X7X7X7X7X7X7XX X @ X @ @ + @ + @ + @ @ O 6 C.6X6X6X6X6X6X6X6X6X6X6X1Xr.& X X @ @ O O O O + @ @ @ @ @ O O @ @ $ @ $ $ $ $ $ $ $ $ $ $ - $ - $ $ $ $ $ - $ % - % % % & % - - * % % - * * - * * * * : * * * > * * : * : > * > : : : : 2 : 3 : , * 3 > 4 3 3 3 3 3 > 0 9 > > 4 > > 9 > > > > > > r r > > > > > r 0 > 9 5 5 4 i d.1X6X6X6X6X6X6X6X6X6X6X6X).^ n n n V b V n V V V b M V n 7X7X7X7X7X7X7X7X7X7X7X7X7X7X7X7X7X7X7X7X7X7X7X7X7X7X7X7X7X7X7X7X7X7X7X7X7X7X",
"7X7X7X7X7X7X7X7X7X7X7X7X7X7X7X7X7X7X7X7X7X7X7X7X7X7X7X7X7X7X7X7X7X7X7X7X7X7X7X@ O @ X @ O @ O @ @ $ $ $ @ = i.3X6X6X6X6X6X6X6X6X6X6X5XT.s X X X O O O @ O @ @ @ @ $ @ + $ @ @ $ @ @ @ $ @ $ $ $ $ $ $ - $ $ & % & - $ - % - % % - % * * - % * * - * * * * * * * * * = : * * : * : : = > = : : : : : 2 * : 3 3 3 > > 3 3 3 3 3 4 > > > 9 > 4 4 > > > v > r > > > 0 0 0 9 v > > v 4 4 4 I R.6X6X6X6X6X6X6X6X6X6X6X5XL.G b n n n n V b V V V V V V V 7X7X7X7X7X7X7X7X7X7X7X7X7X7X7X7X7X7X7X7X7X7X7X7X7X7X7X7X7X7X7X7X7X7X7X7X7X7X7X",
"7X7X7X7X7X7X7X7X7X7X7X7X7X7X7X7X7X7X7X7X7X7X7X7X7X7X7X7X7X7X7X7X7X7X7X7X7X7X7X7XO O X O $ X X $ $ @ $ $ $ O % X.;X6X6X6X6X6X6X6X6X6X6X6X;XO.$ . O O O O O @ @ # @ O O O $ O @ @ $ @ @ $ $ $ $ $ @ $ & $ $ $ - % - $ $ % % - % % - % & % - * - * * * * * * * * * * * * > * * > * : : * : 3 * 3 * 3 : > : : : 3 : > > 3 3 > 3 4 > 3 3 > 4 4 3 4 4 > > r q r > > > r > > r > > > m 3 0 6.*X6X6X6X6X6X6X6X6X6X6X6X1Xq.C b n n n n V V V b b b V C V 7X7X7X7X7X7X7X7X7X7X7X7X7X7X7X7X7X7X7X7X7X7X7X7X7X7X7X7X7X7X7X7X7X7X7X7X7X7X7X7X",
"7X7X7X7X7X7X7X7X7X7X7X7X7X7X7X7X7X7X7X7X7X7X7X7X7X7X7X7X7X7X7X7X7X7X7X7X7X7X7X7X7XO $ O O $ $ @ O $ $ O $ $ $ $ l [.6X6X6X6X6X6X6X6X6X6X6X5XC.6 O O O O O @ @ @ O $ $ + + $ $ @ $ @ $ $ @ $ $ $ $ $ - $ $ $ $ % - $ & % % - % % - - * - - & - - * * - * * * - * * = * * > * * : * : : : * : : : * : > : 3 3 3 3 > 4 3 > 4 3 > > 3 3 4 3 > 4 4 3 r > > > > > r r > r > > > r > > g K.3X6X6X6X6X6X6X6X6X6X6X6X@X:.n n n n n n n n b V V C V V n 7X7X7X7X7X7X7X7X7X7X7X7X7X7X7X7X7X7X7X7X7X7X7X7X7X7X7X7X7X7X7X7X7X7X7X7X7X7X7X7X7X",
"7X7X7X7X7X7X7X7X7X7X7X7X7X7X7X7X7X7X7X7X7X7X7X7X7X7X7X7X7X7X7X7X7X7X7X7X7X7X7X7X7X7X+ O O @ $ O @ @ $ + $ $ $ $ + 8 B.5X6X6X6X6X6X6X6X6X6X6X6XoXX.@ O O O @ + # @ @ @ O O $ @ $ $ @ $ @ $ $ $ $ $ $ $ $ % $ $ % - - $ % - - % & * - - * % % * * - - * * * * * * : * * * : * : * * : : : , : : : 3 3 3 : : 2 * 3 > > 3 3 > 3 3 4 3 3 4 3 4 3 3 4 r > > > > r r > r > > r > > m #.$X6X6X6X6X6X6X6X6X6X6X6X5X^.! b n n n n n V n n V n C n V V 7X7X7X7X7X7X7X7X7X7X7X7X7X7X7X7X7X7X7X7X7X7X7X7X7X7X7X7X7X7X7X7X7X7X7X7X7X7X7X7X7X7X",
"7X7X7X7X7X7X7X7X7X7X7X7X7X7X7X7X7X7X7X7X7X7X7X7X7X7X7X7X7X7X7X7X7X7X7X7X7X7X7X7X7X7X7XO + O O $ $ $ @ $ $ $ $ $ % $ = -.,X6X6X6X6X6X6X6X6X6X6X6X4XV.6 X O @ @ @ @ @ $ O $ O $ @ $ @ $ $ @ $ $ $ $ $ $ $ $ $ % $ % $ - - - $ - $ & % % - - = - * * & * * * * * = * * * : * * : * : : * : * : : * 3 * : : : , 3 3 > > 3 3 3 3 3 3 3 4 3 3 3 3 4 3 > > r > r > > > r > r > > L J.4X6X6X6X6X6X6X6X6X6X6X6X2Xz.C n n n b n n n n n n n n n V n 7X7X7X7X7X7X7X7X7X7X7X7X7X7X7X7X7X7X7X7X7X7X7X7X7X7X7X7X7X7X7X7X7X7X7X7X7X7X7X7X7X7X7X",
"7X7X7X7X7X7X7X7X7X7X7X7X7X7X7X7X7X7X7X7X7X7X7X7X7X7X7X7X7X7X7X7X7X7X7X7X7X7X7X7X7X7X7X7X@ @ @ $ O $ $ O $ $ $ $ $ $ $ % z [.6X6X6X6X6X6X6X6X6X6X6X6XoXX.& X O O $ O O $ @ O @ @ @ $ @ $ @ $ $ $ $ $ $ $ % $ % $ - - & $ - - % % % % % * % % * * * * * * * * * * * * * : : * * : : * > > * * > : * 3 3 : : 3 3 : : : 3 3 3 3 3 3 3 3 3 4 3 3 4 4 3 4 4 3 4 4 4 4 4 4 3 9 *.$X6X6X6X6X6X6X6X6X6X6X6X6X@X,.n n n b b V b b n V n n V n n V 7X7X7X7X7X7X7X7X7X7X7X7X7X7X7X7X7X7X7X7X7X7X7X7X7X7X7X7X7X7X7X7X7X7X7X7X7X7X7X7X7X7X7X7X",
"7X7X7X7X7X7X7X7X7X7X7X7X7X7X7X7X7X7X7X7X7X7X7X7X7X7X7X7X7X7X7X7X7X7X7X7X7X7X7X7X7X7X7X7X7X@ @ @ $ @ $ + $ $ $ $ % $ % $ + 8 M.4X6X6X6X6X6X6X6X6X6X6X6X5XC.s O O O O $ O $ @ $ $ $ @ $ $ $ $ @ $ $ $ $ $ $ % $ % $ - $ - - - % % % % % * % * * % * * * - * * - * * : * * : * : * : : * : > > : : 2 3 * 3 * 3 , 3 2 3 3 3 3 3 3 3 3 3 3 3 3 4 4 3 4 3 4 3 4 3 3 4 4 3 I K.3X6X6X6X6X6X6X6X6X6X6X6X5XI.! b n b n n n n n V V M n n b C V 7X7X7X7X7X7X7X7X7X7X7X7X7X7X7X7X7X7X7X7X7X7X7X7X7X7X7X7X7X7X7X7X7X7X7X7X7X7X7X7X7X7X7X7X7X",
"7X7X7X7X7X7X7X7X7X7X7X7X7X7X7X7X7X7X7X7X7X7X7X7X7X7X7X7X7X7X7X7X7X7X7X7X7X7X7X7X7X7X7X7X7X7X7X@ @ $ $ + $ $ $ $ $ $ % % - $ % $.%X6X6X6X6X6X6X6X6X6X6X6X6X;Xe.= X + @ $ + @ $ @ $ @ @ $ $ $ $ $ $ $ $ $ $ $ % $ - $ $ - - $ % % % - % % % * - * - * * * * * * * * : * = * * * : * * > > > : : : 3 * : : 3 : 3 3 : : 3 3 3 3 3 3 3 3 3 4 3 4 3 4 3 4 4 4 4 4 5 3 r h.*X6X6X6X6X6X6X6X6X6X6X6X6X-Xw.C b n b n b n V b n n n n n n V V 7X7X7X7X7X7X7X7X7X7X7X7X7X7X7X7X7X7X7X7X7X7X7X7X7X7X7X7X7X7X7X7X7X7X7X7X7X7X7X7X7X7X7X7X7X7X",
"7X7X7X7X7X7X7X7X7X7X7X7X7X7X7X7X7X7X7X7X7X7X7X7X7X7X7X7X7X7X7X7X7X7X7X7X7X7X7X7X7X7X7X7X7X7X7X7X$ @ @ $ $ $ $ $ $ % $ % - % $ - j E.5X6X6X6X6X6X6X6X6X6X6X6X5XQ.x $ O + @ @ O $ $ @ $ $ @ $ $ $ $ & $ $ $ $ - % $ - & - - - % % & * % * % % * % * - * * * * * * * * * : : * : * : : * > * * : : : : 3 : 3 3 * 3 3 3 3 3 3 > 3 3 3 4 3 3 3 3 4 3 4 3 4 3 3 3 4 E Q.5X6X6X6X6X6X6X6X6X6X6X6X5X_.[ b b b b n b n b M n n n n n n V 7X7X7X7X7X7X7X7X7X7X7X7X7X7X7X7X7X7X7X7X7X7X7X7X7X7X7X7X7X7X7X7X7X7X7X7X7X7X7X7X7X7X7X7X7X7X7X7X",
"7X7X7X7X7X7X7X7X7X7X7X7X7X7X7X7X7X7X7X7X7X7X7X7X7X7X7X7X7X7X7X7X7X7X7X7X7X7X7X7X7X7X7X7X7X7X7X7X7X@ @ $ $ + $ $ $ $ % $ $ % - % - < -.:X6X6X6X6X6X6X6X6X6X6X6X6X,Xp.6 X $ @ $ @ $ @ $ $ $ $ $ $ $ $ $ $ % % $ % % & $ $ % $ % % % % % * % * % * * - * = * * * * * * * : : * * : * > * > > : : : 3 , : : * 3 * 3 : 3 3 3 3 3 3 3 3 4 4 2 3 4 3 4 3 4 4 3 3 g c.1X6X6X6X6X6X6X6X6X6X6X6X6X<Xz.C b b b V b n b n b b V b n n M n 7X7X7X7X7X7X7X7X7X7X7X7X7X7X7X7X7X7X7X7X7X7X7X7X7X7X7X7X7X7X7X7X7X7X7X7X7X7X7X7X7X7X7X7X7X7X7X7X7X",
"7X7X7X7X7X7X7X7X7X7X7X7X7X7X7X7X7X7X7X7X7X7X7X7X7X7X7X7X7X7X7X7X7X7X7X7X7X7X7X7X7X7X7X7X7X7X7X7X7X7X$ $ $ $ $ $ $ + & % - % - % % - - h T.5X6X6X6X6X6X6X6X6X6X6X6X6X%X;.= O O $ @ $ @ $ @ $ $ $ $ $ % $ $ $ $ % % - $ - % - % % % % % % % * - * * * * % * : - * * * = * : * : * > * > : = : : : * 3 : : 3 3 3 3 : 3 3 3 3 3 3 3 3 2 3 3 4 2 4 4 4 3 2 7 ;.$X6X6X6X6X6X6X6X6X6X6X6X6X6X_.| b b b V b b b b n b V V b n n n V 7X7X7X7X7X7X7X7X7X7X7X7X7X7X7X7X7X7X7X7X7X7X7X7X7X7X7X7X7X7X7X7X7X7X7X7X7X7X7X7X7X7X7X7X7X7X7X7X7X7X",
"7X7X7X7X7X7X7X7X7X7X7X7X7X7X7X7X7X7X7X7X7X7X7X7X7X7X7X7X7X7X7X7X7X7X7X7X7X7X7X7X7X7X7X7X7X7X7X7X7X7X7X7X@ $ $ $ $ $ % $ $ % - $ % * - - 3 e.:X6X6X6X6X6X6X6X6X6X6X6X6X4XT.x $ @ $ @ $ $ $ $ $ $ $ $ $ $ $ % % $ $ - $ % % % % % & % % * % - * * * % * - * * * * * * * * * * : * * > : : * : : : : : : : 3 3 3 : > > 3 3 3 3 3 3 3 2 4 2 3 3 4 3 3 4 E !.4X6X6X6X6X6X6X6X6X6X6X6X6X1Xz.Z b b b n b b n b V b n b n n n n 7X7X7X7X7X7X7X7X7X7X7X7X7X7X7X7X7X7X7X7X7X7X7X7X7X7X7X7X7X7X7X7X7X7X7X7X7X7X7X7X7X7X7X7X7X7X7X7X7X7X7X7X",
"7X7X7X7X7X7X7X7X7X7X7X7X7X7X7X7X7X7X7X7X7X7X7X7X7X7X7X7X7X7X7X7X7X7X7X7X7X7X7X7X7X7X7X7X7X7X7X7X7X7X7X7X7X$ $ $ $ - $ % % % - % - - * - * - h Y.5X6X6X6X6X6X6X6X6X6X6X6X6X2XV.s @ @ @ $ @ $ $ $ $ $ % $ $ $ $ - $ $ & % % - % % * % % * % * * - - * * * * * - : : * * > : * * : * : * : : : : : 3 : : : : , : 3 > 2 3 3 3 3 3 3 4 2 2 4 3 4 2 3 g m.1X6X6X6X6X6X6X6X6X6X6X6X6X5X_.| v b n b b b b b b b b b n n n n n 7X7X7X7X7X7X7X7X7X7X7X7X7X7X7X7X7X7X7X7X7X7X7X7X7X7X7X7X7X7X7X7X7X7X7X7X7X7X7X7X7X7X7X7X7X7X7X7X7X7X7X7X7X",
"7X7X7X7X7X7X7X7X7X7X7X7X7X7X7X7X7X7X7X7X7X7X7X7X7X7X7X7X7X7X7X7X7X7X7X7X7X7X7X7X7X7X7X7X7X7X7X7X7X7X7X7X7X7X$ $ $ $ $ % % % - % % & * - % * - > ;.%X6X6X6X6X6X6X6X6X6X6X6X6X6X;Xr.1 + $ $ $ $ $ $ $ % $ % + % % $ $ $ - - % % % % % * % % % * * * * * % * * * * * * * * : * : - : : : = : : * : : : 3 : : 3 3 , > > 3 3 3 3 3 3 3 3 3 3 2 > i u.*X6X6X6X6X6X6X6X6X6X6X6X6X6X>Xf.C b b b b b b b V b b V V b b b V n 7X7X7X7X7X7X7X7X7X7X7X7X7X7X7X7X7X7X7X7X7X7X7X7X7X7X7X7X7X7X7X7X7X7X7X7X7X7X7X7X7X7X7X7X7X7X7X7X7X7X7X7X7X7X",
"7X7X7X7X7X7X7X7X7X7X7X7X7X7X7X7X7X7X7X7X7X7X7X7X7X7X7X7X7X7X7X7X7X7X7X7X7X7X7X7X7X7X7X7X7X7X7X7X7X7X7X7X7X7X7X7X- $ - $ $ % % % % % - * - * * * - s B.3X6X6X6X6X6X6X6X6X6X6X6X6X5XXX$.= O $ $ $ @ $ $ $ $ $ $ % % % - - % % % - % % % * - * % * % * * * * * * * * * : * * * : : : * : * : : : : , 3 : : : 3 3 3 > > 3 3 3 3 3 3 4 3 3 3 r ;. X5X6X6X6X6X6X6X6X6X6X6X6X6X5XI.) v v b b b n b b b b b b b b n n n 7X7X7X7X7X7X7X7X7X7X7X7X7X7X7X7X7X7X7X7X7X7X7X7X7X7X7X7X7X7X7X7X7X7X7X7X7X7X7X7X7X7X7X7X7X7X7X7X7X7X7X7X7X7X7X7X",
"7X7X7X7X7X7X7X7X7X7X7X7X7X7X7X7X7X7X7X7X7X7X7X7X7X7X7X7X7X7X7X7X7X7X7X7X7X7X7X7X7X7X7X7X7X7X7X7X7X7X7X7X7X7X7X7X7X- $ - % $ - % % % % - % % * * * - : ..[.6X6X6X6X6X6X6X6X6X6X6X6X6X5X'. .% @ $ $ $ $ $ $ $ $ % - $ $ - % - - - - * % * * - * * % = * * * * * * * > * : : * * : * * : : : : : : 3 * 3 : : 3 : * > 3 3 3 3 3 3 3 2 2 3 ..Q.4X6X6X6X6X6X6X6X6X6X6X6X6X5X$X5.n v v b b b b b b n b b b b b n b n 7X7X7X7X7X7X7X7X7X7X7X7X7X7X7X7X7X7X7X7X7X7X7X7X7X7X7X7X7X7X7X7X7X7X7X7X7X7X7X7X7X7X7X7X7X7X7X7X7X7X7X7X7X7X7X7X7X",
"7X7X7X7X7X7X7X7X7X7X7X7X7X7X7X7X7X7X7X7X7X7X7X7X7X7X7X7X7X7X7X7X7X7X7X7X7X7X7X7X7X7X7X7X7X7X7X7X7X7X7X7X7X7X7X7X7X7X- $ & % - % % * % * * * * * * * * - 7 u.:X6X6X6X6X6X6X6X6X6X6X6X6X6X3XE.x $ $ $ $ & % + % $ - $ & % - - - $ - & % % % - * - % % * % * * * * * * * - : * : : : : : : : > * : : : : : : 3 3 3 > 3 3 3 3 3 3 > 3 T K.3X6X6X6X6X6X6X6X6X6X6X6X6X6X1XS.! v b b b b v b b b b b b V b b V b n 7X7X7X7X7X7X7X7X7X7X7X7X7X7X7X7X7X7X7X7X7X7X7X7X7X7X7X7X7X7X7X7X7X7X7X7X7X7X7X7X7X7X7X7X7X7X7X7X7X7X7X7X7X7X7X7X7X7X",
"7X7X7X7X7X7X7X7X7X7X7X7X7X7X7X7X7X7X7X7X7X7X7X7X7X7X7X7X7X7X7X7X7X7X7X7X7X7X7X7X7X7X7X7X7X7X7X7X7X7X7X7X7X7X7X7X7X7X7X7X$ - - - - % % % * - * * * * * : * * h K.4X6X6X6X6X6X6X6X6X6X6X6X6X6X1XV.j $ + % $ $ % % - - $ $ - - - - - % % = - * - * * * * * * * * * * * * * > * > * * > > * : > > : 3 3 * : > > > 3 > > 3 3 3 : 3 h m.1X6X6X6X6X6X6X6X6X6X6X6X6X6X4X^.| v v v b v b b v n b b b n b b b n b 7X7X7X7X7X7X7X7X7X7X7X7X7X7X7X7X7X7X7X7X7X7X7X7X7X7X7X7X7X7X7X7X7X7X7X7X7X7X7X7X7X7X7X7X7X7X7X7X7X7X7X7X7X7X7X7X7X7X7X7X",
"7X7X7X7X7X7X7X7X7X7X7X7X7X7X7X7X7X7X7X7X7X7X7X7X7X7X7X7X7X7X7X7X7X7X7X7X7X7X7X7X7X7X7X7X7X7X7X7X7X7X7X7X7X7X7X7X7X7X7X7X7X- $ - * % % * - * - * * * * * : * * 3 ..[.5X6X6X6X6X6X6X6X6X6X6X6X6X6X,Xj.s $ + % $ % $ $ & % - - $ & & % % * - - - * % * * * * * * * * : * : * * * : > * : > * = > : * 3 3 : > 2 3 > > 3 3 > : g c.>X6X6X6X6X6X6X6X6X6X6X6X6X6X6X$X7.n v b m b b b b b b b b b b b b b b b 7X7X7X7X7X7X7X7X7X7X7X7X7X7X7X7X7X7X7X7X7X7X7X7X7X7X7X7X7X7X7X7X7X7X7X7X7X7X7X7X7X7X7X7X7X7X7X7X7X7X7X7X7X7X7X7X7X7X7X7X7X",
"7X7X7X7X7X7X7X7X7X7X7X7X7X7X7X7X7X7X7X7X7X7X7X7X7X7X7X7X7X7X7X7X7X7X7X7X7X7X7X7X7X7X7X7X7X7X7X7X7X7X7X7X7X7X7X7X7X7X7X7X7X7X7X- % % - * * * - * * * * * * : : * * 7 h.*X6X6X6X6X6X6X6X6X6X6X6X6X6X6X;Xi.p $ + $ % % $ $ % - % % - - % % % * * * = - * = * * * * * * * = > * * > * > : * : : * > : : : : > 3 > > : : > g y.*X6X6X6X6X6X6X6X6X6X6X6X6X6X6X>Xz.U w b v v v v b b b b b b b b b b b C 7X7X7X7X7X7X7X7X7X7X7X7X7X7X7X7X7X7X7X7X7X7X7X7X7X7X7X7X7X7X7X7X7X7X7X7X7X7X7X7X7X7X7X7X7X7X7X7X7X7X7X7X7X7X7X7X7X7X7X7X7X7X7X",
"7X7X7X7X7X7X7X7X7X7X7X7X7X7X7X7X7X7X7X7X7X7X7X7X7X7X7X7X7X7X7X7X7X7X7X7X7X7X7X7X7X7X7X7X7X7X7X7X7X7X7X7X7X7X7X7X7X7X7X7X7X7X7X7X- % * - * - * * * * * : * : * * : : * j M.1X6X6X6X6X6X6X6X6X6X6X6X6X6X6X;Xi.s % $ - % % % - % % * - % * & - * - * * * % * * - * * * * : * > * * > * : * : : : : : 3 > : : 2 > : : u y.&X6X6X6X6X6X6X6X6X6X6X6X6X6X6X3XP./ v v b v v b b v b v b b b b b b b n b 7X7X7X7X7X7X7X7X7X7X7X7X7X7X7X7X7X7X7X7X7X7X7X7X7X7X7X7X7X7X7X7X7X7X7X7X7X7X7X7X7X7X7X7X7X7X7X7X7X7X7X7X7X7X7X7X7X7X7X7X7X7X7X7X",
"7X7X7X7X7X7X7X7X7X7X7X7X7X7X7X7X7X7X7X7X7X7X7X7X7X7X7X7X7X7X7X7X7X7X7X7X7X7X7X7X7X7X7X7X7X7X7X7X7X7X7X7X7X7X7X7X7X7X7X7X7X7X7X7X7X7X* - * * * - * * * * : * : : : : : : 3 W R.3X6X6X6X6X6X6X6X6X6X6X6X6X6X6X*Xi.s $ + % % % - - % % * % % - - * % * * * * * - * * : * : * * : * : * : : * : : : : : : > > > > f t.%X6X6X6X6X6X6X6X6X6X6X6X6X6X6X4X_.,.m v v v b v v v b b b b b b b b b b b 7X7X7X7X7X7X7X7X7X7X7X7X7X7X7X7X7X7X7X7X7X7X7X7X7X7X7X7X7X7X7X7X7X7X7X7X7X7X7X7X7X7X7X7X7X7X7X7X7X7X7X7X7X7X7X7X7X7X7X7X7X7X7X7X7X7X",
"7X7X7X7X7X7X7X7X7X7X7X7X7X7X7X7X7X7X7X7X7X7X7X7X7X7X7X7X7X7X7X7X7X7X7X7X7X7X7X7X7X7X7X7X7X7X7X7X7X7X7X7X7X7X7X7X7X7X7X7X7X7X7X7X7X7X7X* * - * * * * * * * * * : : * * : : * 4 +.[.5X6X6X6X6X6X6X6X6X6X6X6X6X6X6X*Xy.s % $ $ - - & % % * * * * * * - * - * : * * * * * * : * * : : * : : * : : : : : : : > f y.$X6X6X6X6X6X6X6X6X6X6X6X6X6X6X6X+X7.M w w v v b v v b b v w b v b b b b b b 7X7X7X7X7X7X7X7X7X7X7X7X7X7X7X7X7X7X7X7X7X7X7X7X7X7X7X7X7X7X7X7X7X7X7X7X7X7X7X7X7X7X7X7X7X7X7X7X7X7X7X7X7X7X7X7X7X7X7X7X7X7X7X7X7X7X7X",
"7X7X7X7X7X7X7X7X7X7X7X7X7X7X7X7X7X7X7X7X7X7X7X7X7X7X7X7X7X7X7X7X7X7X7X7X7X7X7X7X7X7X7X7X7X7X7X7X7X7X7X7X7X7X7X7X7X7X7X7X7X7X7X7X7X7X7X7X7X* * * * * * * * : * : : * 3 : : 3 : * 7 -.$X6X6X6X6X6X6X6X6X6X6X6X6X6X6X6X;Xp.j % $ - % % % % - % - * * % * * * * * * * * * : : = > * : : * : : : : : : > : j y.%X6X6X6X6X6X6X6X6X6X6X6X6X6X6X6X=Xd.Z w v v v v v M w m v b b b b b b b b b 7X7X7X7X7X7X7X7X7X7X7X7X7X7X7X7X7X7X7X7X7X7X7X7X7X7X7X7X7X7X7X7X7X7X7X7X7X7X7X7X7X7X7X7X7X7X7X7X7X7X7X7X7X7X7X7X7X7X7X7X7X7X7X7X7X7X7X7X7X",
"7X7X7X7X7X7X7X7X7X7X7X7X7X7X7X7X7X7X7X7X7X7X7X7X7X7X7X7X7X7X7X7X7X7X7X7X7X7X7X7X7X7X7X7X7X7X7X7X7X7X7X7X7X7X7X7X7X7X7X7X7X7X7X7X7X7X7X7X7X7X7X* * * * : * : * : * 3 * 3 : : : 3 : : i t.%X6X6X6X6X6X6X6X6X6X6X6X6X6X6X6X,Xv.h * $ % * % % * - * * * * * * - * * * : * = : * * > * : : : : : * : : I p.:X6X6X6X6X6X6X6X6X6X6X6X6X6X6X6X>Xb.Y w w v v v v v b w b v b v M v v b b b 7X7X7X7X7X7X7X7X7X7X7X7X7X7X7X7X7X7X7X7X7X7X7X7X7X7X7X7X7X7X7X7X7X7X7X7X7X7X7X7X7X7X7X7X7X7X7X7X7X7X7X7X7X7X7X7X7X7X7X7X7X7X7X7X7X7X7X7X7X7X7X",
"7X7X7X7X7X7X7X7X7X7X7X7X7X7X7X7X7X7X7X7X7X7X7X7X7X7X7X7X7X7X7X7X7X7X7X7X7X7X7X7X7X7X7X7X7X7X7X7X7X7X7X7X7X7X7X7X7X7X7X7X7X7X7X7X7X7X7X7X7X7X7X7X* * * : * : * : * 3 * : 3 : 3 3 > 3 > > g g.:X6X6X6X6X6X6X6X6X6X6X6X6X6X6X6X,XB.W = - - % * % - % * * % * * * * * : * * * * : * : : * : : * 3 W B.,X6X6X6X6X6X6X6X6X6X6X6X6X6X6X6X,XF./ w w w m v v b w b M b v v v b v b b b b 7X7X7X7X7X7X7X7X7X7X7X7X7X7X7X7X7X7X7X7X7X7X7X7X7X7X7X7X7X7X7X7X7X7X7X7X7X7X7X7X7X7X7X7X7X7X7X7X7X7X7X7X7X7X7X7X7X7X7X7X7X7X7X7X7X7X7X7X7X7X7X7X",
"7X7X7X7X7X7X7X7X7X7X7X7X7X7X7X7X7X7X7X7X7X7X7X7X7X7X7X7X7X7X7X7X7X7X7X7X7X7X7X7X7X7X7X7X7X7X7X7X7X7X7X7X7X7X7X7X7X7X7X7X7X7X7X7X7X7X7X7X7X7X7X7X7X7X* * * * * : : * 2 : : : : : 3 3 3 > > > g S.>X6X6X6X6X6X6X6X6X6X6X6X6X6X6X6X2XY.o.> - - * * * * * = * * * * * = * > : * * : * : : * 3 ..E.1X6X6X6X6X6X6X6X6X6X6X6X6X6X6X6X1XP.[ y w v b w v v v w w v v w b v b v M b v 7X7X7X7X7X7X7X7X7X7X7X7X7X7X7X7X7X7X7X7X7X7X7X7X7X7X7X7X7X7X7X7X7X7X7X7X7X7X7X7X7X7X7X7X7X7X7X7X7X7X7X7X7X7X7X7X7X7X7X7X7X7X7X7X7X7X7X7X7X7X7X7X7X7X",
"7X7X7X7X7X7X7X7X7X7X7X7X7X7X7X7X7X7X7X7X7X7X7X7X7X7X7X7X7X7X7X7X7X7X7X7X7X7X7X7X7X7X7X7X7X7X7X7X7X7X7X7X7X7X7X7X7X7X7X7X7X7X7X7X7X7X7X7X7X7X7X7X7X7X7X7X* : * : * 3 3 : * 3 3 3 3 > 3 > 3 3 > 4 W D.1X6X6X6X6X6X6X6X6X6X6X6X6X6X6X6X4X].O.8 - - % - * * * * * * * * * * * : * : * : 7 =.}.4X6X6X6X6X6X6X6X6X6X6X6X6X6X6X6X2XI.| v w w v v w w w w v v b v b v v M b v b 7X7X7X7X7X7X7X7X7X7X7X7X7X7X7X7X7X7X7X7X7X7X7X7X7X7X7X7X7X7X7X7X7X7X7X7X7X7X7X7X7X7X7X7X7X7X7X7X7X7X7X7X7X7X7X7X7X7X7X7X7X7X7X7X7X7X7X7X7X7X7X7X7X7X7X7X",
"7X7X7X7X7X7X7X7X7X7X7X7X7X7X7X7X7X7X7X7X7X7X7X7X7X7X7X7X7X7X7X7X7X7X7X7X7X7X7X7X7X7X7X7X7X7X7X7X7X7X7X7X7X7X7X7X7X7X7X7X7X7X7X7X7X7X7X7X7X7X7X7X7X7X7X7X7X: : * 3 * * : 3 : : : > 3 3 3 3 3 > 4 > 3 T K.1X6X6X6X6X6X6X6X6X6X6X6X6X6X6X6X5X$Xr.f = - * - * * * * * : * * : : - * f u.XX5X6X6X6X6X6X6X6X6X6X6X6X6X6X6X6X2XR.@.y w w v w w v v b w v v b w v v v M v v v 7X7X7X7X7X7X7X7X7X7X7X7X7X7X7X7X7X7X7X7X7X7X7X7X7X7X7X7X7X7X7X7X7X7X7X7X7X7X7X7X7X7X7X7X7X7X7X7X7X7X7X7X7X7X7X7X7X7X7X7X7X7X7X7X7X7X7X7X7X7X7X7X7X7X7X7X7X",
"7X7X7X7X7X7X7X7X7X7X7X7X7X7X7X7X7X7X7X7X7X7X7X7X7X7X7X7X7X7X7X7X7X7X7X7X7X7X7X7X7X7X7X7X7X7X7X7X7X7X7X7X7X7X7X7X7X7X7X7X7X7X7X7X7X7X7X7X7X7X7X7X7X7X7X7X7X7X7X> * * 3 * 3 3 : 3 3 3 3 3 3 3 4 > 3 3 > 4 R K.<X6X6X6X6X6X6X6X6X6X6X6X6X6X6X6X6X;XV.T > - * * * * * : * * - > T M.;X6X6X6X6X6X6X6X6X6X6X6X6X6X6X6X6X3X~.@.y w v w w v w v v m v v w m v v v v m b v 7X7X7X7X7X7X7X7X7X7X7X7X7X7X7X7X7X7X7X7X7X7X7X7X7X7X7X7X7X7X7X7X7X7X7X7X7X7X7X7X7X7X7X7X7X7X7X7X7X7X7X7X7X7X7X7X7X7X7X7X7X7X7X7X7X7X7X7X7X7X7X7X7X7X7X7X7X7X7X",
"7X7X7X7X7X7X7X7X7X7X7X7X7X7X7X7X7X7X7X7X7X7X7X7X7X7X7X7X7X7X7X7X7X7X7X7X7X7X7X7X7X7X7X7X7X7X7X7X7X7X7X7X7X7X7X7X7X7X7X7X7X7X7X7X7X7X7X7X7X7X7X7X7X7X7X7X7X7X7X7X7X3 * 3 * : : 3 * 3 3 3 > 4 > 4 3 4 4 3 3 5 R K.1X6X6X6X6X6X6X6X6X6X6X6X6X6X6X6X6X2XT.$.8 * - - - - * 8 $.T.3X6X6X6X6X6X6X6X6X6X6X6X6X6X6X6X6X1XR.| w w w y v w v w w w w v w m b b w v v v v 7X7X7X7X7X7X7X7X7X7X7X7X7X7X7X7X7X7X7X7X7X7X7X7X7X7X7X7X7X7X7X7X7X7X7X7X7X7X7X7X7X7X7X7X7X7X7X7X7X7X7X7X7X7X7X7X7X7X7X7X7X7X7X7X7X7X7X7X7X7X7X7X7X7X7X7X7X7X7X7X7X",
"7X7X7X7X7X7X7X7X7X7X7X7X7X7X7X7X7X7X7X7X7X7X7X7X7X7X7X7X7X7X7X7X7X7X7X7X7X7X7X7X7X7X7X7X7X7X7X7X7X7X7X7X7X7X7X7X7X7X7X7X7X7X7X7X7X7X7X7X7X7X7X7X7X7X7X7X7X7X7X7X7X7X7X3 3 3 : 2 3 > 3 : 4 > > 4 3 4 4 4 4 3 2 4 R D.>X6X6X6X6X6X6X6X6X6X6X6X6X6X6X6X6X4X$Xy.z p 7 z y.%X5X6X6X6X6X6X6X6X6X6X6X6X6X6X6X6X6X1XU.} y w w w w w w w w v w v v w v v w v v v b 7X7X7X7X7X7X7X7X7X7X7X7X7X7X7X7X7X7X7X7X7X7X7X7X7X7X7X7X7X7X7X7X7X7X7X7X7X7X7X7X7X7X7X7X7X7X7X7X7X7X7X7X7X7X7X7X7X7X7X7X7X7X7X7X7X7X7X7X7X7X7X7X7X7X7X7X7X7X7X7X7X7X7X",
"7X7X7X7X7X7X7X7X7X7X7X7X7X7X7X7X7X7X7X7X7X7X7X7X7X7X7X7X7X7X7X7X7X7X7X7X7X7X7X7X7X7X7X7X7X7X7X7X7X7X7X7X7X7X7X7X7X7X7X7X7X7X7X7X7X7X7X7X7X7X7X7X7X7X7X7X7X7X7X7X7X7X7X7X* 3 : : : 3 3 3 > 4 > 3 4 3 3 4 4 4 5 3 > 4 T B.;X6X6X6X6X6X6X6X6X6X6X6X6X6X6X6X6X6X1X*X*X1X6X6X6X6X6X6X6X6X6X6X6X6X6X6X6X6X6X>XK.' v q w y w w w v w w w M w w v v w v w v v m 7X7X7X7X7X7X7X7X7X7X7X7X7X7X7X7X7X7X7X7X7X7X7X7X7X7X7X7X7X7X7X7X7X7X7X7X7X7X7X7X7X7X7X7X7X7X7X7X7X7X7X7X7X7X7X7X7X7X7X7X7X7X7X7X7X7X7X7X7X7X7X7X7X7X7X7X7X7X7X7X7X7X7X7X",
"7X7X7X7X7X7X7X7X7X7X7X7X7X7X7X7X7X7X7X7X7X7X7X7X7X7X7X7X7X7X7X7X7X7X7X7X7X7X7X7X7X7X7X7X7X7X7X7X7X7X7X7X7X7X7X7X7X7X7X7X7X7X7X7X7X7X7X7X7X7X7X7X7X7X7X7X7X7X7X7X7X7X7X7X7X7X3 3 3 3 3 3 3 3 > 4 4 > 4 4 3 4 4 4 4 4 4 9 L g.&X6X6X6X6X6X6X6X6X6X6X6X6X6X6X6X6X6X6X6X6X6X6X6X6X6X6X6X6X6X6X6X6X6X6X:Xn.` y w w w w w w w v w w v w v w v v w w v b m 7X7X7X7X7X7X7X7X7X7X7X7X7X7X7X7X7X7X7X7X7X7X7X7X7X7X7X7X7X7X7X7X7X7X7X7X7X7X7X7X7X7X7X7X7X7X7X7X7X7X7X7X7X7X7X7X7X7X7X7X7X7X7X7X7X7X7X7X7X7X7X7X7X7X7X7X7X7X7X7X7X7X7X7X7X7X",
"7X7X7X7X7X7X7X7X7X7X7X7X7X7X7X7X7X7X7X7X7X7X7X7X7X7X7X7X7X7X7X7X7X7X7X7X7X7X7X7X7X7X7X7X7X7X7X7X7X7X7X7X7X7X7X7X7X7X7X7X7X7X7X7X7X7X7X7X7X7X7X7X7X7X7X7X7X7X7X7X7X7X7X7X7X7X7X7X3 > 3 > 3 3 3 4 4 4 > 4 4 4 4 4 4 5 4 4 5 5 g t.@X5X6X6X6X6X6X6X6X6X6X6X6X6X6X6X6X6X6X6X6X6X6X6X6X6X6X6X6X6X5X$Xd.Y e q y e q w w w y w w w w w v w w w v M w v 7X7X7X7X7X7X7X7X7X7X7X7X7X7X7X7X7X7X7X7X7X7X7X7X7X7X7X7X7X7X7X7X7X7X7X7X7X7X7X7X7X7X7X7X7X7X7X7X7X7X7X7X7X7X7X7X7X7X7X7X7X7X7X7X7X7X7X7X7X7X7X7X7X7X7X7X7X7X7X7X7X7X7X7X7X7X7X7X",
"7X7X7X7X7X7X7X7X7X7X7X7X7X7X7X7X7X7X7X7X7X7X7X7X7X7X7X7X7X7X7X7X7X7X7X7X7X7X7X7X7X7X7X7X7X7X7X7X7X7X7X7X7X7X7X7X7X7X7X7X7X7X7X7X7X7X7X7X7X7X7X7X7X7X7X7X7X7X7X7X7X7X7X7X7X7X7X7X7X7X3 3 3 3 3 3 3 4 > 4 > 4 4 4 4 4 4 9 5 4 4 4 f 6.{.4X6X6X6X6X6X6X6X6X6X6X6X6X6X6X6X6X6X6X6X6X6X6X6X6X4X X8.L q q y w w w q w w y w w w v w m m v w w w v 7X7X7X7X7X7X7X7X7X7X7X7X7X7X7X7X7X7X7X7X7X7X7X7X7X7X7X7X7X7X7X7X7X7X7X7X7X7X7X7X7X7X7X7X7X7X7X7X7X7X7X7X7X7X7X7X7X7X7X7X7X7X7X7X7X7X7X7X7X7X7X7X7X7X7X7X7X7X7X7X7X7X7X7X7X7X7X7X7X7X",
"7X7X7X7X7X7X7X7X7X7X7X7X7X7X7X7X7X7X7X7X7X7X7X7X7X7X7X7X7X7X7X7X7X7X7X7X7X7X7X7X7X7X7X7X7X7X7X7X7X7X7X7X7X7X7X7X7X7X7X7X7X7X7X7X7X7X7X7X7X7X7X7X7X7X7X7X7X7X7X7X7X7X7X7X7X7X7X7X7X7X7X7X3 3 3 4 4 > 4 4 4 4 9 > 4 4 4 4 5 4 5 5 9 4 i #.R.1X6X6X6X6X6X6X6X6X6X6X6X6X6X6X6X6X6X6X6X6X1X/.<.N r t w w y q w y y w w w w w w w w w w v w v 7X7X7X7X7X7X7X7X7X7X7X7X7X7X7X7X7X7X7X7X7X7X7X7X7X7X7X7X7X7X7X7X7X7X7X7X7X7X7X7X7X7X7X7X7X7X7X7X7X7X7X7X7X7X7X7X7X7X7X7X7X7X7X7X7X7X7X7X7X7X7X7X7X7X7X7X7X7X7X7X7X7X7X7X7X7X7X7X7X7X7X7X",
"7X7X7X7X7X7X7X7X7X7X7X7X7X7X7X7X7X7X7X7X7X7X7X7X7X7X7X7X7X7X7X7X7X7X7X7X7X7X7X7X7X7X7X7X7X7X7X7X7X7X7X7X7X7X7X7X7X7X7X7X7X7X7X7X7X7X7X7X7X7X7X7X7X7X7X7X7X7X7X7X7X7X7X7X7X7X7X7X7X7X7X7X7X7X3 4 4 > 4 4 > 9 4 > 9 9 4 4 5 4 5 5 5 0 > > t ] D.:X5X6X6X6X6X6X6X6X6X6X6X6X6X6X6X6X:XK.} y q t t y t y y w y y v w w w w y v w v y w v 7X7X7X7X7X7X7X7X7X7X7X7X7X7X7X7X7X7X7X7X7X7X7X7X7X7X7X7X7X7X7X7X7X7X7X7X7X7X7X7X7X7X7X7X7X7X7X7X7X7X7X7X7X7X7X7X7X7X7X7X7X7X7X7X7X7X7X7X7X7X7X7X7X7X7X7X7X7X7X7X7X7X7X7X7X7X7X7X7X7X7X7X7X7X",
"7X7X7X7X7X7X7X7X7X7X7X7X7X7X7X7X7X7X7X7X7X7X7X7X7X7X7X7X7X7X7X7X7X7X7X7X7X7X7X7X7X7X7X7X7X7X7X7X7X7X7X7X7X7X7X7X7X7X7X7X7X7X7X7X7X7X7X7X7X7X7X7X7X7X7X7X7X7X7X7X7X7X7X7X7X7X7X7X7X7X7X7X7X7X7X7X> 4 4 4 4 4 4 4 4 4 4 9 9 4 5 5 5 5 r 0 0 9 r Y y.XX3X6X6X6X6X6X6X6X6X6X6X5X@Xd.Y t t y y t y y y e w w y e y w y w w w w w w v 7X7X7X7X7X7X7X7X7X7X7X7X7X7X7X7X7X7X7X7X7X7X7X7X7X7X7X7X7X7X7X7X7X7X7X7X7X7X7X7X7X7X7X7X7X7X7X7X7X7X7X7X7X7X7X7X7X7X7X7X7X7X7X7X7X7X7X7X7X7X7X7X7X7X7X7X7X7X7X7X7X7X7X7X7X7X7X7X7X7X7X7X7X7X7X7X",
"7X7X7X7X7X7X7X7X7X7X7X7X7X7X7X7X7X7X7X7X7X7X7X7X7X7X7X7X7X7X7X7X7X7X7X7X7X7X7X7X7X7X7X7X7X7X7X7X7X7X7X7X7X7X7X7X7X7X7X7X7X7X7X7X7X7X7X7X7X7X7X7X7X7X7X7X7X7X7X7X7X7X7X7X7X7X7X7X7X7X7X7X7X7X7X7X7X7X> 4 3 4 4 4 4 9 4 4 0 > 5 5 5 0 5 5 0 t r > > m #.R.2X5X5X5X6X6X6X1XR.6.N 0 q t t t y t t y y y q w w y q w w w w w v w 7X7X7X7X7X7X7X7X7X7X7X7X7X7X7X7X7X7X7X7X7X7X7X7X7X7X7X7X7X7X7X7X7X7X7X7X7X7X7X7X7X7X7X7X7X7X7X7X7X7X7X7X7X7X7X7X7X7X7X7X7X7X7X7X7X7X7X7X7X7X7X7X7X7X7X7X7X7X7X7X7X7X7X7X7X7X7X7X7X7X7X7X7X7X7X7X7X7X",
"7X7X7X7X7X7X7X7X7X7X7X7X7X7X7X7X7X7X7X7X7X7X7X7X7X7X7X7X7X7X7X7X7X7X7X7X7X7X7X7X7X7X7X7X7X7X7X7X7X7X7X7X7X7X7X7X7X7X7X7X7X7X7X7X7X7X7X7X7X7X7X7X7X7X7X7X7X7X7X7X7X7X7X7X7X7X7X7X7X7X7X7X7X7X7X7X7X7X7X7X4 4 4 4 4 4 4 9 5 5 5 4 5 5 0 0 0 > 0 0 t r 0 u R b.XX>X>X Xb.] t 0 t q t r t t y t y y y e y q w w y y w w y w 7X7X7X7X7X7X7X7X7X7X7X7X7X7X7X7X7X7X7X7X7X7X7X7X7X7X7X7X7X7X7X7X7X7X7X7X7X7X7X7X7X7X7X7X7X7X7X7X7X7X7X7X7X7X7X7X7X7X7X7X7X7X7X7X7X7X7X7X7X7X7X7X7X7X7X7X7X7X7X7X7X7X7X7X7X7X7X7X7X7X7X7X7X7X7X7X7X7X7X7X",
"7X7X7X7X7X7X7X7X7X7X7X7X7X7X7X7X7X7X7X7X7X7X7X7X7X7X7X7X7X7X7X7X7X7X7X7X7X7X7X7X7X7X7X7X7X7X7X7X7X7X7X7X7X7X7X7X7X7X7X7X7X7X7X7X7X7X7X7X7X7X7X7X7X7X7X7X7X7X7X7X7X7X7X7X7X7X7X7X7X7X7X7X7X7X7X7X7X7X7X7X7X7X4 4 > 0 > 5 > > r 0 5 0 5 0 r 9 0 0 r r r r > m L P L u q 0 r t r t t t t t y t y e y y e y y y w w w y 7X7X7X7X7X7X7X7X7X7X7X7X7X7X7X7X7X7X7X7X7X7X7X7X7X7X7X7X7X7X7X7X7X7X7X7X7X7X7X7X7X7X7X7X7X7X7X7X7X7X7X7X7X7X7X7X7X7X7X7X7X7X7X7X7X7X7X7X7X7X7X7X7X7X7X7X7X7X7X7X7X7X7X7X7X7X7X7X7X7X7X7X7X7X7X7X7X7X7X7X7X7X",
"7X7X7X7X7X7X7X7X7X7X7X7X7X7X7X7X7X7X7X7X7X7X7X7X7X7X7X7X7X7X7X7X7X7X7X7X7X7X7X7X7X7X7X7X7X7X7X7X7X7X7X7X7X7X7X7X7X7X7X7X7X7X7X7X7X7X7X7X7X7X7X7X7X7X7X7X7X7X7X7X7X7X7X7X7X7X7X7X7X7X7X7X7X7X7X7X7X7X7X7X7X7X7X7X0 > 0 5 0 0 r > 5 5 5 0 5 0 0 0 0 0 r i m > t > q t t t t t t t t t t t y t y y y y w w w w w w 7X7X7X7X7X7X7X7X7X7X7X7X7X7X7X7X7X7X7X7X7X7X7X7X7X7X7X7X7X7X7X7X7X7X7X7X7X7X7X7X7X7X7X7X7X7X7X7X7X7X7X7X7X7X7X7X7X7X7X7X7X7X7X7X7X7X7X7X7X7X7X7X7X7X7X7X7X7X7X7X7X7X7X7X7X7X7X7X7X7X7X7X7X7X7X7X7X7X7X7X7X7X7X7X",
"7X7X7X7X7X7X7X7X7X7X7X7X7X7X7X7X7X7X7X7X7X7X7X7X7X7X7X7X7X7X7X7X7X7X7X7X7X7X7X7X7X7X7X7X7X7X7X7X7X7X7X7X7X7X7X7X7X7X7X7X7X7X7X7X7X7X7X7X7X7X7X7X7X7X7X7X7X7X7X7X7X7X7X7X7X7X7X7X7X7X7X7X7X7X7X7X7X7X7X7X7X7X7X7X7X7X0 5 0 r 5 5 5 0 5 5 5 5 7 9 0 r 0 > m r r r 0 t t t t r t t t t t t t t y y y w w y y w 7X7X7X7X7X7X7X7X7X7X7X7X7X7X7X7X7X7X7X7X7X7X7X7X7X7X7X7X7X7X7X7X7X7X7X7X7X7X7X7X7X7X7X7X7X7X7X7X7X7X7X7X7X7X7X7X7X7X7X7X7X7X7X7X7X7X7X7X7X7X7X7X7X7X7X7X7X7X7X7X7X7X7X7X7X7X7X7X7X7X7X7X7X7X7X7X7X7X7X7X7X7X7X7X7X7X",
"7X7X7X7X7X7X7X7X7X7X7X7X7X7X7X7X7X7X7X7X7X7X7X7X7X7X7X7X7X7X7X7X7X7X7X7X7X7X7X7X7X7X7X7X7X7X7X7X7X7X7X7X7X7X7X7X7X7X7X7X7X7X7X7X7X7X7X7X7X7X7X7X7X7X7X7X7X7X7X7X7X7X7X7X7X7X7X7X7X7X7X7X7X7X7X7X7X7X7X7X7X7X7X7X7X7X7X7X> > r > 5 5 5 5 5 r 5 r 0 0 r r > m r r t t 0 t t t t y t t t t y t y t y y w e 7X7X7X7X7X7X7X7X7X7X7X7X7X7X7X7X7X7X7X7X7X7X7X7X7X7X7X7X7X7X7X7X7X7X7X7X7X7X7X7X7X7X7X7X7X7X7X7X7X7X7X7X7X7X7X7X7X7X7X7X7X7X7X7X7X7X7X7X7X7X7X7X7X7X7X7X7X7X7X7X7X7X7X7X7X7X7X7X7X7X7X7X7X7X7X7X7X7X7X7X7X7X7X7X7X7X7X7X",
"7X7X7X7X7X7X7X7X7X7X7X7X7X7X7X7X7X7X7X7X7X7X7X7X7X7X7X7X7X7X7X7X7X7X7X7X7X7X7X7X7X7X7X7X7X7X7X7X7X7X7X7X7X7X7X7X7X7X7X7X7X7X7X7X7X7X7X7X7X7X7X7X7X7X7X7X7X7X7X7X7X7X7X7X7X7X7X7X7X7X7X7X7X7X7X7X7X7X7X7X7X7X7X7X7X7X7X7X7X7X7X0 7 9 9 0 0 5 r 5 0 0 0 0 r 5 5 r t 0 r t t t r t t t t y y t y y y 7X7X7X7X7X7X7X7X7X7X7X7X7X7X7X7X7X7X7X7X7X7X7X7X7X7X7X7X7X7X7X7X7X7X7X7X7X7X7X7X7X7X7X7X7X7X7X7X7X7X7X7X7X7X7X7X7X7X7X7X7X7X7X7X7X7X7X7X7X7X7X7X7X7X7X7X7X7X7X7X7X7X7X7X7X7X7X7X7X7X7X7X7X7X7X7X7X7X7X7X7X7X7X7X7X7X7X7X7X7X7X",
"7X7X7X7X7X7X7X7X7X7X7X7X7X7X7X7X7X7X7X7X7X7X7X7X7X7X7X7X7X7X7X7X7X7X7X7X7X7X7X7X7X7X7X7X7X7X7X7X7X7X7X7X7X7X7X7X7X7X7X7X7X7X7X7X7X7X7X7X7X7X7X7X7X7X7X7X7X7X7X7X7X7X7X7X7X7X7X7X7X7X7X7X7X7X7X7X7X7X7X7X7X7X7X7X7X7X7X7X7X7X7X7X7X5 9 0 5 r 9 5 0 0 r 0 r r r r r r r t r t t t t t t t y t y 7X7X7X7X7X7X7X7X7X7X7X7X7X7X7X7X7X7X7X7X7X7X7X7X7X7X7X7X7X7X7X7X7X7X7X7X7X7X7X7X7X7X7X7X7X7X7X7X7X7X7X7X7X7X7X7X7X7X7X7X7X7X7X7X7X7X7X7X7X7X7X7X7X7X7X7X7X7X7X7X7X7X7X7X7X7X7X7X7X7X7X7X7X7X7X7X7X7X7X7X7X7X7X7X7X7X7X7X7X7X7X7X7X",
"7X7X7X7X7X7X7X7X7X7X7X7X7X7X7X7X7X7X7X7X7X7X7X7X7X7X7X7X7X7X7X7X7X7X7X7X7X7X7X7X7X7X7X7X7X7X7X7X7X7X7X7X7X7X7X7X7X7X7X7X7X7X7X7X7X7X7X7X7X7X7X7X7X7X7X7X7X7X7X7X7X7X7X7X7X7X7X7X7X7X7X7X7X7X7X7X7X7X7X7X7X7X7X7X7X7X7X7X7X7X7X7X7X7X7Xr 5 r 5 r 0 0 0 r r 0 r r r r r t t t t t t t t y y 7X7X7X7X7X7X7X7X7X7X7X7X7X7X7X7X7X7X7X7X7X7X7X7X7X7X7X7X7X7X7X7X7X7X7X7X7X7X7X7X7X7X7X7X7X7X7X7X7X7X7X7X7X7X7X7X7X7X7X7X7X7X7X7X7X7X7X7X7X7X7X7X7X7X7X7X7X7X7X7X7X7X7X7X7X7X7X7X7X7X7X7X7X7X7X7X7X7X7X7X7X7X7X7X7X7X7X7X7X7X7X7X7X7X7X",
"7X7X7X7X7X7X7X7X7X7X7X7X7X7X7X7X7X7X7X7X7X7X7X7X7X7X7X7X7X7X7X7X7X7X7X7X7X7X7X7X7X7X7X7X7X7X7X7X7X7X7X7X7X7X7X7X7X7X7X7X7X7X7X7X7X7X7X7X7X7X7X7X7X7X7X7X7X7X7X7X7X7X7X7X7X7X7X7X7X7X7X7X7X7X7X7X7X7X7X7X7X7X7X7X7X7X7X7X7X7X7X7X7X7X7X7X7X7Xr 5 0 i 0 0 r 0 r r r r r t r r t t t t y 7X7X7X7X7X7X7X7X7X7X7X7X7X7X7X7X7X7X7X7X7X7X7X7X7X7X7X7X7X7X7X7X7X7X7X7X7X7X7X7X7X7X7X7X7X7X7X7X7X7X7X7X7X7X7X7X7X7X7X7X7X7X7X7X7X7X7X7X7X7X7X7X7X7X7X7X7X7X7X7X7X7X7X7X7X7X7X7X7X7X7X7X7X7X7X7X7X7X7X7X7X7X7X7X7X7X7X7X7X7X7X7X7X7X7X7X7X",
"7X7X7X7X7X7X7X7X7X7X7X7X7X7X7X7X7X7X7X7X7X7X7X7X7X7X7X7X7X7X7X7X7X7X7X7X7X7X7X7X7X7X7X7X7X7X7X7X7X7X7X7X7X7X7X7X7X7X7X7X7X7X7X7X7X7X7X7X7X7X7X7X7X7X7X7X7X7X7X7X7X7X7X7X7X7X7X7X7X7X7X7X7X7X7X7X7X7X7X7X7X7X7X7X7X7X7X7X7X7X7X7X7X7X7X7X7X7X7X7X0 r r 0 r r r r r t t t t t r t 7X7X7X7X7X7X7X7X7X7X7X7X7X7X7X7X7X7X7X7X7X7X7X7X7X7X7X7X7X7X7X7X7X7X7X7X7X7X7X7X7X7X7X7X7X7X7X7X7X7X7X7X7X7X7X7X7X7X7X7X7X7X7X7X7X7X7X7X7X7X7X7X7X7X7X7X7X7X7X7X7X7X7X7X7X7X7X7X7X7X7X7X7X7X7X7X7X7X7X7X7X7X7X7X7X7X7X7X7X7X7X7X7X7X7X7X7X7X7X7X",
"7X7X7X7X7X7X7X7X7X7X7X7X7X7X7X7X7X7X7X7X7X7X7X7X7X7X7X7X7X7X7X7X7X7X7X7X7X7X7X7X7X7X7X7X7X7X7X7X7X7X7X7X7X7X7X7X7X7X7X7X7X7X7X7X7X7X7X7X7X7X7X7X7X7X7X7X7X7X7X7X7X7X7X7X7X7X7X7X7X7X7X7X7X7X7X7X7X7X7X7X7X7X7X7X7X7X7X7X7X7X7X7X7X7X7X7X7X7X7X7X7X7X0 r r r r r r t t t r t 7X7X7X7X7X7X7X7X7X7X7X7X7X7X7X7X7X7X7X7X7X7X7X7X7X7X7X7X7X7X7X7X7X7X7X7X7X7X7X7X7X7X7X7X7X7X7X7X7X7X7X7X7X7X7X7X7X7X7X7X7X7X7X7X7X7X7X7X7X7X7X7X7X7X7X7X7X7X7X7X7X7X7X7X7X7X7X7X7X7X7X7X7X7X7X7X7X7X7X7X7X7X7X7X7X7X7X7X7X7X7X7X7X7X7X7X7X7X7X7X7X7X",
"7X7X7X7X7X7X7X7X7X7X7X7X7X7X7X7X7X7X7X7X7X7X7X7X7X7X7X7X7X7X7X7X7X7X7X7X7X7X7X7X7X7X7X7X7X7X7X7X7X7X7X7X7X7X7X7X7X7X7X7X7X7X7X7X7X7X7X7X7X7X7X7X7X7X7X7X7X7X7X7X7X7X7X7X7X7X7X7X7X7X7X7X7X7X7X7X7X7X7X7X7X7X7X7X7X7X7X7X7X7X7X7X7X7X7X7X7X7X7X7X7X7X7X7X7X7X7X7X7X7X7X7X7X7X7X7X7X7X7X7X7X7X7X7X7X7X7X7X7X7X7X7X7X7X7X7X7X7X7X7X7X7X7X7X7X7X7X7X7X7X7X7X7X7X7X7X7X7X7X7X7X7X7X7X7X7X7X7X7X7X7X7X7X7X7X7X7X7X7X7X7X7X7X7X7X7X7X7X7X7X7X7X7X7X7X7X7X7X7X7X7X7X7X7X7X7X7X7X7X7X7X7X7X7X7X7X7X7X7X7X7X7X7X7X7X7X7X7X7X7X7X7X7X7X7X7X",
"7X7X7X7X7X7X7X7X7X7X7X7X7X7X7X7X7X7X7X7X7X7X7X7X7X7X7X7X7X7X7X7X7X7X7X7X7X7X7X7X7X7X7X7X7X7X7X7X7X7X7X7X7X7X7X7X7X7X7X7X7X7X7X7X7X7X7X7X7X7X7X7X7X7X7X7X7X7X7X7X7X7X7X7X7X7X7X7X7X7X7X7X7X7X7X7X7X7X7X7X7X7X7X7X7X7X7X7X7X7X7X7X7X7X7X7X7X7X7X7X7X7X7X7X7X7X7X7X7X7X7X7X7X7X7X7X7X7X7X7X7X7X7X7X7X7X7X7X7X7X7X7X7X7X7X7X7X7X7X7X7X7X7X7X7X7X7X7X7X7X7X7X7X7X7X7X7X7X7X7X7X7X7X7X7X7X7X7X7X7X7X7X7X7X7X7X7X7X7X7X7X7X7X7X7X7X7X7X7X7X7X7X7X7X7X7X7X7X7X7X7X7X7X7X7X7X7X7X7X7X7X7X7X7X7X7X7X7X7X7X7X7X7X7X7X7X7X7X7X7X7X7X7X7X7X7X"
};
