/* XPM */
static char *rupx128[] = {
/* columns rows colors chars-per-pixel */
"128 128 197 2 ",
"   c #2B1B44",
".  c #2F1E49",
"X  c #271740",
"o  c #311F4D",
"O  c #341F53",
"+  c #32224D",
"@  c #352152",
"#  c #382357",
"$  c #3A2A53",
"%  c #372158",
"&  c #3B255B",
"*  c #3E2B5C",
"=  c #3F3056",
"-  c #3E2761",
";  c #3F2862",
":  c #412D5D",
">  c #43345A",
",  c #48395E",
"<  c #402764",
"1  c #412965",
"2  c #452B6B",
"3  c #482C6F",
"4  c #45246C",
"5  c #473364",
"6  c #4A326D",
"7  c #4D396B",
"8  c #493765",
"9  c #472B70",
"0  c #4A2D73",
"q  c #4E2E79",
"w  c #532F7D",
"e  c #4D3077",
"r  c #4F3079",
"t  c #4F3971",
"y  c #533D74",
"u  c #50307A",
"i  c #553B7B",
"p  c #53436C",
"a  c #534568",
"s  c #564372",
"d  c #5B4B73",
"f  c #5C477C",
"g  c #5F5371",
"h  c #615177",
"j  c #64537C",
"k  c #655879",
"l  c #562E81",
"z  c #5A2E85",
"x  c #5E2E89",
"c  c #573281",
"v  c #5A3583",
"b  c #5D3B85",
"n  c #5F3188",
"m  c #622D8D",
"M  c #603C87",
"N  c #64348D",
"B  c #633B8B",
"V  c #683D8F",
"C  c #652D90",
"Z  c #673591",
"A  c #6C3595",
"S  c #6B3B93",
"D  c #723E99",
"F  c #5D4283",
"G  c #654E86",
"H  c #65428C",
"J  c #68418F",
"K  c #684E8C",
"L  c #6B5788",
"P  c #715D8E",
"I  c #6B4292",
"U  c #6D4A92",
"Y  c #714496",
"T  c #724C96",
"R  c #74439A",
"E  c #764C9A",
"W  c #794C9D",
"Q  c #6E5391",
"!  c #725395",
"~  c #7A549D",
"^  c #775A98",
"/  c #7D5C9E",
"(  c #77569A",
")  c #6E6083",
"_  c #75658D",
"`  c #7A6D8F",
"'  c #736884",
"]  c #7C728C",
"[  c #7E629E",
"{  c #7B6996",
"}  c #7B4EA0",
"|  c #7E54A2",
" . c #7E5BA0",
".. c #81699F",
"X. c #817495",
"o. c #847993",
"O. c #86799A",
"+. c #8A7D9D",
"@. c #85749E",
"#. c #835DA4",
"$. c #8459A6",
"%. c #8664A5",
"&. c #846BA2",
"*. c #8A6FA7",
"=. c #8A65A9",
"-. c #8C6EAA",
";. c #906EAE",
":. c #8B71A7",
">. c #8F7DA8",
",. c #8A77A3",
"<. c #9271AF",
"1. c #937AAE",
"2. c #936EB0",
"3. c #9672B3",
"4. c #9A7CB5",
"5. c #9979B4",
"6. c #A07DBB",
"7. c #8F859E",
"8. c #91889F",
"9. c #8E80A4",
"0. c #958BA3",
"q. c #9382AB",
"w. c #988AAC",
"e. c #9C90AD",
"r. c #9783B0",
"t. c #9C82B5",
"y. c #9D8CB3",
"u. c #9E81B8",
"i. c #9E90B3",
"p. c #A29AAE",
"a. c #A285BB",
"s. c #A48BBB",
"d. c #A88CBF",
"f. c #A297B1",
"g. c #A69CB5",
"h. c #A99BBD",
"j. c #A696BA",
"k. c #ADA2BD",
"l. c #ADA6B7",
"z. c #B2ACBC",
"x. c #B5B0BE",
"c. c #AA8DC1",
"v. c #AE95C3",
"b. c #AE9BC2",
"n. c #B197C6",
"m. c #B19CC5",
"M. c #B69ECA",
"N. c #B3A3C6",
"B. c #B6ACC3",
"V. c #B6A2C9",
"C. c #BAA6CC",
"Z. c #BCACCD",
"A. c #B8ACC8",
"S. c #BAB3C5",
"D. c #BCB2CB",
"F. c #BEB9C7",
"G. c #BFADD0",
"H. c #C1B5CF",
"J. c #C1BBCB",
"K. c #C2ADD3",
"L. c #C4B3D3",
"P. c #C6BAD3",
"I. c #C9BED7",
"U. c #CCBBD9",
"Y. c #C6C1CF",
"T. c #C9C5CF",
"R. c #CBC5D3",
"E. c #CBC8D1",
"W. c #CDC1DA",
"Q. c #CFC9D9",
"!. c #D1C4DD",
"~. c #D4CCDD",
"^. c #D5D1DC",
"/. c #D9D5DD",
"(. c #DBD8DF",
"). c #D6CBE1",
"_. c #DACCE4",
"`. c #D5C7E0",
"'. c #DCD4E5",
"]. c #DDD9E2",
"[. c #DFD4E8",
"{. c #D7D0E0",
"}. c #E1DFE5",
"|. c #E0D6E8",
" X c #E4DDEB",
".X c #E5E1EA",
"XX c #E9E1EF",
"oX c #ECEBEF",
"OX c #E3E1E7",
"+X c #ECE6F1",
"@X c #EEEBF1",
"#X c #F1EEF4",
"$X c #F4F2F6",
"%X c #F6F4F8",
"&X c #F8F7F9",
"*X c #FFFFFF",
"=X c None",
/* pixels */
"=X=X=X=X=X=X=X=X=X=X=X=X=X=X=X=X=X=X=X=X=X=X=X=X=X=X=X=X=X=X=X=X=X=X=X=X=X=X=X=X=X=X=X=X=X=X=X=X=X=X=X=X=X=X=X=X=X=X=X=X=X=X=X=X=X=X=X=X=X=X=X=X=X=X=X=X=X=X=X=X=X=X=X=X=X=X=X=X=X=X=X=X=X=X=X=X=X=X=X=X=X=X=X=X=X=X=X=X=X=X=X=X=X=X=X=X=X=X=X=X=X=X=X=X=X=X=X=X",
"=X=X=X=X=X=X=X=X=X=X=X=X=X=X=X=X=X=X=X=X=X=X=X=X=X=X=X=X=X=X=X=X=X=X=X=X=X=X=X=X=X=X=X=X=X=X=X=X=X=X=X=X=X=X=X=X=X=X=X=Xe e e e e e e e =X=X=X=X=X=X=X=X=X=X=X=X=X=X=X=X=X=X=X=X=X=X=X=X=X=X=X=X=X=X=X=X=X=X=X=X=X=X=X=X=X=X=X=X=X=X=X=X=X=X=X=X=X=X=X=X=X=X=X=X",
"=X=X=X=X=X=X=X=X=X=X=X=X=X=X=X=X=X=X=X=X=X=X=X=X=X=X=X=X=X=X=X=X=X=X=X=X=X=X=X=X=X=X=X=X=X=X=X=X=X=X=X=X=X2 3 3 3 0 0 3 e 3 e e e e e u u r u u u q w =X=X=X=X=X=X=X=X=X=X=X=X=X=X=X=X=X=X=X=X=X=X=X=X=X=X=X=X=X=X=X=X=X=X=X=X=X=X=X=X=X=X=X=X=X=X=X=X=X=X=X=X=X",
"=X=X=X=X=X=X=X=X=X=X=X=X=X=X=X=X=X=X=X=X=X=X=X=X=X=X=X=X=X=X=X=X=X=X=X=X=X=X=X=X=X=X=X=X=X=X=X1 1 2 2 2 2 3 2 3 3 3 3 0 3 e e e e e e e r r r u u l q c w u w l w =X=X=X=X=X=X=X=X=X=X=X=X=X=X=X=X=X=X=X=X=X=X=X=X=X=X=X=X=X=X=X=X=X=X=X=X=X=X=X=X=X=X=X=X=X=X=X",
"=X=X=X=X=X=X=X=X=X=X=X=X=X=X=X=X=X=X=X=X=X=X=X=X=X=X=X=X=X=X=X=X=X=X=X=X=X=X=X=X=X- - ; 1 1 2 1 ; 2 ; 2 2 2 3 3 9 3 e 0 0 e q q q e q q e e u r q q q w w l w u w w l l c l l =X=X=X=X=X=X=X=X=X=X=X=X=X=X=X=X=X=X=X=X=X=X=X=X=X=X=X=X=X=X=X=X=X=X=X=X=X=X=X=X=X",
"=X=X=X=X=X=X=X=X=X=X=X=X=X=X=X=X=X=X=X=X=X=X=X=X=X=X=X=X=X=X=X=X=X=X=X& & & - - - - - ; - 1 < < 2 2 2 2 2 3 2 3 9 9 3 2 9 9 e i i u q 0 q q r r w w w w w u w l w w w l l l l l c x l x z =X=X=X=X=X=X=X=X=X=X=X=X=X=X=X=X=X=X=X=X=X=X=X=X=X=X=X=X=X=X=X=X=X=X=X",
"=X=X=X=X=X=X=X=X=X=X=X=X=X=X=X=X=X=X=X=X=X=X=X=X=X=X=X=X# @ # # # # % & & & - - - - - ; 1 1 1 2 1 2 2 2 2 ; 2 2 e y G _ >.h.H.^.{.P.h.q.[ K F r q q q q q w w l w z w l l l l l l c z l l z x l x z z n =X=X=X=X=X=X=X=X=X=X=X=X=X=X=X=X=X=X=X=X=X=X=X=X=X=X=X=X",
"=X=X=X=X=X=X=X=X=X=X=X=X=X=X=X=X=X=X=X=X=X=X+ @ o @ @ @ @ # # # % & & & & - O - - - - - < - ; ; ; 1 3 y G { q.k.P.'.+X%X*X*X*X*X*X*X*X*X&X+X].W.N.t.&.Q H c w w w w w l l l l l l z l x x z l x z x x x x x x m x m =X=X=X=X=X=X=X=X=X=X=X=X=X=X=X=X=X=X=X=X=X=X",
"=X=X=X=X=X=X=X=X=X=X=X=X=X=X=X=X. . . o . o o O @ O @ @ @ O # # % & # & & & * - O - * < 2 s G { w.N.R.].@X*X*X*X*X*X*X*X*X*X*X*X*X*X*X*X*X*X*X*X*X*X%X@X}.!.A.s.*.( H b l w w l l z l l z z x z x x z x z x x x m x x m x m m m =X=X=X=X=X=X=X=X=X=X=X=X=X=X=X=X",
"=X=X=X=X=X=X=X=X=X=X=X=X=X=X  o . . . . o o + . o @ @ @ $ # # # # # # % & & 5 s L X.e.B.Q.OX$X*X*X*X*X*X*X*X*X*X*X*X*X*X*X*X*X*X*X*X*X*X*X*X*X*X*X*X*X*X*X*X*X*X*X$X.X).Z.v.1./ U M z z l l z z z z z x x x x x x m n m m m m m m m =X=X=X=X=X=X=X=X=X=X=X=X=X=X",
"=X=X=X=X=X=X=X=X=X=X=X=X      + . . . o . @ o O @ O O + o @ O & 5 p L O.i.S.^..X%X*X*X*X*X*X*X*X*X*X*X*X*X*X*X*X*X*X*X&X$X X).G.Z.~. X#X*X*X*X*X*X*X*X*X*X*X*X*X*X*X*X*X*X*X*X%X+X'.I.v.5.#.T V n x z z x x x x x m x m x m m m C m m C =X=X=X=X=X=X=X=X=X=X=X=X",
"=X=X=X=X=X=X=X=X=X=X=X=X        . . . . . . . . o $ 5 s L +.g.J./.oX&X*X*X*X*X*X*X*X*X*X*X*X*X*X*X*X*X*X*X&X#X}.W.C.s.*.( J b z z N J ~ -.t.C.U.[.@X*X*X*X*X*X*X*X*X*X*X*X*X*X*X*X*X*X*X*X&X@X|.U.V.u.=.~ S N x z x x x m x m m m m C m =X=X=X=X=X=X=X=X=X=X=X=X",
"=X=X=X=X=X=X=X=X=X=X=X              . $ > d ' 7.l.Y.].@X&X*X*X*X*X*X*X*X*X*X*X*X*X*X*X*X*X*X*X%X+X'.I.b.t.%.T B v l l l l l l z l z z l z z z x S T =.4.M.U.'.+X%X*X*X*X*X*X*X*X*X*X*X*X*X*X*X*X*X*X*X*X#X|.!.G.d.;.$.Y Z m m m C m C C C =X=X=X=X=X=X=X=X=X=X=X",
"=X=X=X=X=X=X=X=X=X=X  X         p 7.z.R.}.$X*X*X*X*X*X*X*X*X*X*X*X*X*X*X*X*X*X*X*X#XXX).D.v.1.[ U b c w w w w l l l l c l l l z l z z z l z z z z z z z z x Z T $.5.v.L.).+X#X*X*X*X*X*X*X*X*X*X*X*X*X*X*X*X*X*X*X*X%X X).K.c.| m m C m C C =X=X=X=X=X=X=X=X=X=X",
"=X=X=X=X=X=X=X=X=X=X          k OX*X*X*X*X*X*X*X*X*X*X*X*X*X*X*X*X*X&X#X X~.Z.s.:.^ K v l q q l u l l l l l l l l l c z z l z z z z z z z z z z z z z z x z x x z z x x Z Y $.2.c.G.`. X#X&X*X*X*X*X*X*X*X*X*X*X*X*X*X*X*X*X*X+X=.m C m C C =X=X=X=X=X=X=X=X=X=X",
"=X=X=X=X=X=X=X=X=X=X        + Y.*X*X*X*X*X*X*X*X*X*X*X*X&X#X].W.A.y.&.! H i w q w w w w q l l u c l l w l l l l l l z l l z z l l z l z z z z z z x x z x z x x x x x x x x z x x m Z Y | 2.a.M.!.|.#X&X*X*X*X*X*X*X*X*X*X*X*X*X!.A m C C C =X=X=X=X=X=X=X=X=X=X",
"=X=X=X=X=X=X=X=X=X=XX       = }.*X*X*X*X*X*X%X+X{.P.b.r.[ K F c q q q q q l q c w l u l q c l l l l r l l l l c z l c z z l l l z z z z z z z z l x x x x c x z n x x x x x x m x m x m x x x m m A } $.6.M.U.[.+X&X*X*X*X*X*X*XXXD C C C C =X=X=X=X=X=X=X=X=X=X",
"=X=X=X=X=X=X=X=X=X=X        > }.*X*X*X$XA.>.[ G F r q q e q r e w u q w w q q c w q r l l c l q r l l l c l l l c l l l l c z n l z l z z z z z x z x z x x x z x x x x x m x n m x m x m m m x m m C m C C C C $.$.5.K.%X*X*X*XXXR m m C C =X=X=X=X=X=X=X=X=X=X",
"=X=X=X=X=X=X=X=X=X=X        > }.*X*X&Xw.e 0 q q e q e r r u r r u u q w w w w q r l l q l q l u l l l l l l l l l l l l z c l z z l z z z z z z x z x z x z x x x x x n x n x m N x m n m m m m m m m m C C m m C m m C c.&X*X*XXXR C C C C =X=X=X=X=X=X=X=X=X=X",
"=X=X=X=X=X=X=X=X=X=X  X     > }.*X*X(.8 q q e e e e e r r r r r u u r q w q u l q l q c l q c l r l l l l l l l z l z c z l z c z z z z z z z z z x z x x z x x x x x x x m x x x x m m x m m x m m m m C C x C C C C C D  X*X*XXXD m m C C =X=X=X=X=X=X=X=X=X=X",
"=X=X=X=X=X=X=X=X=X=X        > }.*X*XE.$ 3 e e e r r r r r r r r u u w w w l q l c q r l l r q l l l c c l l l c c l z c z l z z l z z l z z z z z x z z z x x z x x x z x x x N m x m x m x m m m m m m C C x C C C C m A _.*X*XXXR m C C C =X=X=X=X=X=X=X=X=X=X",
"=X=X=X=X=X=X=X=X=X=X        > }.*X*XE.+ 1 e e e r r r r r c r r u u q w r u u u r l l r l l l c l l l r c l l l l l z l l c c z z z z z z z z z x z x z x z x x x x x n x x x x x m m x m m m x m m m m C C C C C C C C A _.*X*XXXR m C C C =X=X=X=X=X=X=X=X=X=X",
"=X=X=X=X=X=X=X=X=X=X      X > }.*X*XE.+ $ q e e r r u r r r r u u u q q w w w w l q l l r r l l l r l l l l l l l c c l l z l z l z z z z z z z z x x z x z x x n x x m x x m x m x m x x m m m m m m m m C m C m C C C A _.*X*XXXR C C C C =X=X=X=X=X=X=X=X=X=X",
"=X=X=X=X=X=X=X=X=X=XX       > }.*X*XE.+ o 0 e e r r r r r u r u u u u w w u w u q c r l l l l r l c l l l l c l l l z l z l z l z z z z z z z z x z z z x x z x z x x x x x x m x x m m x m m x m m m m m C m m C C C C A _.*X*XXXR m C C C =X=X=X=X=X=X=X=X=X=X",
"=X=X=X=X=X=X=X=X=X=X        > }.*X*XE.+   1 e e q r r r r r r l u u w w w w w w w w w w w w w w q l w w l l q l l l l l l l l l l l l l l z z z z z z z x x x x m x z m x x x m x n m x m x m m m m m m m C m m m C C C A _.*X*XXXR m C C C =X=X=X=X=X=X=X=X=X=X",
"=X=X=X=X=X=X=X=X=X=X        > }.*X*XE.+   & e e e r r r r r r r u u q w w e u w w w w w l w b &.*.&.*.&.*.*.=.=.*.*.=.*.*.=.:.=.=.-.-.=.-.-.=.=.-.-.%.W U N z z z x z m x m x m x m m m m x m m m m m m m C m C C C C C A _.*X*XXXD m C C C =X=X=X=X=X=X=X=X=X=X",
"=X=X=X=X=X=X=X=X=X=X      X > }.*X*XE.+ X . 3 e r r r r e l r r u u e w w w w w w w w w w w / $X&X&X*X*X*X&X*X*X*X%X*X*X*X*X&X*X*X&X*X*X&X*X*X*X*X&X&X$XXX).V.-.J m z m x x x x m n n x m m m x m m m m m m m C C C C C A _.*X*XXXR C m C C =X=X=X=X=X=X=X=X=X=X",
"=X=X=X=X=X=X=X=X=X=X  X     > OX*X*XE.+     - e r r e r r r r r u e w w w u u w w w w w w w [ %X*X*X*X*X*X*X*X*X*X*X*X*X*X*X*X*X*X*X*X*X*X*X*X*X*X*X*X*X*X*X*X*X Xm.~ x x x x m x x m m x m m m m m m m m C m C m C C C A _.*X*XXXR m m Z C =X=X=X=X=X=X=X=X=X=X",
"=X=X=X=X=X=X=X=X=X=X      X > }.*X*XT.+     + q r r r r r r r u u w w q u w w l u u w w w w / %X*X*X*X*X*X*X*X*X*X*X*X*X*X*X*X*X*X*X*X*X*X*X*X*X*X*X*X*X*X*X*X*X*X*X@XV.E x x m x m m x m x m m m m m m m m m C C C C C A _.*X*XXXR C C C C =X=X=X=X=X=X=X=X=X=X",
"=X=X=X=X=X=X=X=X=X=X      X > }.*X*XE.+   X   2 r r r r r r r r u u q w w w u u w w u l w w ( #X*X*X*X*X*X*X*X*X*X*X*X*X*X*X*X*X*X*X*X*X*X*X*X*X*X*X*X*X*X*X*X*X*X*X*X*X X4.N x m x N x m m m x m m C m C C m C m C m C A _.*X*XXXD m C C C =X=X=X=X=X=X=X=X=X=X",
"=X=X=X=X=X=X=X=X=X=X      X > }.*X*XE.+       % q r r r r r r c u u q w w w w w w u w l w w b W.*X*X*X*X*X*X*X*X*X*X*X*X*X*X*X*X*X*X*X*X*X*X*X*X*X*X*X*X*X*X*X*X*X*X*X*X*X&XC.S x m m m m m m m m m C m m C m C C C C C A _.*X*XXXR m C C C =X=X=X=X=X=X=X=X=X=X",
"=X=X=X=X=X=X=X=X=X=X        > }.*X*XE.+ X     . 0 r r r r r r r u u e w w u w u w w w u w w w ! W.$X&X%X%X&X%X%X%X%X%X%X%X%X$X$X%X%X%X%X%X%X%X$X%X%X&X*X*X*X*X*X*X*X*X*X*X*X*XU.Y x x x x m m x m m m m m C m m m C C C A _.*X*XXXD m C C C =X=X=X=X=X=X=X=X=X=X",
"=X=X=X=X=X=X=X=X=X=X        > }.*X*XT.+ X       > 0 r r r u r u u r w q w e w w w w w w w u l w b ( [ / [  ./ [  ./ / /  . . . ./ | / |  . . .~ ~ #.=.4.V._.&X*X*X*X*X*X*X*X*X*X!.R x m m m m m m m m m m C m C m C C C A _.*X*XXXR m C C C =X=X=X=X=X=X=X=X=X=X",
"=X=X=X=X=X=X=X=X=X=X      X > }.*X*XE.+   X     + 6 r r r u r u u w w w w w w u w u w c w l l w l w w w w l l w l l l w l l l l l l l l z l z z z z l z x V %.Z.#X*X*X*X*X*X*X*X*XL.Z m x x m x m m m m m m m m C C C C A _.*X*XXXR m m C C =X=X=X=X=X=X=X=X=X=X",
"=X=X=X=X=X=X=X=X=X=X      X > }.*X*XE.+ X         : r r r u r u u u e w w u w w w w w w w c l w l w c l l l l l z l l l z c z z z z l z z z z z z x z x x x z x #.W.*X*X*X*X*X*X*X*Xn.m m m m m m m m m m N m C C C C C A _.*X*X+XR C C C C =X=X=X=X=X=X=X=X=X=X",
"=X=X=X=X=X=X=X=X=X=X        > }.*X&XE.+   X       o 3 r r u r u u r q w w u w u u w u w w w l u w w l l l l l c l l l l z l c c z z z z z z z z z z x z x z z x z Z v.%X*X*X*X*X*X*X$X=.x x m m m m m m m C m C m C C C A _.*X*XXXD m m C C =X=X=X=X=X=X=X=X=X=X",
"=X=X=X=X=X=X=X=X=X=X        > }.*X*XE.+             < w q q r u u u q w u w w w w u l u w w c w w l c w l l l l c l z c l z z z z z z z l x z z x z x z n l x x x x x u.$X*X*X*X*X*X*X).A m m x m m m m m m m C C C C C A _.*X*XXXD C m C C =X=X=X=X=X=X=X=X=X=X",
"=X=X=X=X=X=X=X=X=X=X  X     > }.*X*XE.+             o 0 q w r r u u w q u w u w w w w w l w l w l w l l l l w l l l l l c l l l w z z z x c z z z x z x x x x x x x x x a.&X*X*X*X*X*X*Xa.m m m m m m m C C m C m C m C A _.*X*X+XR m C C C =X=X=X=X=X=X=X=X=X=X",
"=X=X=X=X=X=X=X=X=X=X        > }.&X&XE.+ X           o & r u r u u u w w w w w w u w u l w w l w w l l w l l l l l l l l z c z n z z z z z x z x z x z x z x z x x x x x N C.*X*X*X*X*X*X|.D m m m m m m m m m C C C C C A _.*X*XXXR C m C C =X=X=X=X=X=X=X=X=X=X",
"=X=X=X=X=X=X=X=X=X=XX       > }.&X&XE.+ X       .     o 3 u u u u u q w w u u w u w w l w w c w c w l l c l l l z c z c l z l z l z l z l z z l x z x z z x x x n x x m x Y [.*X*X*X*X*X&X3.x m m m C m m C m C m C C C A _.*X*XXXD m C C C =X=X=X=X=X=X=X=X=X=X",
"=X=X=X=X=X=X=X=X=X=X        = }.*X*XT.+ X               : u u u e u e w w w w w w w w w w w l u l w l l l l l l z l z l z l z l z z l z z z z z m z z z m n n x x x z m x x 5.*X*X*X*X*X*XU.C m m m m m m C m C m C m C A _.*X*XXXR m m C C =X=X=X=X=X=X=X=X=X=X",
"=X=X=X=X=X=X=X=X=X=X        > }.*X*XE.+ X           . .   2 q u u u w q u w u u u w w w l w l l w l l l w l l l l l l l c z c z l l z z z z z z z z z x x l z x x x x x x x S {.*X*X*X*X*X+XR x m m m m m C m C C C C C A _.*X*XXXD m C C C =X=X=X=X=X=X=X=X=X=X",
"=X=X=X=X=X=X=X=X=X=X        > }.*X*XE.+ X                 O q u u u q w w w w w w w w w l w w w l w w l l l l l l l l l l z l z l z z z z z z z z x z x z x z z x x x n x m m d.*X*X*X*X*X*X;.x m m m m m C m C m C C C A _.*X*XXXR m C C C =X=X=X=X=X=X=X=X=X=X",
"=X=X=X=X=X=X=X=X=X=X        > }.*X*XE.+           o o     o < w u u w w w u u w w w w w w w w w w w l w w l w l l l l l l l l l l z z z z z z z l n x z x x x x x x x x x x x %.%X*X*X*X*X*Xv.m m m m m m C m C C C C C A _.*X*XXXR m C Z C =X=X=X=X=X=X=X=X=X=X",
"=X=X=X=X=X=X=X=X=X=X        = }.*X*XE.+ X     .     o   .   @ 3 u u w w u w w w w c r.N.m.N.N.N.N.N.N.N.N.N.N.N.M.N.N.N.N.V.V.V.V.V.N.m.2.Z x x z z x x x z z z z x z m x x x S |.*X*X*X*X*XL.N m m m m m m m C m C C C A _.*X*XXXR C C C C =X=X=X=X=X=X=X=X=X=X",
"=X=X=X=X=X=X=X=X=X=X  X     = }.*X*XE.+ X                 . . : w u q q w w u w w v ~.*X*X*X*X*X*X*X*X*X*X*X*X*X*X*X*X*X*X*X*X*X*X*X*X*X&XL.V l x z z x z z m z m x x z x x m N !.*X*X*X*X*X).Z m m m m m m m C C C C C A _.*X*XXXD m C C C =X=X=X=X=X=X=X=X=X=X",
"=X=X=X=X=X=X=X=X=X=X        > OX*X*XE.+             o     . . . 2 e u w u w w u w v ).*X*X*X*X*X*X*X*X*X*X*X*X*X*X*X*X*X*X*X*X*X*X*X*X*X*X*X4.z z z x z m n m n n z x m x x x m L.*X*X*X*X*X'.A m m m m C C m m C C C C A _.*X*X XR C C C C =X=X=X=X=X=X=X=X=X=X",
"=X=X=X=X=X=X=X=X=X=X        = OX*X*XE.+ X           .   .   . . @ q q w w w u u u v ~.*X*X*X*X*X*X*X*X*X*X*X*X*X*X*X*X*X*X*X*X*X*X*X*X*X*X*XM.z x x l x x l z x z m z m x x x x C.*X*X*X*X*X|.A m m m m m C m C m C C C A _.*X*X+XD C m C C =X=X=X=X=X=X=X=X=X=X",
"=X=X=X=X=X=X=X=X=X=X        > }.*X*XE.+ X         .   .   . +   . & w w w w w w w w H.*X*X*X*X*X*X*X*X*X*X*X*X*X*X*X*X*X*X*X*X*X*X*X*X*X*X*Xd.z z z z x x z x x z m z z m z x x K.*X*X*X*X*X[.A m m m m m C m C m C m C A _.*X*XXXR C C C C =X=X=X=X=X=X=X=X=X=X",
"=X=X=X=X=X=X=X=X=X=X        > }.*X*XE.+             .     .   . . o 1 w w w q w w w ..#X*X*X*X*X*X*X*X*X*X*X*X*X*X*X*X*X*X*X*X*X*X*X*X*X*X|.T z z x x z z x z x x x m n n m m N P.*X*X*X*X*X).Z m m C m m C m m C C C C A _.*X*XXXR m m C C =X=X=X=X=X=X=X=X=X=X",
"=X=X=X=X=X=X=X=X=X=X        > }.*X*XE.+ X         . .   . . . . . . O 9 w w w u w w w *.I.'.'.'.'.[.].[.[.'.'.'.[.[.'.'.'.'.'.'.'._.'._.Z.~ z z x l x z x x x x x x x x x x m Z '.*X*X*X*X*XU.m m m m m m C C C C C C C A _.*X*X XR C C C C =X=X=X=X=X=X=X=X=X=X",
"=X=X=X=X=X=X=X=X=X=X      X > }.*X*XE.+ X             .   . . . . . o % 0 w w w w w w w v b M b M b M M M B M M B b B B b V b B N M M N z z z z z x x x z x x c x n x x x x z ~ #X*X*X*X*X*XM.m m m m m m C m m m C C C A _.*X*X+XD C m C C =X=X=X=X=X=X=X=X=X=X",
"=X=X=X=X=X=X=X=X=X=X        > }.&X&XE.+             .     . + . . o   o * w w w w w w w w w w w w w l l c l l l l l l l l l l c l z z z z z z z z x n z x x x z x x x x x m m 4.*X*X*X*X*X*X5.m m m m m m C m C C C m C A _.*X*XXXD C m C C =X=X=X=X=X=X=X=X=X=X",
"=X=X=X=X=X=X=X=X=X=X        > }.*X&XE.+               .       . . . o o o 4 u w u w w w w w w z l w l l l c l l l z z l z z l z l z z z l z z z x z z x x z x x x n x x x x N W.*X*X*X*X*X#X} m m m m m m C m C C C C C A _.*X*X+XR m C C C =X=X=X=X=X=X=X=X=X=X",
"=X=X=X=X=X=X=X=X=X=XX       > }.*X*XE.+   X       . .   . . + . . . o o o O 3 w w w w w l w w w l u l u w c l l l l l l z c z z l z l z z x z z z z x z x z z n x x x m x x =.$X*X*X*X*X*X`.Z x m m m m m C m m m C C C A _.*X*XXXR C C C C =X=X=X=X=X=X=X=X=X=X",
"=X=X=X=X=X=X=X=X=X=X        > }.*X*XE.+ X             .   .     . .   o o o % 0 w w w c w w c w l l l l l l l l l c z l c z c z z z z z z z z z z x z z x x z x x x x x x N U.*X*X*X*X*X*Xc.m m m m m m m C m C C C C C A _.*X*XXXD m C C C =X=X=X=X=X=X=X=X=X=X",
"=X=X=X=X=X=X=X=X=X=X        = }.*X*XT.+ X                 +   + o . . o . + o & q w w w w w c w c w l l l l w c l l l c z c z z l z z z z z z z x z x z x x n z x x x x x a.*X*X*X*X*X*XXXW x m m m m m m m m C m C C C A _.*X*XXXR m C C C =X=X=X=X=X=X=X=X=X=X",
"=X=X=X=X=X=X=X=X=X=X        > }.*X*XE.+ X             +     +   . . . o O . o o * w w w c w l w w l c l c l l l l l z l l z l z z z l z z z z z z x z z x z x x x x x z =.+X*X*X*X*X*X*XM.m m x m m m m m m m C C C C C A _.*X*XXXD m C C C =X=X=X=X=X=X=X=X=X=X",
"=X=X=X=X=X=X=X=X=X=X        > }.*X&XE.+               +   + +   o . . o . + o o o < w w w w z w w c w l l l l l l l l l c l z z l x z z l x z z n x z x x z z x x x x #. X*X*X*X*X*X*X XW m m m m m m m m m m C C C C C A _.*X*XXXR m C C C =X=X=X=X=X=X=X=X=X=X",
"=X=X=X=X=X=X=X=X=X=X        > }.*X&XE.+                   +   + . . . . o o o o o o 4 w w w w w l w l l l l c l c l z c z l c l l z l x l z x l l x x z x x z x x N =..X*X*X*X*X*X*X*Xa.x m m m m m m m m C m C m C C C A _.*X*XXXR m m Z C =X=X=X=X=X=X=X=X=X=X",
"=X=X=X=X=X=X=X=X=X=X      X > }.*X*XE.+ X             +     +   . . . + O . O o O o @ 2 w w c w w l l l l l l l l l l l z l z z z z z z l x z x x z x x n z x z I v.#X*X*X*X*X*X*X*XU.Z x m m x m m m m C C m C C C C C A _.*X*XXXR C C C C =X=X=X=X=X=X=X=X=X=X",
"=X=X=X=X=X=X=X=X=X=X        > }.*X*XE.+ X                 +   + . . . . o o . + o O O @ 4 w w w l w w l q l l l l l l l l l l z z z l l z z z z z z z z l x I 4.'.*X*X*X*X*X*X*X*X'.E m m x m m m m C m m C m m m C m C A _.*X*XXXD m C C C =X=X=X=X=X=X=X=X=X=X",
"=X=X=X=X=X=X=X=X=X=X        = }.*X*XT.+             + +     +   . . . o o o o o + o @ o @ 2 w w w b H H V H H H V J J J V J J J J J Z J J J I I S V U | 5.C. X*X*X*X*X*X*X*X*X*X.X$.x m m m m m m m m m m C m C C C C C A _.*X*X XR m C C C =X=X=X=X=X=X=X=X=X=X",
"=X=X=X=X=X=X=X=X=X=X        > }.*X*XE.+ X                 +   + o . . o o o o + o O + @ + % 4 M b.'. X X X X X X X X X.X X X X.X X X X X X X X X X X+X#X*X*X*X*X*X*X*X*X*X*X*X X%.x m x x m m m m N m m m C m C m C C C A _.*X*X+XD C C C C =X=X=X=X=X=X=X=X=X=X",
"=X=X=X=X=X=X=X=X=X=X        > }.*X&XE.+                   .   . . . . + o o o o @ . o + @ o $ k.*X*X*X*X*X*X*X*X*X*X*X*X*X*X*X*X*X*X*X*X*X*X*X*X*X*X*X*X*X*X*X*X*X*X*X*X*X*X).$.x m m x m x m x m m m m m C m C m C C C A _.*X*XXXR m C C C =X=X=X=X=X=X=X=X=X=X",
"=X=X=X=X=X=X=X=X=X=XX       > }.*X&XE.+             . . .   + + . . . . o o o + o O @ @ @ O p oX*X*X*X*X*X*X*X*X*X*X*X*X*X*X*X*X*X*X*X*X*X*X*X*X*X*X*X*X*X*X*X*X*X*X*X*X%XZ.Y x x x m x m x m m m m m m m C m m C C C C A _.*X*XXXR m m C C =X=X=X=X=X=X=X=X=X=X",
"=X=X=X=X=X=X=X=X=X=X  X     > OX*X*XE.+ X         .   .   . +   . . . o o o o o + O . @ O . h %X*X*X*X*X*X*X*X*X*X*X*X*X*X*X*X*X*X*X*X*X*X*X*X*X*X*X*X*X*X*X*X*X*X*X*X_.3.m x x m x m x m m m m m m m m m C C C C C C C A _.*X*X+XR C C C C =X=X=X=X=X=X=X=X=X=X",
"=X=X=X=X=X=X=X=X=X=X      X > }.*X*XE.+ X             .   .   . o . . o o o o + + o O + @ O f $X*X*X*X*X*X*X*X*X*X*X*X*X*X*X*X*X*X*X*X*X*X*X*X*X*X*X*X*X*X*X*X*X&X^.4.V z x x m x x m m x m m x m m m m m C m m m C C C A _.*X*XXXD m m C C =X=X=X=X=X=X=X=X=X=X",
"=X=X=X=X=X=X=X=X=X=X        = }.*X*XT.+             .     . . . . . o . o o o o O O o @ O o g $X*X*X*X*X*X*X*X*X*X*X*X*X*X*X*X*X*X*X*X*X*X*X*X*X*X*X*X*X*X@X'.M.%.Z x z m z n m m x N x m x m m m m m m m C m C C C C C A _.*X*XXXD C m C C =X=X=X=X=X=X=X=X=X=X",
"=X=X=X=X=X=X=X=X=X=X        > }.*X*XE.+ X         .   . .   . . . . . o o o o o + o @ + @ o j $X*X*X*X*X*XU.v.m.b.m.m.m.m.n.n.k.m.m.n.n.m.n.n.n.m.n.v.4.=.~ N x x z x m x m z x n m m x m m m m m m m m m C m C m C m C A _.*X*X+XR m C C C =X=X=X=X=X=X=X=X=X=X",
"=X=X=X=X=X=X=X=X=X=X        > }.*X*XE.+           .   . . .   . . . o . o o o o o O o @ @ o k $X*X*X*X*X*X` 4 w l l w l w z z w l l z l l z z l z z z z z z z x n x z m x n z m x m m m x x m x m m C m m C m C C C C C A _.*X*XXXR C m C C =X=X=X=X=X=X=X=X=X=X",
"=X=X=X=X=X=X=X=X=X=X      X > }.*X&XE.+ X X           .     + . o . . o o o o o o @ . @ O o g $X*X*X*X*X*X` O 4 w z l l z w z z l x z z z z z z x z x z x z x x x x x x x x n m m x n x m m m m m m m m m C m m m C C C A _.*X*XXXD m C C C =X=X=X=X=X=X=X=X=X=X",
"=X=X=X=X=X=X=X=X=X=X        > }.*X*XE.+ X         .   .   . + . . . o . o o o + @ o O @ @ . h $X*X*X*X*X*X` O # < w w z w z w z l z l z z l l x x z x x l x x x z m z z m z x m m m m x m m m m m m m m C C m m C C m C A _.*X*XXXR m m C C =X=X=X=X=X=X=X=X=X=X",
"=X=X=X=X=X=X=X=X=X=X        > }.*X*XE.+ X           .   . .   . . . . o o o o o o o + @ @ o h $X*X*X*X*X*X` O # % : 0 z w z m w z l x z l x x l x z x l x x x z z m m n n m m z x z m m x x m x m m m m m m m C C C C C A _.*X*XXXD m C C C =X=X=X=X=X=X=X=X=X=X",
"=X=X=X=X=X=X=X=X=X=X        > }.*X*XT.+               .     . . o . o . . o o + + O o @ @ O g %X*X*X*X*X*X` O # # # # 4 w w m z z z z z x z l x z x x x x x x x n z z z x z m n m n m x m m m m m m m m m C m m C C C C A _.*X*XXXR m C C C =X=X=X=X=X=X=X=X=X=X",
"=X=X=X=X=X=X=X=X=X=X  X     > }.*X*XE.+           .     . . . . . . . o o o o O o o @ + O . f %X*X*X*X*X*X` O # # # & % < q w z l z l z z z x z x l z x l z x z m z m n x m x m m x m x m x m m m m m m m C C C m C m C A _.*X*XXXR m C Z C =X=X=X=X=X=X=X=X=X=X",
"=X=X=X=X=X=X=X=X=X=X      X > }.&X&XE.+           .   .   .   . o + . . o + o + O o @ @ @ o h $X*X*X*X*X&X` O O $ & & & & & 4 w z z z z z x l z z z x c x x x z x x x m x m x n x m m n m x m x m m m m m C m C C C C C A _.*X*XXXR C C C C =X=X=X=X=X=X=X=X=X=X",
"=X=X=X=X=X=X=X=X=X=X      X > }.&X&XE.+ X             . .   + . o . . . o . o o + o o @ @ O h $X*X*X*X*X*X` O & & # O & & & # 4 0 z l z l x x z x x x x x x n x x x z m n x x m m z m m m m m m m m m m m m m C C C C C A _.*X*XXXD m C C C =X=X=X=X=X=X=X=X=X=X",
"=X=X=X=X=X=X=X=X=X=X      X > }.&X*XE.+           . .     .   + . . o . o o o O o O o O + O h $X*X*X*X*X*X` O & % # O & % & O < : 4 w z x l l x z x x z x z z x n x x x x x m x x n n x m x m m m m m m C m m m m C C C A _.*X*X XR C C C C =X=X=X=X=X=X=X=X=X=X",
"=X=X=X=X=X=X=X=X=X=X        > }.*X*XE.+ X X           .   . .   . . . o . o o + + o @ + O o h $X*X*X*X*X*X` O O % & & & $ & & & & O : 4 w z x l x z z z x x z x x x x x x x x x m x m m m x m x m m m m m C C C C C m C A _.*X*X+XD C m C C =X=X=X=X=X=X=X=X=X=X",
"=X=X=X=X=X=X=X=X=X=X        > }.*X*XT.+ X                 . . + o . o . . . O + O O + + @ o g $X*X*X*X*X*X` O % % & O & & & & & & & & & < 0 l z z z x x z x z x x x x m x x x m x m m m m n m m m m C m m C m C m C C C A _.*X*XXXR C C C C =X=X=X=X=X=X=X=X=X=X",
"=X=X=X=X=X=X=X=X=X=X      X > }.*X*XE.+ X           +     . . . . . . o . o . + + . O O @ O G $X*X*X*X*X*X` O # $ & & & & & & & & & - & - - < q l x x z z x z x x x x x x x m x n m z m m m m m m m m m m C m m C C C C A _.*X*XXXR m m C C =X=X=X=X=X=X=X=X=X=X",
"=X=X=X=X=X=X=X=X=X=X      X > }.*X*XE.+                 . . + . . . o . o o o + + . + @ O o g $X*X*X*X*X&X` O # # # % % O < : & : - & - & < & - 4 q l x x x z x x x x x x x x x m x m x x x m x m m m m m C m C C C m C A _.*X*X XR C C C C =X=X=X=X=X=X=X=X=X=X",
"=X=X=X=X=X=X=X=X=X=X        > }.*X*X(.$ X           +         . . . . o o o o O O O @ + O O g $X*X*X*X*X*X` O & & # % & O : O & O < - & < & - - - - ; q l x x x x x z x x x n m x n m n m m m m m m m m m C m C m C C C D  X*X*X+XD C m C C =X=X=X=X=X=X=X=X=X=X",
"=X=X=X=X=X=X=X=X=X=X        = (.*X*XoXa X                 +   . o . . o o o . + + O O @ + . g $X*X*X*X*X*X` O & $ & # & & & & & & & - & O : - - ; ; ; ; ; 0 l x m m z m x n x x n m z m m x m m m m m m m C m C C C C C $.#X*X*X XD m C C C =X=X=X=X=X=X=X=X=X=X",
"=X=X=X=X=X=X=X=X=X=X        + E.*X*X*X] X         + +       + . . . . . o o O . . . O + @ O G $X*X*X*X*X&X` O $ % % & # % & & & - & & * < < - - ; ; ; ; ; ; ; q 0 w m m x m x m m m m m m m m m m m m m m C m C m C C C 6.*X*X*X_.A m m C C =X=X=X=X=X=X=X=X=X=X",
"=X=X=X=X=X=X=X=X=X=X          p.*X*X*Xx.+               + +   . . . . o o o o O + O + + O O g $X*X*X*X*X*X` O % % % & # & & & & & & & < - & - O ; ; ; ; ; 4 ; ; < 2 q w z m m x m z m x z m m z m m m m C m m m C C C C U.*X*X*XC.C C C C C =X=X=X=X=X=X=X=X=X=X",
"=X=X=X=X=X=X=X=X=X=X        + k &X*X*X$Xg X         +       +   . o . o o o o . + O O + O O g $X*X*X*X*X*X` O % $ & % & % & & & & & & & - * < 4 ; ; ; ; ; ; ; ; 1 < 1 1 2 q w x m z m m m m m m m m m m m C m C m C C $.#X*X*X&X3.C m C C C =X=X=X=X=X=X=X=X=X=X",
"=X=X=X=X=X=X=X=X=X=X=X      . = /.*X*X*Xx.+   X           . . . . . . . . + O + . O @ O + . g $X*X*X*X*X*X` O % O & O # O & & & - & - * - - - - - ; ; ; ; ; ; ; 1 1 2 1 1 2 2 3 q w m m m m m m m m m m m C m C C C C K.*X*X*X XR m m C C =X=X=X=X=X=X=X=X=X=X=X",
"=X=X=X=X=X=X=X=X=X=X=X        . 8.*X*X*X%X' X       . .   . . . . . . . O . . . + O @ + @ O G $X*X*X*X*X*X` O # & O : & < O : & & & & - & - - & - ; ; ; 2 ; ; 9 1 1 1 2 1 2 2 1 1 3 2 3 w w m m m m m m m m m m C C 3.&X*X*X*Xn.m m C m C =X=X=X=X=X=X=X=X=X=X=X",
"=X=X=X=X=X=X=X=X=X=X=X        . , (.*X*X*X/.,   .     . . . . . O . o . . + . O + + O + O O g $X*X*X*X*X&X` O # & & & & & & & & & & & - & - - - ; ; ; ; ; ; ; ; 2 1 1 1 1 2 2 2 2 2 2 2 3 3 3 e w z x m C C C C m R |.*X*X*X XW m m C C C =X=X=X=X=X=X=X=X=X=X=X",
"=X=X=X=X=X=X=X=X=X=X=X=X    .     o.&X*X*X*Xz.+       .   . . . . . o . o + O . + O . O O O g $X*X*X*X*X*X` O & # # O & & & & & & & - & - - & - ; ; ; ; ; ; 2 ; < 1 1 2 1 2 1 2 2 2 2 3 2 3 3 2 3 3 9 0 q w l z N K.*X*X*X*Xa.m C m m C =X=X=X=X=X=X=X=X=X=X=X=X",
"=X=X=X=X=X=X=X=X=X=X=X=X  .       @ S.*X*X*X&X0..       . . . . o . o . o o o O + . @ @ + O g $X*X*X*X*X*X` O # & # & # & & & & & - - * - - - - - ; ; ; ; 4 ; 2 1 2 1 1 2 2 3 2 2 2 2 3 2 3 3 3 3 3 3 3 3 0 9 q y.&X*X*X*XU.Z m m C C m =X=X=X=X=X=X=X=X=X=X=X=X",
"=X=X=X=X=X=X=X=X=X=X=X=X=X      .   a (.*X*X*X$Xo.    .   .   . . . . . + . + o + O O + + O g $X*X*X*X*X*X` O # % # # & & & # & & & & & & - - & - ; ; ; ; ; ; ; 1 < 2 1 < 2 1 2 2 2 2 3 2 3 3 2 3 3 3 9 3 9 0 ,.$X*X*X*XXX| m m m m C =X=X=X=X=X=X=X=X=X=X=X=X=X",
"=X=X=X=X=X=X=X=X=X=X=X=X=X    + . .   ) oX*X*X*X$X]       . . . . . . . + + . + O O . + O o G $X*X*X*X*X&X` O # & # & # # & & & & & & - - - - - - ; ; ; ; 4 ; 2 1 1 2 1 2 2 1 1 2 2 2 3 2 3 3 3 3 0 6 0 3 0 ,.oX*X*X*X#X3.m m m m m C =X=X=X=X=X=X=X=X=X=X=X=X=X",
"=X=X=X=X=X=X=X=X=X=X=X=X=X=X    . . . . o.%X*X&X&XoX] . . . . . . . . O . . O O . + O + O O g $X*X*X*X*X&XP O # # # # & & & & & & - - & - & - - - ; ; ; ; ; ; ; 1 1 1 2 1 2 2 2 2 2 2 2 2 3 3 3 3 3 3 3 0 &.@X*X*X*X*Xs.m m m m m m =X=X=X=X=X=X=X=X=X=X=X=X=X=X",
"=X=X=X=X=X=X=X=X=X=X=X=X=X=X=X. . . . o + 0.&X*X*X*X$Xo.      + . o . . o o o + @ o @ @ @ . h %X*X*X*X*XQ.5 # # % # & & & & & & & & & & & - & - - ; ; 4 ; ; ; ; ; 2 ; 2 ; 9 9 ; 2 2 2 2 2 2 3 3 9 3 9 0 9.@X*X*X*X&Xn.N m m m m m =X=X=X=X=X=X=X=X=X=X=X=X=X=X=X",
"=X=X=X=X=X=X=X=X=X=X=X=X=X=X=X+ . . . . o @ 0.&X*X*X*X$X0.$   . . . . O o o . @ . O @ + @ . d .X$X$X@XY.g # # # & # # # # & & & & - & - - - - - - ; ; ; 9 ; ; 9 2 ; 2 ; 2 9 ; 2 2 2 2 2 3 3 3 9 3 9 t i.%X*X*X*X*XM.Z m x m m m m =X=X=X=X=X=X=X=X=X=X=X=X=X=X=X",
"=X=X=X=X=X=X=X=X=X=X=X=X=X=X=X=X. . . + o . @ 0.$X*X*X*X&Xl.>   . . . o o o o . o O o @ @ @ $ s d d s * O # # # # # % & & & & & & - & - - & - - ; ; ; ; ; ; ; ; ; 2 ; 2 ; 2 9 2 2 2 2 3 2 3 3 2 9 F N.&X*X*X*X&Xn.N x m m x m m =X=X=X=X=X=X=X=X=X=X=X=X=X=X=X=X",
"=X=X=X=X=X=X=X=X=X=X=X=X=X=X=X=X=X. . o o o o # 7.@X*X*X*X*XE.s   . o . o o o + o @ o o @ @ @ o O O @ @ # # O # % # & # & & & & & & & & - - - - - ; ; ; ; ; ; 2 2 ; 2 ; 2 2 ; 2 2 2 2 2 2 3 3 2 L R.&X*X*X*X%Xc.N x x x m m m =X=X=X=X=X=X=X=X=X=X=X=X=X=X=X=X=X",
"=X=X=X=X=X=X=X=X=X=X=X=X=X=X=X=X=X=X. o o + O . @ ` .X*X*X*X*X}.' + . . o o . O o @ o @ @ @ @ @ @ @ @ # # # @ % $ & O & & & & & & & & - - % - - - ; ; ; ; ; ; ; ; 2 ; 2 2 2 ; 2 2 2 2 2 2 2 9 @.OX*X*X*X*X+X4.m m x m m m m =X=X=X=X=X=X=X=X=X=X=X=X=X=X=X=X=X=X",
"=X=X=X=X=X=X=X=X=X=X=X=X=X=X=X=X=X=X=X+ . . + + + @ k (.*X*X*X*X$Xp.> . . o o + + + o @ o @ + @ @ @ # @ @ # # # % % & & & & & & & - - * - - - - - ; ; ; ; 2 2 ; 2 ; 2 ; ; 2 2 2 2 3 2 2 2 i h.$X*X*X*X*X[.*.x x x x n m m =X=X=X=X=X=X=X=X=X=X=X=X=X=X=X=X=X=X=X",
"=X=X=X=X=X=X=X=X=X=X=X=X=X=X=X=X=X=X=X=Xo o @ o O @ o 7 F.&X*X*X*X*XR.k o . o o O O + o @ @ @ @ # @ # @ # # # # $ & % % & & & & & - & & - - - - ; ; ; ; ; ; ; 2 ; 2 ; 2 2 2 2 ; 2 2 2 2 P Q.*X*X*X*X*XU.E x x x x m x N =X=X=X=X=X=X=X=X=X=X=X=X=X=X=X=X=X=X=X=X",
"=X=X=X=X=X=X=X=X=X=X=X=X=X=X=X=X=X=X=X=X=X+ o O + O @ O > e.$X*X*X*X*XoX0.* o o o o @ @ @ @ @ @ @ @ @ @ # @ # # % % & & % & & & & & & - - - - - ; ; ; ; ; ; ; ; 2 ; 2 ; ; 2 2 2 2 2 t i.oX*X*X*X*X%Xv.V x x x x x x m =X=X=X=X=X=X=X=X=X=X=X=X=X=X=X=X=X=X=X=X=X",
"=X=X=X=X=X=X=X=X=X=X=X=X=X=X=X=X=X=X=X=X=X=XO + o @ @ @ O # _ (.*X*X*X*X*XT.k + o O O + @ @ @ @ # @ # @ # # @ # % # & & % & & & & & & - - - - - - ; ; ; 4 ; ; 2 ; 2 ; 2 2 2 2 ; 2 P W.*X*X*X*X*X X<.x z z x x x x m =X=X=X=X=X=X=X=X=X=X=X=X=X=X=X=X=X=X=X=X=X=X",
"=X=X=X=X=X=X=X=X=X=X=X=X=X=X=X=X=X=X=X=X=X=X=X=X+ O @ # @ # # p B.&X*X*X*X*XoXp.8 o o @ @ + @ @ @ @ @ # # @ # # % # # & # & & & & - & - & - & - - ; ; ; ; ; ; ; 2 ; 2 ; ; 2 2 i g.@X*X*X*X*X*XL.E z z x n x x x =X=X=X=X=X=X=X=X=X=X=X=X=X=X=X=X=X=X=X=X=X=X=X=X",
"=X=X=X=X=X=X=X=X=X=X=X=X=X=X=X=X=X=X=X=X=X=X=X=X=X@ @ @ @ O # @ & +.OX*X*X*X*X*X/.] $ o + @ @ @ @ @ @ # # # # # # & % & & & & & & - & * - - - - - ; ; - ; ; ; ; ; 2 ; 2 ; e @./.*X*X*X*X*XXXt.N z z x x x x x =X=X=X=X=X=X=X=X=X=X=X=X=X=X=X=X=X=X=X=X=X=X=X=X=X",
"=X=X=X=X=X=X=X=X=X=X=X=X=X=X=X=X=X=X=X=X=X=X=X=X=X=X@ @ # # # # % % d S.&X*X*X*X*X&XJ.j @ o @ @ @ @ @ # @ # # # # & % $ & & & & & & & - & * - - ; ; ; ; ; 4 ; 2 2 ; < 2 L F.%X*X*X*X*X&XL.~ z c x z x z x x =X=X=X=X=X=X=X=X=X=X=X=X=X=X=X=X=X=X=X=X=X=X=X=X=X=X",
"=X=X=X=X=X=X=X=X=X=X=X=X=X=X=X=X=X=X=X=X=X=X=X=X=X=X=X@ @ # # # # % % ; X.].*X*X*X*X*X@Xg.p @ @ # @ @ # @ # @ % # % & & % & & & & & & & - - - - - ; ; ; ; ; ; 1 < ; f h.@X*X*X*X*X*X|.4.N l z z z x z x x =X=X=X=X=X=X=X=X=X=X=X=X=X=X=X=X=X=X=X=X=X=X=X=X=X=X=X",
"=X=X=X=X=X=X=X=X=X=X=X=X=X=X=X=X=X=X=X=X=X=X=X=X=X=X=X=X=X# @ # # & & # & s g.@X*X*X*X*X*XOX0.8 O @ # @ @ # # # # & % $ & & & & & & - - - & - - - ; ; ; ; 4 ; ; y e..X*X*X*X*X*X$XC.T l l z z z x z x =X=X=X=X=X=X=X=X=X=X=X=X=X=X=X=X=X=X=X=X=X=X=X=X=X=X=X=X=X",
"=X=X=X=X=X=X=X=X=X=X=X=X=X=X=X=X=X=X=X=X=X=X=X=X=X=X=X=X=X=X# # % & & & & & - L P.&X*X*X*X*X*X(.+.> # @ # # @ # # # & & % & & & & - & - - & - & - ; ; ; ; ; 7 9.'.*X*X*X*X*X*XQ.%.l l z z z x z z x =X=X=X=X=X=X=X=X=X=X=X=X=X=X=X=X=X=X=X=X=X=X=X=X=X=X=X=X=X=X",
"=X=X=X=X=X=X=X=X=X=X=X=X=X=X=X=X=X=X=X=X=X=X=X=X=X=X=X=X=X=X=X=X% & % & & & * & 5 O.].*X*X*X*X*X&X/.O.5 @ # # # # # % & & & & & & & & & - - - - ; ; - - 7 ,.~.*X*X*X*X*X*X|.4.M l z l z z z z z =X=X=X=X=X=X=X=X=X=X=X=X=X=X=X=X=X=X=X=X=X=X=X=X=X=X=X=X=X=X=X=X",
"=X=X=X=X=X=X=X=X=X=X=X=X=X=X=X=X=X=X=X=X=X=X=X=X=X=X=X=X=X=X=X=X=X& & & & & & - - - t e.oX*X*X*X*X*X&X^.O.5 O # # & & % & & & & & & * - % - - - - % 7 ,.~.&X*X*X*X*X*XXXh.U z l l x l l z z z =X=X=X=X=X=X=X=X=X=X=X=X=X=X=X=X=X=X=X=X=X=X=X=X=X=X=X=X=X=X=X=X=X",
"=X=X=X=X=X=X=X=X=X=X=X=X=X=X=X=X=X=X=X=X=X=X=X=X=X=X=X=X=X=X=X=X=X=X=X& & & * & - - - - f k.oX*X*X*X*X*X*X^.+.8 # % % & & & & & & - - & - - - - t ,.^.&X*X*X*X*X*X#XZ.! z w l l l l l x z =X=X=X=X=X=X=X=X=X=X=X=X=X=X=X=X=X=X=X=X=X=X=X=X=X=X=X=X=X=X=X=X=X=X=X",
"=X=X=X=X=X=X=X=X=X=X=X=X=X=X=X=X=X=X=X=X=X=X=X=X=X=X=X=X=X=X=X=X=X=X=X=X=X& & - - - - ; - 1 L A.$X*X*X*X*X*X*X].0.s & % & & & & & & & - & - s w.].*X*X*X*X*X*X$XL./ l w w l l z l c l =X=X=X=X=X=X=X=X=X=X=X=X=X=X=X=X=X=X=X=X=X=X=X=X=X=X=X=X=X=X=X=X=X=X=X=X=X",
"=X=X=X=X=X=X=X=X=X=X=X=X=X=X=X=X=X=X=X=X=X=X=X=X=X=X=X=X=X=X=X=X=X=X=X=X=X=X- - - - - ; < < - 2 P D.$X*X*X*X*X*X*XOXg.g & % # & & - % * j g.OX*X*X*X*X*X*X$XI.[ c w l c w l l l x z =X=X=X=X=X=X=X=X=X=X=X=X=X=X=X=X=X=X=X=X=X=X=X=X=X=X=X=X=X=X=X=X=X=X=X=X=X=X",
"=X=X=X=X=X=X=X=X=X=X=X=X=X=X=X=X=X=X=X=X=X=X=X=X=X=X=X=X=X=X=X=X=X=X=X=X=X=X=X=X- - < - 1 1 1 1 - 2 _ D.$X*X*X*X*X*X*X+XS._ 5 & & ; _ S.@X*X*X*X*X*X*X$XP.[ c w l w l l l l c l =X=X=X=X=X=X=X=X=X=X=X=X=X=X=X=X=X=X=X=X=X=X=X=X=X=X=X=X=X=X=X=X=X=X=X=X=X=X=X=X",
"=X=X=X=X=X=X=X=X=X=X=X=X=X=X=X=X=X=X=X=X=X=X=X=X=X=X=X=X=X=X=X=X=X=X=X=X=X=X=X=X=X=X- - < 1 1 1 1 2 1 3 P A.@X*X*X*X*X*X*X%XQ.f.p.^.%X*X*X*X*X*X*X#XH.[ c w w w w w w l l l =X=X=X=X=X=X=X=X=X=X=X=X=X=X=X=X=X=X=X=X=X=X=X=X=X=X=X=X=X=X=X=X=X=X=X=X=X=X=X=X=X=X",
"=X=X=X=X=X=X=X=X=X=X=X=X=X=X=X=X=X=X=X=X=X=X=X=X=X=X=X=X=X=X=X=X=X=X=X=X=X=X=X=X=X=X=X=X< 1 1 1 1 1 2 2 2 9 L B.XX*X*X*X*X*X*X*X&X*X*X*X*X*X*X+XA.^ u w w w w w w c l c =X=X=X=X=X=X=X=X=X=X=X=X=X=X=X=X=X=X=X=X=X=X=X=X=X=X=X=X=X=X=X=X=X=X=X=X=X=X=X=X=X=X=X=X",
"=X=X=X=X=X=X=X=X=X=X=X=X=X=X=X=X=X=X=X=X=X=X=X=X=X=X=X=X=X=X=X=X=X=X=X=X=X=X=X=X=X=X=X=X=X=X1 1 2 2 1 2 2 2 2 3 G j.].*X*X*X*X*X*X*X*X*X*X].h.Q w q w w w w u w w l w =X=X=X=X=X=X=X=X=X=X=X=X=X=X=X=X=X=X=X=X=X=X=X=X=X=X=X=X=X=X=X=X=X=X=X=X=X=X=X=X=X=X=X=X=X",
"=X=X=X=X=X=X=X=X=X=X=X=X=X=X=X=X=X=X=X=X=X=X=X=X=X=X=X=X=X=X=X=X=X=X=X=X=X=X=X=X=X=X=X=X=X=X=X1 1 2 2 2 2 2 2 3 3 3 F q.Q.&X*X*X*X*X&X~.w.H q q q u w w w u l l w =X=X=X=X=X=X=X=X=X=X=X=X=X=X=X=X=X=X=X=X=X=X=X=X=X=X=X=X=X=X=X=X=X=X=X=X=X=X=X=X=X=X=X=X=X=X=X",
"=X=X=X=X=X=X=X=X=X=X=X=X=X=X=X=X=X=X=X=X=X=X=X=X=X=X=X=X=X=X=X=X=X=X=X=X=X=X=X=X=X=X=X=X=X=X=X=X=X1 2 2 2 2 3 3 3 3 3 3 b { D..X.XD.{ v q q q u w w w w q u u =X=X=X=X=X=X=X=X=X=X=X=X=X=X=X=X=X=X=X=X=X=X=X=X=X=X=X=X=X=X=X=X=X=X=X=X=X=X=X=X=X=X=X=X=X=X=X=X=X",
"=X=X=X=X=X=X=X=X=X=X=X=X=X=X=X=X=X=X=X=X=X=X=X=X=X=X=X=X=X=X=X=X=X=X=X=X=X=X=X=X=X=X=X=X=X=X=X=X=X=X=X=X2 3 2 3 3 3 3 3 3 9 e F F e q q e r u u e q w u w =X=X=X=X=X=X=X=X=X=X=X=X=X=X=X=X=X=X=X=X=X=X=X=X=X=X=X=X=X=X=X=X=X=X=X=X=X=X=X=X=X=X=X=X=X=X=X=X=X=X=X",
"=X=X=X=X=X=X=X=X=X=X=X=X=X=X=X=X=X=X=X=X=X=X=X=X=X=X=X=X=X=X=X=X=X=X=X=X=X=X=X=X=X=X=X=X=X=X=X=X=X=X=X=X=X=X2 3 3 3 3 e e e 0 0 q e r e r r u u w w =X=X=X=X=X=X=X=X=X=X=X=X=X=X=X=X=X=X=X=X=X=X=X=X=X=X=X=X=X=X=X=X=X=X=X=X=X=X=X=X=X=X=X=X=X=X=X=X=X=X=X=X=X=X",
"=X=X=X=X=X=X=X=X=X=X=X=X=X=X=X=X=X=X=X=X=X=X=X=X=X=X=X=X=X=X=X=X=X=X=X=X=X=X=X=X=X=X=X=X=X=X=X=X=X=X=X=X=X=X=X=X3 0 0 3 9 e q e e e e r u e u u =X=X=X=X=X=X=X=X=X=X=X=X=X=X=X=X=X=X=X=X=X=X=X=X=X=X=X=X=X=X=X=X=X=X=X=X=X=X=X=X=X=X=X=X=X=X=X=X=X=X=X=X=X=X=X=X",
"=X=X=X=X=X=X=X=X=X=X=X=X=X=X=X=X=X=X=X=X=X=X=X=X=X=X=X=X=X=X=X=X=X=X=X=X=X=X=X=X=X=X=X=X=X=X=X=X=X=X=X=X=X=X=X=X=X=X3 e e 9 e e e e e r u e =X=X=X=X=X=X=X=X=X=X=X=X=X=X=X=X=X=X=X=X=X=X=X=X=X=X=X=X=X=X=X=X=X=X=X=X=X=X=X=X=X=X=X=X=X=X=X=X=X=X=X=X=X=X=X=X=X=X",
"=X=X=X=X=X=X=X=X=X=X=X=X=X=X=X=X=X=X=X=X=X=X=X=X=X=X=X=X=X=X=X=X=X=X=X=X=X=X=X=X=X=X=X=X=X=X=X=X=X=X=X=X=X=X=X=X=X=X=X=X=X0 q e e e r =X=X=X=X=X=X=X=X=X=X=X=X=X=X=X=X=X=X=X=X=X=X=X=X=X=X=X=X=X=X=X=X=X=X=X=X=X=X=X=X=X=X=X=X=X=X=X=X=X=X=X=X=X=X=X=X=X=X=X=X=X",
"=X=X=X=X=X=X=X=X=X=X=X=X=X=X=X=X=X=X=X=X=X=X=X=X=X=X=X=X=X=X=X=X=X=X=X=X=X=X=X=X=X=X=X=X=X=X=X=X=X=X=X=X=X=X=X=X=X=X=X=X=X=X=X=X=X=X=X=X=X=X=X=X=X=X=X=X=X=X=X=X=X=X=X=X=X=X=X=X=X=X=X=X=X=X=X=X=X=X=X=X=X=X=X=X=X=X=X=X=X=X=X=X=X=X=X=X=X=X=X=X=X=X=X=X=X=X=X=X"
};
