/* XPM */
static char *rupx64[] = {
/* columns rows colors chars-per-pixel */
"64 64 184 2 ",
"   c #26173F",
".  c #271740",
"X  c #2B1B44",
"o  c #2E1D4A",
"O  c #311F4C",
"+  c #321F50",
"@  c #32204F",
"#  c #352152",
"$  c #382357",
"%  c #3B2B54",
"&  c #372159",
"*  c #3A255B",
"=  c #3E2C5A",
"-  c #3E2761",
";  c #3F2862",
":  c #402C5D",
">  c #44345C",
",  c #412764",
"<  c #412965",
"1  c #412768",
"2  c #452A6B",
"3  c #482E6E",
"4  c #4A3B63",
"5  c #49316E",
"6  c #4F3E68",
"7  c #453460",
"8  c #503C6F",
"9  c #472B70",
"0  c #4B2D74",
"q  c #4E2D79",
"w  c #502B77",
"e  c #522E7D",
"r  c #4E3276",
"t  c #4F3873",
"y  c #4F3079",
"u  c #543E73",
"i  c #51317B",
"p  c #573D7E",
"a  c #4E4063",
"s  c #55466E",
"d  c #57486D",
"f  c #584B6E",
"g  c #5B4B74",
"h  c #584672",
"j  c #614D7D",
"k  c #645877",
"l  c #63527D",
"z  c #655977",
"x  c #6D617F",
"c  c #562E81",
"v  c #5A2D85",
"b  c #5E2D89",
"n  c #573481",
"m  c #5B3484",
"M  c #5B3D82",
"N  c #5F3389",
"B  c #5F3988",
"V  c #622C8D",
"C  c #63348C",
"Z  c #65398D",
"A  c #652D90",
"S  c #673790",
"D  c #693592",
"F  c #6C3D94",
"G  c #5E4084",
"H  c #644D85",
"J  c #65448B",
"K  c #69458E",
"L  c #664D88",
"P  c #665383",
"I  c #685387",
"U  c #695982",
"Y  c #6B538C",
"T  c #6D4493",
"R  c #6C4892",
"E  c #704097",
"W  c #724897",
"Q  c #75469B",
"!  c #754B9A",
"~  c #784F9C",
"^  c #6F5492",
"/  c #745397",
"(  c #765099",
")  c #7B559D",
"_  c #7A5A9C",
"`  c #6D6082",
"'  c #74668A",
"]  c #7F748F",
"[  c #766392",
"{  c #7C6D92",
"}  c #7E699C",
"|  c #7B6599",
" . c #7D7091",
".. c #7C4FA0",
"X. c #7E55A1",
"o. c #7F5BA1",
"O. c #837A91",
"+. c #887F96",
"@. c #837699",
"#. c #857899",
"$. c #835EA3",
"%. c #8257A4",
"&. c #8365A2",
"*. c #846BA2",
"=. c #8B64AB",
"-. c #8D6BAB",
";. c #906DAE",
":. c #8D72AA",
">. c #9270AF",
",. c #9179AD",
"<. c #9474B1",
"1. c #977BB2",
"2. c #9A7CB5",
"3. c #9D7CB8",
"4. c #8B8299",
"5. c #91899F",
"6. c #938AA0",
"7. c #9585AC",
"8. c #978BA9",
"9. c #9C93AA",
"0. c #9984B2",
"q. c #9E8CB3",
"w. c #A584BE",
"e. c #A38ABA",
"r. c #A69EB4",
"t. c #A691BD",
"y. c #A890BF",
"u. c #A99DBA",
"i. c #A799BB",
"p. c #AFA7BD",
"a. c #ABA5B5",
"s. c #B0A7BE",
"d. c #B2ABBD",
"f. c #A98AC1",
"g. c #AF93C5",
"h. c #AE99C3",
"j. c #B29CC6",
"k. c #B69FCA",
"l. c #B499C9",
"z. c #AEA1C1",
"x. c #B2A3C3",
"c. c #B6AEC2",
"v. c #B8AEC7",
"b. c #B7A1CA",
"n. c #BAA5CD",
"m. c #B6A8C8",
"M. c #BCACCC",
"N. c #B9B1C3",
"B. c #BFB9C7",
"V. c #BCB0CC",
"C. c #C1BACC",
"Z. c #C0ABD2",
"A. c #C4B4D3",
"S. c #C8B7D7",
"D. c #C5BCD2",
"F. c #C8BED5",
"G. c #CBBCD9",
"H. c #CBC5D4",
"J. c #CDC9D4",
"K. c #CEC3DA",
"L. c #CFC8DA",
"P. c #D1C5DD",
"I. c #D2C9DD",
"U. c #D0CCD6",
"Y. c #D6D2DB",
"T. c #D6CAE1",
"R. c #D9CEE3",
"E. c #DCD3E4",
"W. c #DEDBE4",
"Q. c #E1DCE6",
"!. c #E0D7E8",
"~. c #E3DBEA",
"^. c #E8DFEE",
"/. c #E6E2EB",
"(. c #E9E5EE",
"). c #ECEAEF",
"_. c #EBE5F0",
"`. c #EEEBF2",
"'. c #F1EEF4",
"]. c #F4F3F6",
"[. c #F6F4F8",
"{. c #F8F6FA",
"}. c #FFFFFF",
"|. c None",
/* pixels */
"|.|.|.|.|.|.|.|.|.|.|.|.|.|.|.|.|.|.|.|.|.|.|.|.|.|.|.|.|.|.|.r r |.|.|.|.|.|.|.|.|.|.|.|.|.|.|.|.|.|.|.|.|.|.|.|.|.|.|.|.|.|.|.",
"|.|.|.|.|.|.|.|.|.|.|.|.|.|.|.|.|.|.|.|.|.|.|.|.|.2 2 3 9 9 0 0 r q q q i e c |.|.|.|.|.|.|.|.|.|.|.|.|.|.|.|.|.|.|.|.|.|.|.|.|.",
"|.|.|.|.|.|.|.|.|.|.|.|.|.|.|.|.|.|.|.- - - ; 1 1 2 2 1 2 9 y p M y r q q e e e c c c c c |.|.|.|.|.|.|.|.|.|.|.|.|.|.|.|.|.|.|.",
"|.|.|.|.|.|.|.|.|.|.|.|.|.# $ $ $ * * * * - ; 1 3 u P | 7.p.D.E.E.F.z.q.&.^ G n e e c e v c v v m v b |.|.|.|.|.|.|.|.|.|.|.|.|.",
"|.|.|.|.|.|.|.X o O @ @ # # # + # * < 6 j { 8.x.H.W.`.{.}.}.}.}.}.}.}.}.{.'.~.L.M.e.:._ K B v c v b b b b V V V V |.|.|.|.|.|.|.",
"|.|.|.|.|.|.X X X X X # = 6 k { 8.c.J./.].}.}.}.}.}.[.(.E.A.h.1.1.h.A.E._.{.}.}.}.}.{.]./.T.Z.g.,.%.W S V b b V V V |.|.|.|.|.|.",
"|.|.|.|.|.X X o f O.9.N.U.(.].}.}.}.}.}.].~.T.M.t.:._ T B n c c c c b C T X.<.t.V.T./.].}.}.}.}.}.{._.R.A.l.3.%.D V A |.|.|.|.|.",
"|.|.|.|.|.X X z (.}.}.}.}.{.'.W.K.m.q.*./ J m i e e c c c c v v v v v v v v v v V C T X.;.w.n.P.!.'.}.}.}.}.}.'.=.V A |.|.|.|.|.",
"|.|.|.|.|.X X 5.}.[.H.z.0.} ^ M p q q q w e e c e n c c c c c v v v v v v b b b b b b b b b V V D %.=.3.k.P.{.}.g.V A |.|.|.|.|.",
"|.|.|.|.|.X . 6.}.p.i 0 0 q q q q e e e e c c i c c e c c c m c c v v v v b v b b b b b b V b V V V A V V A Z.}.g.V A |.|.|.|.|.",
"|.|.|.|.|.X . 5.}.+.1 q y y y y q i q i e e e c c n c c n v c v v v v v v v v b b b b b N b b V V V V A A V f.}.g.V V |.|.|.|.|.",
"|.|.|.|.|.X X 6.}.O.- q y y y y y e e e e e c e e e c e c c c c c c v v v v b v N b b b V b V C V V V A A V 3.}.g.V A |.|.|.|.|.",
"|.|.|.|.|.X X 6.}.O.+ q y y y y y i e e i e e K ) _ _ _ _ _ _ _ ) ) ) _ X.( T C v b b V b V V V V V A A A V w.}.g.V A |.|.|.|.|.",
"|.|.|.|.|.X . 5.}.] X 3 y y y y q e e e e e e j.[.].].[.].].].[.[.[.[.[.[.'.~.G.3.F b b V b b V V V V V V V w.{.g.A A |.|.|.|.|.",
"|.|.|.|.|.X X 6.}.O.. * y y y i e i e e e e e x.}.}.}.}.}.}.}.}.}.}.}.}.}.}.}.}.}.!.2.C b C V V V A V A A V 3.}.g.V A |.|.|.|.|.",
"|.|.|.|.|.X . 6.}.O.. + 0 y y y e i e e e i e &.Q.'.].'.'.'.'.'.'.'.'.'.'.[.}.}.}.}.[.n.S b V V V V V A V V f.}.g.V A |.|.|.|.|.",
"|.|.|.|.|.X X 5.}.O.  X , y y i q e e e e e e n K / / ! / / ~ ( ! ~ ! ~ ~ o.2.G.[.}.}.}.M.S V V V A A A V V 3.}.g.V A |.|.|.|.|.",
"|.|.|.|.|.X X 5.}.O.  X # 0 y i y e e e i e e e e e e c c c c c c c c v v v v C -.!.}.}.}.w.b V V V V V V V w.}.g.V A |.|.|.|.|.",
"|.|.|.|.|.X . 5.}.O.  X X , i y q i e i i e e c n c c c c c v c c v v v v v b v v ~ R.}.}._.%.V V A A A A V w.}.g.V V |.|.|.|.|.",
"|.|.|.|.|.X X 6.}.O.X X X # 0 i i e q e c e i c c c i n c c n v c v v v b v v b b b $.`.}.}.k.A V V V V A V w.}.g.V A |.|.|.|.|.",
"|.|.|.|.|.X X 5.}.O.  X X o , i y e e i e e c e n c c c e n c c v c c v b v b b b b b k.}.}.Q.F V V A A A V f.}.g.V A |.|.|.|.|.",
"|.|.|.|.|.X X 5.}.O.  X X X O 3 i q e e e n m n n m n N N N N N C N v v v v v b v b b $.[.}.{.$.V V A A V V 3.}.g.A A |.|.|.|.|.",
"|.|.|.|.|.X . 5.}.O.  X X o X % q i q e M M.I.I.I.P.I.I.I.I.I.I.T.I.h.Z v b v b b b V F ~.}.}.3.b V V V V V 3.}.g.V A |.|.|.|.|.",
"|.|.|.|.|.X X 5.}.O.  X X X X @ 2 e e e B Q.}.}.}.}.}.}.}.}.}.}.}.}.[.&.v b m b b b b C R.}.}.w.b V V V V V w.}.g.V A |.|.|.|.|.",
"|.|.|.|.|.X X 6.}.O.. X @   @ X + 0 e e n A.}.}.}.}.}.}.}.}.}.}.}.}._.) v b b b b b b S R.}.}.w.V A V A V V w.}.g.V A |.|.|.|.|.",
"|.|.|.|.|.X . 5.}.O.. X X X X @ o * e e e K 0.e.e.q.e.e.e.w.e.e.q.w.%.v v v N v v b b W _.}.}.<.V V V V V V w.}.g.V A |.|.|.|.|.",
"|.|.|.|.|.X . 6.}.O.. X o X @ X o O , e e e e e e e e e e c c c c c v v m v v b v V b >.{.}.'.%.b V V A V V f.}.g.V V |.|.|.|.|.",
"|.|.|.|.|.X X 6.}.O.  X X X X o o O O 2 e e e n e c c c c v c m v v v v b b v b b b C K.}.}.R.S V V V A A V 3.}.g.V A |.|.|.|.|.",
"|.|.|.|.|.X . 5.}.O.. X X X @ X o O O @ 3 e e c c c c c c n v c v v v v v b v b v b w.{.}.}.3.b V V V A A V w.}.g.V A |.|.|.|.|.",
"|.|.|.|.|.X X 6.}.O.. X X X X X X O O @ $ w e e e c c c c c c v v v v v v b b v V 2.'.}.}.R.F V V V V A V V w.{.g.A A |.|.|.|.|.",
"|.|.|.|.|.X X 6.}.O.. X X o X @ O O O O O * 0 n e e c e c c c c c c v c v b N ) n.[.}.}._.=.b V V V V A A V 3.}.g.V A |.|.|.|.|.",
"|.|.|.|.|.X   5.}.O.. X o X @ X O O O O O # * e ,.e.t.t.y.t.y.e.e.f.t.t.f.j.G.`.}.}.}.'.2.V V V A A V V V V f.}.g.V A |.|.|.|.|.",
"|.|.|.|.|.X X 5.{.4.  X X o X o o O O @ O # + #.}.}.}.}.}.}.}.}.}.}.}.}.}.}.}.}.}.}.~.;.V b b V V V V V V V 3.}.g.V A |.|.|.|.|.",
"|.|.|.|.|.X X 5.{.4.  X X X o o o o O O # # O r.}.}.}.}.}.}.}.}.}.}.}.}.}.}.}.}.(.k.! b v V V V V V C V A V w.}.g.V A |.|.|.|.|.",
"|.|.|.|.|.X X 5.{.4.  X X o o o o O O O @ @ + r.}.}.'.P.P.P.P.P.P.P.P.P.P.G.n.1.! V v b V V V C V V V A A V w.}.g.V V |.|.|.|.|.",
"|.|.|.|.|.X X 6.{.O.X X X X X o o O @ o # O + a.}.}.N.3 n m N C N N N N C b b v v v V V V b b V V A V V A V w.}.g.V A |.|.|.|.|.",
"|.|.|.|.|.X X 5.{.O.    X o o X o o @ O @ # O r.}.}.c.$ , e c c c v v v v v b b m b V m C V V V V V A A V V w.}.g.V A |.|.|.|.|.",
"|.|.|.|.|.    5.}.O.  X X X X @ o @ O O @ + + r.}.}.c.$ $ * w c v v v v v v v b V v v V v v V C V V V V A V w.}.g.A A |.|.|.|.|.",
"|.|.|.|.|.@   5.}.O.  X X o X @ X O @ O + # O a.}.}.c.$ $ * * 2 e v v v v b b b v V v b V V V V V V C A A V 3.}.g.V A |.|.|.|.|.",
"|.|.|.|.|.    5.}.4.  X X X X X @ o O O O + + r.}.}.c.$ $ $ * * , 0 c b v v b m V m V V v C v V V V A A A V f.}.g.V A |.|.|.|.|.",
"|.|.|.|.|.X X 5.}.O.    @   X @ X @ o @ @ @ O r.}.}.c.$ * $ * * * : 1 w n v b b v b b b C b V V V V V A A V w.}.g.V A |.|.|.|.|.",
"|.|.|.|.|.X X 5.}.4.      @ X @ o O @ o @ @ O a.}.}.c.$ # * $ * * * * , 2 w v b C b V b V v V V V V V V A V f.}.g.V A |.|.|.|.|.",
"|.|.|.|.|.X X +.}.a.X X X X X X o o @ @ @ @ + r.}.}.c.$ * * * * - * * , - , 2 q c v N b V V V V V V V V V V Z.}.w.V A |.|.|.|.|.",
"|.|.|.|.|.X   k {./.>   X @ X @ @ o @ o O + + r.}.}.c.$ # * * * * * * , - - , < 2 0 e v v C V V V A V V V ..^.{.=.V A |.|.|.|.|.",
"|.|.|.|.|.X X % J.}.5.  X X o X o O @ O # + + r.}.}.c.$ $ * $ * * - - - - - ; < , , < 2 w e v V V V V V A g.}.R.F A A |.|.|.|.|.",
"|.|.|.|.|.|.X X ] {.).z X o X o O O O O @ @ O a.}.}.c.$ $ $ * * * * - * - - - < 2 1 2 < 2 2 3 0 w c v b $.'.}.3.V A |.|.|.|.|.|.",
"|.|.|.|.|.|.X X % d.}.Y.a X X O o O O O # + + r.}.}.c.$ $ * * * - * - - - - < < 2 , 2 2 2 2 2 3 9 9 9 J E.}.S.D A A |.|.|.|.|.|.",
"|.|.|.|.|.|.|.X X > J.}.J.4 X o o o O O @ + + r.}.}.d.$ $ $ $ * * - - - - , < < , 2 < 2 2 2 2 3 9 2 H P.}.E.Q V V |.|.|.|.|.|.|.",
"|.|.|.|.|.|.|.|.O o s Y.}.U.s X o O O O @ @ + 9.`.W.' + $ * * * * * - * ; ; ; < < < < 2 3 2 2 3 2 Y I.}.!.%.b V |.|.|.|.|.|.|.|.",
"|.|.|.|.|.|.|.|.o o o f U.}.W.x o O @ O @ @ # > s 4 & & $ $ * * - * - - ; ; ; ; < < 2 < 2 2 2 3 } ~.}.E.X.b V V |.|.|.|.|.|.|.|.",
"|.|.|.|.|.|.|.|.|.O @ o 6 B.}.`.5.% o @ @ + # @ # # $ $ $ * * * * - - - ; ; ; 2 2 < 2 2 2 2 r q.'.}.P.! b b V |.|.|.|.|.|.|.|.|.",
"|.|.|.|.|.|.|.|.|.|.O @ O > r.[.{.B.f o O # # # # # # $ $ $ * * * * - - - ; ; < < < 2 1 2 P C.}.[.b.F v b C |.|.|.|.|.|.|.|.|.|.",
"|.|.|.|.|.|.|.|.|.|.|.@ # # $  .Q.}.(.4.= O # # # $ $ $ $ * * * - * - - - ; < < < < < t 7.(.}./.1.C v b V |.|.|.|.|.|.|.|.|.|.|.",
"|.|.|.|.|.|.|.|.|.|.|.|.|.# # # h N.{.}.H.` # + # # # $ $ $ * * * - * - - - < < 1 2 [ L.}.{.A.~ v v V |.|.|.|.|.|.|.|.|.|.|.|.|.",
"|.|.|.|.|.|.|.|.|.|.|.|.|.|.# $ # - ] E.}.].d.g $ # # * $ $ * * * * - - - - - < P c.].}.Q.1.N v v v |.|.|.|.|.|.|.|.|.|.|.|.|.|.",
"|.|.|.|.|.|.|.|.|.|.|.|.|.|.|.|.* * $ 8 r.).}.).r.h $ # $ * * * - - * - - - j u.`.}.`.j.R c v v |.|.|.|.|.|.|.|.|.|.|.|.|.|.|.|.",
"|.|.|.|.|.|.|.|.|.|.|.|.|.|.|.|.|.* * * - P v.].}.(.r.g * $ $ * * * * - j r.(.}.[.A._ c c v v |.|.|.|.|.|.|.|.|.|.|.|.|.|.|.|.|.",
"|.|.|.|.|.|.|.|.|.|.|.|.|.|.|.|.|.|.|.- - - < [ B.].}.`.p.U ; & * ; U x.`.}.{.F.&.n e c c |.|.|.|.|.|.|.|.|.|.|.|.|.|.|.|.|.|.|.",
"|.|.|.|.|.|.|.|.|.|.|.|.|.|.|.|.|.|.|.|.- - < ; 5 [ B.].}.].B.@.@.B.].}.].D.&.n e e n c |.|.|.|.|.|.|.|.|.|.|.|.|.|.|.|.|.|.|.|.",
"|.|.|.|.|.|.|.|.|.|.|.|.|.|.|.|.|.|.|.|.|.|.; < ; 2 5 [ v.).}.}.}.}.`.V.| n e i c c |.|.|.|.|.|.|.|.|.|.|.|.|.|.|.|.|.|.|.|.|.|.",
"|.|.|.|.|.|.|.|.|.|.|.|.|.|.|.|.|.|.|.|.|.|.|.|.2 2 2 2 r Y i.W.W.i.^ i q q c c |.|.|.|.|.|.|.|.|.|.|.|.|.|.|.|.|.|.|.|.|.|.|.|.",
"|.|.|.|.|.|.|.|.|.|.|.|.|.|.|.|.|.|.|.|.|.|.|.|.|.|.2 9 9 9 9 G M y q e e e |.|.|.|.|.|.|.|.|.|.|.|.|.|.|.|.|.|.|.|.|.|.|.|.|.|.",
"|.|.|.|.|.|.|.|.|.|.|.|.|.|.|.|.|.|.|.|.|.|.|.|.|.|.|.|.|.9 r 0 r 0 y |.|.|.|.|.|.|.|.|.|.|.|.|.|.|.|.|.|.|.|.|.|.|.|.|.|.|.|.|.",
"|.|.|.|.|.|.|.|.|.|.|.|.|.|.|.|.|.|.|.|.|.|.|.|.|.|.|.|.|.|.|.0 y |.|.|.|.|.|.|.|.|.|.|.|.|.|.|.|.|.|.|.|.|.|.|.|.|.|.|.|.|.|.|."
};
