/* XPM */
static char *rupx24[] = {
/* columns rows colors chars-per-pixel */
"24 24 127 2 ",
"   c #2A1A44",
".  c #2E1C4A",
"X  c #301E4B",
"o  c #321E50",
"O  c #35244E",
"+  c #352153",
"@  c #3B2B54",
"#  c #372258",
"$  c #3A245B",
"%  c #3D295C",
"&  c #3F3156",
"*  c #3E2662",
"=  c #42325B",
"-  c #412865",
";  c #442768",
":  c #442A6A",
">  c #492B6F",
",  c #463164",
"<  c #4A3964",
"1  c #4F3C6B",
"2  c #503E6C",
"3  c #4C2C74",
"4  c #4E2B79",
"5  c #522D7C",
"6  c #4E3072",
"7  c #523A75",
"8  c #52347B",
"9  c #563B7C",
"0  c #4D4062",
"q  c #564471",
"w  c #5B4B73",
"e  c #635775",
"r  c #635875",
"t  c #64547C",
"y  c #6A5C7F",
"u  c #562782",
"i  c #552A81",
"p  c #5A2B85",
"a  c #5E2C89",
"s  c #573280",
"d  c #5D3C85",
"f  c #622B8D",
"g  c #603E87",
"h  c #63338D",
"j  c #603989",
"k  c #683C8F",
"l  c #663190",
"z  c #6A3B93",
"x  c #703E97",
"c  c #634F80",
"v  c #65458B",
"b  c #6A4B8E",
"n  c #675680",
"m  c #685782",
"M  c #6B5A85",
"N  c #735D8F",
"B  c #6D4293",
"V  c #6E4B92",
"C  c #724797",
"Z  c #724B96",
"A  c #724299",
"S  c #744999",
"D  c #794B9E",
"F  c #755797",
"G  c #765299",
"H  c #78519C",
"J  c #7A5C9C",
"K  c #736588",
"L  c #756291",
"P  c #7D619D",
"I  c #7D4EA1",
"U  c #7F56A1",
"Y  c #7F5CA0",
"T  c #82729B",
"R  c #877B99",
"E  c #825FA2",
"W  c #8160A1",
"Q  c #8669A5",
"!  c #8D64AD",
"~  c #8968A8",
"^  c #8B74A7",
"/  c #8E75AB",
"(  c #9077AC",
")  c #9678B2",
"_  c #8C839B",
"`  c #90889D",
"'  c #958CA3",
"]  c #988FA6",
"[  c #9A8CAE",
"{  c #9C94A8",
"}  c #9C82B5",
"|  c #9F82B8",
" . c #A198AE",
".. c #A28FB9",
"X. c #A399B3",
"o. c #A491BB",
"O. c #AA9DBB",
"+. c #ADA4BA",
"@. c #B3ACBD",
"#. c #A98BC0",
"$. c #AF92C4",
"%. c #AD9BC1",
"&. c #B296C7",
"*. c #B29AC6",
"=. c #B49AC8",
"-. c #AFA3C0",
";. c #B3A2C6",
":. c #B5AAC5",
">. c #BCABCC",
",. c #BAB1C6",
"<. c #BEB3CC",
"1. c #C0ADD1",
"2. c #C6B4D6",
"3. c #C6B9D4",
"4. c #CCBBD9",
"5. c #D2C3DF",
"6. c #D7CAE1",
"7. c #D9CEE3",
"8. c #DED6E6",
"9. c #DFDBE3",
"0. c #E0DDE4",
"q. c #E0D6E8",
"w. c #E5DEEC",
"e. c #E6E0EC",
"r. c #E9E3EE",
"t. c #ECE9F0",
"y. c None",
/* pixels */
"y.y.y.y.y.y.y.y.y.* > 9 s 5 4 y.y.y.y.y.y.y.y.y.",
"y.y.y.y.+ & w M T [ -.<.<.;.o.( E S z h y.y.y.y.",
"y.y.& _ +.,.<.,.%.} Q G G ~ } *.1.2.2.1.#.x y.y.",
"y.y.e 3.P b d s i 4 4 u p u p p f z I E 4.! y.y.",
"y.y.e ' > 4 4 i d P P Y Y Y H h a f f f $.! y.y.",
"y.y.r ` * 4 8 4 F 8.r.e.e.e.r.5.I f f f $.! y.y.",
"y.y.e ` + 6 5 5 s b V V V Z W 4.q.I f f $.! y.y.",
"y.y.e `   : 5 8 s i p s p p p z 7.=.f f &.! y.y.",
"y.y.e `   + 3 v >.3.3.3.<.S p a $.6.l f #.! y.y.",
"y.y.r `   . % d o.-.;.;.%.B p p &.6.l f $.! y.y.",
"y.y.e `     X : i i 4 i u p p A q.#.f f $.! y.y.",
"y.y.r `     . + 6 F Y Y Y Y ) 7.6.A f f $.! y.y.",
"y.y.e `     . X t t.r.w.r.r.8.>.S a f f $.! y.y.",
"y.y.e `   . . . M 0.N V Z Z B h a h f f &.! y.y.",
"y.y.r `   . X . y 9.1 * 4 p a a f f l f #.! y.y.",
"y.y.e '   . X . y 0.1 # * > i a f f f f &.! y.y.",
"y.y.0 @.@ . X . y 0.2 # % * - 3 5 p f x 2.E y.y.",
"y.y.  _ { O . . y 9.2 # % * - - : : 8 O.o.f y.y.",
"y.y.y.@ ] { = . < K % $ % * * - - 9 O.&.z y.y.y.",
"y.y.y.y.@ R @.y + X # $ * * * : L <...f y.y.y.y.",
"y.y.y.y.y.# t +. .w # # % * c O.>.E p y.y.y.y.y.",
"y.y.y.y.y.y.y., T :. .n m X.>.( d y.y.y.y.y.y.y.",
"y.y.y.y.y.y.y.y.y.7 ^ :.:.^ g y.y.y.y.y.y.y.y.y.",
"y.y.y.y.y.y.y.y.y.y.y.8 8 y.y.y.y.y.y.y.y.y.y.y."
};
