/* XPM */
static char *rupx16[] = {
/* columns rows colors chars-per-pixel */
"16 16 162 2 ",
"   c #2A1944",
".  c #2A1A44",
"X  c #2B1947",
"o  c #2E1C49",
"O  c #311F4D",
"+  c #321E50",
"@  c #392359",
"#  c #39245A",
"$  c #3B255A",
"%  c #3B255B",
"&  c #3C255E",
"*  c #3C265E",
"=  c #3D265E",
"-  c #3E2662",
";  c #3F2863",
":  c #41305C",
">  c #402662",
",  c #402763",
"<  c #412666",
"1  c #432A68",
"2  c #442A6A",
"3  c #482C6B",
"4  c #492C6D",
"5  c #4C3E62",
"6  c #4E3D69",
"7  c #492971",
"8  c #482972",
"9  c #4D2A73",
"0  c #4F2C7A",
"q  c #502F78",
"w  c #512F7C",
"e  c #55317F",
"r  c #53426D",
"t  c #54426E",
"y  c #594B6F",
"u  c #584376",
"i  c #594577",
"p  c #5B4B72",
"a  c #5C4E72",
"s  c #605473",
"d  c #615573",
"f  c #605176",
"g  c #615277",
"h  c #625774",
"j  c #635775",
"k  c #6A5F7B",
"l  c #6B607C",
"z  c #6C607D",
"x  c #572F80",
"c  c #582D82",
"v  c #5A2A85",
"b  c #5B2B86",
"n  c #5F278B",
"m  c #5D2B88",
"M  c #5D2E88",
"N  c #5F2D8A",
"B  c #5A3783",
"V  c #5C3685",
"C  c #5C3486",
"Z  c #5E3388",
"A  c #60288B",
"S  c #612D8B",
"D  c #60288C",
"F  c #61298C",
"G  c #612A8C",
"H  c #60328A",
"J  c #62328C",
"K  c #64318E",
"L  c #66348F",
"P  c #673291",
"I  c #683391",
"U  c #6D3E95",
"Y  c #604087",
"T  c #68478D",
"R  c #69478F",
"E  c #694F8D",
"W  c #6D598A",
"Q  c #6D598B",
"!  c #715F8B",
"~  c #6D4B90",
"^  c #6C4B91",
"/  c #6E4A93",
"(  c #704995",
")  c #754C99",
"_  c #784F9C",
"`  c #7A4C9F",
"'  c #715094",
"]  c #78569A",
"[  c #7B539E",
"{  c #7A569C",
"}  c #7C569E",
"|  c #775C98",
" . c #716387",
".. c #746A84",
"X. c #7C708D",
"o. c #766195",
"O. c #7A6299",
"+. c #7D619C",
"@. c #7F6B9C",
"#. c #837695",
"$. c #897B9E",
"%. c #8A7D9C",
"&. c #8057A2",
"*. c #8265A1",
"=. c #8563A4",
"-. c #8764A6",
";. c #826CA0",
":. c #886EA5",
">. c #8B61AB",
",. c #8C62AC",
"<. c #8D64AD",
"1. c #8D6EAA",
"2. c #8B7CA0",
"3. c #8D7CA4",
"4. c #9278AD",
"5. c #9478AF",
"6. c #926AB0",
"7. c #936BB1",
"8. c #936CB1",
"9. c #9474B1",
"0. c #9A75B6",
"q. c #977DB1",
"w. c #967EB0",
"e. c #9A79B5",
"r. c #9D7DB7",
"t. c #8C839A",
"y. c #8F859E",
"u. c #9083A2",
"i. c #9386A8",
"p. c #9588A9",
"a. c #9A8BAD",
"s. c #9A85B2",
"d. c #9B83B4",
"f. c #9A88B1",
"g. c #9D8CB3",
"h. c #9E81B8",
"j. c #9F86B8",
"k. c #A385BC",
"l. c #A28DB8",
"z. c #A28CB9",
"x. c #A38CBA",
"c. c #A489BC",
"v. c #A68EBD",
"b. c #A78EBE",
"n. c #A89FB6",
"m. c #ACA4B9",
"M. c #AEA5BB",
"N. c #A98AC1",
"B. c #A98CC0",
"V. c #BBA7CD",
"C. c #B9A9CA",
"Z. c #BDABCE",
"A. c #BEABCF",
"S. c #BCACCC",
"D. c #C1B0D1",
"F. c #C2B1D1",
"G. c #C1B2D1",
"H. c #C4B2D4",
"J. c #C6B3D5",
"K. c #C6B3D6",
"L. c #D2CADB",
"P. c None",
/* pixels */
"P.P.P.P.P.i W @.;.| ^ P.P.P.P.P.",
"P.P.X.u.a.g.s.4.5.j.v.b.c.e.P.P.",
"P.d p.E Y B V C Z H J U ` N.,.P.",
"P.h  .8 0 T C.G.F.D.h.L n 6.<.P.",
"P.j z < w e R / ( } A.k.D 8.<.P.",
"P.j k + q :.z.x.1.b _ K.I 7.<.P.",
"P.j l . > +.w.q.=.v [ J.P 7.<.P.",
"P.j l   O 4 ' ] { -.H.r.A 8.<.P.",
"P.j l . o p L.S.Z.V.9.K F 8.<.P.",
"P.j k   o g M.3 x M m S G 7.<.P.",
"P.s ..  o g m.$ , 9 c N F 0.>.P.",
"P.P.t.5 X f n.% * ; 2 7 ~ B.P.P.",
"P.P.y y.a : t # = - 1 Q l.&.P.P.",
"P.P.P.r %.#.6 @ & u 3.d.) P.P.P.",
"P.P.P.P.P.! i.$.2.f.*.P.P.P.P.P.",
"P.P.P.P.P.P.P.o.O.P.P.P.P.P.P.P."
};
