/* XPM */
static char *rupx48[] = {
/* columns rows colors chars-per-pixel */
"48 48 168 2 ",
"   c #271740",
".  c #2B1B44",
"X  c #2E1D49",
"o  c #301E4D",
"O  c #331F51",
"+  c #32204E",
"@  c #362254",
"#  c #382456",
"$  c #3B2B54",
"%  c #372258",
"&  c #3A255C",
"*  c #3C2959",
"=  c #3E2761",
"-  c #3F2863",
";  c #46385B",
":  c #4A3D5F",
">  c #402565",
",  c #412965",
"<  c #442A6A",
"1  c #492C6F",
"2  c #463362",
"3  c #4A3667",
"4  c #4D3F63",
"5  c #4D376F",
"6  c #4F3C6A",
"7  c #472B71",
"8  c #4C2D75",
"9  c #4F2D79",
"0  c #522D7D",
"q  c #4E3275",
"w  c #4F3079",
"e  c #503676",
"r  c #523B75",
"t  c #52317B",
"y  c #543A79",
"u  c #53446A",
"i  c #564A69",
"p  c #574473",
"a  c #5B4977",
"s  c #5B457D",
"d  c #605473",
"f  c #66577E",
"g  c #562D81",
"h  c #5A2D85",
"j  c #5E2D89",
"k  c #573081",
"l  c #5C3684",
"z  c #5C3A84",
"x  c #5F3189",
"c  c #60278C",
"v  c #622C8D",
"b  c #603E87",
"n  c #63338C",
"m  c #663A8E",
"M  c #673490",
"N  c #6A3A92",
"B  c #614487",
"V  c #634D83",
"C  c #65448B",
"Z  c #69478E",
"A  c #67488C",
"S  c #665382",
"D  c #6D5D83",
"F  c #6F5B8D",
"G  c #6E4793",
"H  c #714796",
"J  c #724E96",
"K  c #74459A",
"L  c #754D9A",
"P  c #725195",
"I  c #755099",
"U  c #7C529F",
"Y  c #7A5D9B",
"T  c #706482",
"R  c #76698A",
"E  c #796E8B",
"W  c #7D748D",
"Q  c #776192",
"!  c #7D6E93",
"~  c #7C6899",
"^  c #7D4CA1",
"/  c #806A9E",
"(  c #847896",
")  c #86759F",
"_  c #877A9B",
"`  c #897C9B",
"'  c #8255A4",
"]  c #835CA5",
"[  c #8262A2",
"{  c #846FA2",
"}  c #886DA6",
"|  c #8A64AA",
" . c #8B6AAA",
".. c #8775A1",
"X. c #8877A1",
"o. c #8A7BA0",
"O. c #8D75A9",
"+. c #937AAE",
"@. c #936DB1",
"#. c #9573B1",
"$. c #967CB1",
"%. c #9A7CB4",
"&. c #9F7EBA",
"*. c #8A8297",
"=. c #8D839E",
"-. c #948AA4",
";. c #978BA9",
":. c #998BAD",
">. c #9A92A7",
",. c #9E94AC",
"<. c #9C8BB3",
"1. c #A098AE",
"2. c #A08BB7",
"3. c #A284BB",
"4. c #A78DBF",
"5. c #A293B6",
"6. c #A49BB3",
"7. c #A593BB",
"8. c #A990BF",
"9. c #A99CBC",
"0. c #A7A0B2",
"q. c #A8A1B4",
"w. c #B1ABBB",
"e. c #A98BC1",
"r. c #AD94C3",
"t. c #AE9AC3",
"y. c #B39BC7",
"u. c #B69ECA",
"i. c #B0A4C1",
"p. c #B8AEC6",
"a. c #B7A1CA",
"s. c #B9A2CC",
"d. c #BAAECA",
"f. c #BEB3CC",
"g. c #BEAAD0",
"h. c #C1BBCA",
"j. c #C0ADD0",
"k. c #C5B3D4",
"l. c #C6BBD4",
"z. c #CCBDD9",
"x. c #CEC9D5",
"c. c #CEC3DA",
"v. c #CFC8DA",
"b. c #D0CCD6",
"n. c #D1C3DD",
"m. c #D3CCDE",
"M. c #D6D1DD",
"N. c #D9D5DE",
"B. c #D5C5E0",
"V. c #D5C8E0",
"C. c #D9CEE4",
"Z. c #DBD4E3",
"A. c #DCD9E1",
"S. c #E1DEE5",
"D. c #E0D7E8",
"F. c #E3DAEA",
"G. c #E3E0E7",
"H. c #E6E3EA",
"J. c #E8E3EE",
"K. c #EBE9ED",
"L. c #EBE5F0",
"P. c #EEEBF2",
"I. c #F1ECF4",
"U. c #F4F2F6",
"Y. c #F7F5F9",
"T. c #F8F7FA",
"R. c #FEFDFE",
"E. c None",
/* pixels */
"E.E.E.E.E.E.E.E.E.E.E.E.E.E.E.E.E.E.E.E.E.E.8 q 8 w E.E.E.E.E.E.E.E.E.E.E.E.E.E.E.E.E.E.E.E.E.E.",
"E.E.E.E.E.E.E.E.E.E.E.E.E.E.E.E., , , < < 7 7 8 w 8 9 9 0 g 0 g E.E.E.E.E.E.E.E.E.E.E.E.E.E.E.E.",
"E.E.E.E.E.E.E.E.E.E.@ @ % & & = * < q s F ..5.f.f.7.O.Q A z k g g g g h j j E.E.E.E.E.E.E.E.E.E.",
"E.E.E.E.E.. X X X X @ * 2 p D ) 6.f.M.K.T.R.T.I.P.T.R.T.P.Z.l.t.$.[ J m x j h j j v v E.E.E.E.E.",
"E.E.E.E.. . $ i D ` 0.h.A.P.T.R.T.P.Z.l.t.$.[ J J Y %.t.k.Z.L.T.R.R.I.F.z.u.3. .U N c v E.E.E.E.",
"E.E.E.E.  u x.U.T.T.T.J.m.d.7.O.Y G z k g 9 g g h h h h x m G ] #.e.j.C.L.T.T.R.U.C.' c E.E.E.E.",
"E.E.E.E.  W R.v.<...P B y 0 9 0 9 0 g g g k g k h h h j h j j j h j v M K ' @.e.B.R.&.c E.E.E.E.",
"E.E.E.E.  W P.S 7 8 w 9 0 0 0 0 0 0 k g g k k h g h h h j h j j j v v v v v c c ' U.&.v E.E.E.E.",
"E.E.E.E.  W K.u 7 w w t w t 0 t 0 0 0 0 g 0 g g h g h h h h j j j j v v v n v v ' I.&.c E.E.E.E.",
"E.E.E.E.  W K.u < 9 w w 9 t 0 0 0 P $.$.$.$.$.$.$.$.$.%.| L n j j n v v v v v v ^ Y.&.c E.E.E.E.",
"E.E.E.E.  W K.: & w w t w 0 0 0 0 <.R.R.R.R.R.R.R.R.R.R.R.I.z. .v v v v v v v v ^ L.&.v E.E.E.E.",
"E.E.E.E.  W K.: o 8 w w 0 t 0 t 0 [ H.I.I.I.P.P.P.P.I.I.Y.R.R.U.y.m j v v v n v ' I.&.M E.E.E.E.",
"E.E.E.E.  W K.:   , t w 0 t t 0 0 k Z P J J J J J J J L ] r.F.R.T.u.M v v v v v ^ I.&.c E.E.E.E.",
"E.E.E.E.  W K.:   @ 8 w w 9 0 0 0 0 0 0 0 g g g h h h h h h U n.R.T.&.c v v v v ^ L.&.c E.E.E.E.",
"E.E.E.E.  W K.:   . < t 0 w 0 t 0 0 g g g g g h h h k j j j h K D.T.C.M M v v v ' I.&.c E.E.E.E.",
"E.E.E.E.  W K.: . . @ 8 t 0 0 0 0 0 0 0 g 0 g g g g h j h j j h &.T.Y.@.c M c c ^ I.&.c E.E.E.E.",
"E.E.E.E.  W K.:   . . & 9 t 0 b O.+.+.+.+.+.$.$.$. .n h j j j h K L.R.r.v v v v ' I.&.c E.E.E.E.",
"E.E.E.E.  W K.: . . o + 1 0 9 Y U.R.R.R.R.R.R.R.R.T.%.h h x j j N D.R.s.v v v v ' L.&.c E.E.E.E.",
"E.E.E.E.  ( K.:   . X X @ 8 0 A m.I.I.I.I.I.I.I.I.J. .g k j j j N F.R.u.v v v v ' I.&.c E.E.E.E.",
"E.E.E.E.  W K.:   X . X X , 0 t C P P P P P P J P H j h j j j j U I.R.e.j v v c ' I.&.c E.E.E.E.",
"E.E.E.E.  W K.: . + . . X + < t 0 0 0 g g g g h h g h j j x j h r.R.U.] c M v v ^ L.&.c E.E.E.E.",
"E.E.E.E.  W K.:   . . + X X + 1 0 0 0 k k g g h g h h h h j h | L.R.z.M v v v v ' L.&.c E.E.E.E.",
"E.E.E.E.  W K.: . . . + X + + @ 8 0 0 0 0 0 h g h g h h h n #.H.R.I.| v v v v v ^ I.&.c E.E.E.E.",
"E.E.E.E.  W K.: . . . . X X o + # t  .+.%.+.+.$.$.$.$.$.e.n.T.R.U.&.c v v v M v ^ L.&.c E.E.E.E.",
"E.E.E.E.  W K.:   . X . + + o + o ! T.R.R.R.R.R.R.R.R.R.R.R.R.F.#.v v v v v v v ^ I.&.c E.E.E.E.",
"E.E.E.E.  W K.: . . X X X X + + o =.R.R.U.I.I.I.I.I.I.I.L.V.e.L j j j v v v v v ^ I.&.v E.E.E.E.",
"E.E.E.E.  W K.:   . X . X + + + o =.R.K.Q J J L L I I L G n h j j n j v v v v v ^ I.&.v E.E.E.E.",
"E.E.E.E.  W K.: . . . X + X X + o =.R.G.6 , 9 h g h h h h j j j j x v v v M v v ^ I.&.v E.E.E.E.",
"E.E.E.E.  W K.:   . X X X o o + o =.R.H.6 & , 8 0 h g v j h x j j v v x v v v v ^ I.&.c E.E.E.E.",
"E.E.E.E.  W K.: . . X X X + o o o =.R.H.6 O # & 1 0 h h j j j j j j v v v v M v ^ I.&.c E.E.E.E.",
"E.E.E.E.  W K.: . . . X X + o + o =.R.H.6 # # & > > 8 0 j j x j v v v v v v v v ^ I.&.c E.E.E.E.",
"E.E.E.E.  W U.i   . o . X o o @ o =.R.H.6 # & & # * & , 8 0 j j v M v v v v v c ' Y.&.v E.E.E.E.",
"E.E.E.E.  d U.*.  . + . + + + + O =.R.H.6 # % & & = = = , , 1 0 h v v v v v v v e.T.] v E.E.E.E.",
"E.E.E.E.. $ x.N.; . . . . + + + X =.R.H.6 % * & = & = = , , , < < 8 t h j v v K F.C.N c E.E.E.E.",
"E.E.E.E.. . D U.w.$ . . X + + + o =.R.H.6 % * & & = = = , , , , < < < 1 8 8 l j.T.@.v M E.E.E.E.",
"E.E.E.E.E.. + >.T.,.+ . X X X + o =.R.G.6 @ % & & & = = , , , < < < 1 1 1 q 9.T.u.M v E.E.E.E.E.",
"E.E.E.E.E.E.X $ q.T.0.$ . o + + + R x.-.* % & & & = & , , , , , , < < < y i.T.g.N v E.E.E.E.E.E.",
"E.E.E.E.E.E.E.X $ 1.T.h.i . o + + @ $ % % % & & & & , & , , , , < < < V z.T.u.N v E.E.E.E.E.E.E.",
"E.E.E.E.E.E.E.E.+ @ *.K.A.W + + + @ @ @ % % % & = & , , , , , , , 1 ) S.I.3.n j E.E.E.E.E.E.E.E.",
"E.E.E.E.E.E.E.E.E.+ @ S x.T.w.u + + @ % % # & & & , & , , , , , f p.T.C.[ j j E.E.E.E.E.E.E.E.E.",
"E.E.E.E.E.E.E.E.E.E.@ @ 3 ,.P.J.-.2 @ @ % % % & & & = - = = r :.J.U.t.N j v E.E.E.E.E.E.E.E.E.E.",
"E.E.E.E.E.E.E.E.E.E.E.# @ * S f.T.N.W 2 @ % % * & = & = 5 o.Z.T.z.Y k h j E.E.E.E.E.E.E.E.E.E.E.",
"E.E.E.E.E.E.E.E.E.E.E.E.E.& & 2 ! m.T.M._ 3 % % & = 5 o.M.T.C.O.l g h E.E.E.E.E.E.E.E.E.E.E.E.E.",
"E.E.E.E.E.E.E.E.E.E.E.E.E.E.E.= = 5 o.M.T.A.;.a a ;.Z.T.C.:.b 0 g E.E.E.E.E.E.E.E.E.E.E.E.E.E.E.",
"E.E.E.E.E.E.E.E.E.E.E.E.E.E.E.E., - , r X.v.T.P.P.T.m.+.z 0 g k E.E.E.E.E.E.E.E.E.E.E.E.E.E.E.E.",
"E.E.E.E.E.E.E.E.E.E.E.E.E.E.E.E.E.E.< < < e ~ d.d./ y 9 0 t E.E.E.E.E.E.E.E.E.E.E.E.E.E.E.E.E.E.",
"E.E.E.E.E.E.E.E.E.E.E.E.E.E.E.E.E.E.E.E.E.7 7 8 w 9 9 E.E.E.E.E.E.E.E.E.E.E.E.E.E.E.E.E.E.E.E.E.",
"E.E.E.E.E.E.E.E.E.E.E.E.E.E.E.E.E.E.E.E.E.E.E.q 8 E.E.E.E.E.E.E.E.E.E.E.E.E.E.E.E.E.E.E.E.E.E.E."
};
