/* XPM */
static char *rupx32[] = {
/* columns rows colors chars-per-pixel */
"32 32 157 2 ",
"   c #24143D",
".  c #2D1D46",
"X  c #2F1D4A",
"o  c #311F4D",
"O  c #331F52",
"+  c #32204C",
"@  c #352154",
"#  c #392756",
"$  c #3A2B53",
"%  c #3B255C",
"&  c #3F2B5E",
"*  c #3E2661",
"=  c #44345C",
"-  c #412765",
";  c #412965",
":  c #44276D",
">  c #452B6B",
",  c #482C6E",
"<  c #4A3964",
"1  c #4D3B69",
"2  c #472A72",
"3  c #4B2C75",
"4  c #4F2D79",
"5  c #522D7C",
"6  c #4F307A",
"7  c #503275",
"8  c #533D74",
"9  c #51307B",
"0  c #563F79",
"q  c #55446E",
"w  c #5B4F6F",
"e  c #5F4E77",
"r  c #5C467D",
"t  c #625576",
"y  c #675A7B",
"u  c #6A5E7B",
"i  c #562B81",
"p  c #5A2C85",
"a  c #5E2D89",
"s  c #563180",
"d  c #5A3284",
"f  c #5A3A82",
"g  c #60268D",
"h  c #622C8D",
"j  c #603D87",
"k  c #64348D",
"l  c #633C8A",
"z  c #672F91",
"x  c #6B3C93",
"c  c #723E99",
"v  c #5C4380",
"b  c #624489",
"n  c #68448E",
"m  c #65498A",
"M  c #6A4A8F",
"N  c #665086",
"B  c #6C5D82",
"V  c #6E5C89",
"C  c #6E4295",
"Z  c #6F4D93",
"A  c #714B95",
"S  c #75459B",
"D  c #744D99",
"F  c #784F9C",
"G  c #725494",
"H  c #775F97",
"J  c #7A529D",
"K  c #7C5B9D",
"L  c #706582",
"P  c #746688",
"I  c #756988",
"U  c #7A6C8F",
"Y  c #7D738D",
"T  c #7C6E91",
"R  c #7D609E",
"E  c #7E6C99",
"W  c #7D7092",
"Q  c #7D51A0",
"!  c #846F9F",
"~  c #827497",
"^  c #855CA6",
"/  c #875CA8",
"(  c #8664A5",
")  c #8867A6",
"_  c #8469A3",
"`  c #8B65AB",
"'  c #8C6BAB",
"]  c #906EAE",
"[  c #8C7BA5",
"{  c #8F71AC",
"}  c #8F7DA9",
"|  c #9274AE",
" . c #927DAC",
".. c #916AB0",
"X. c #9675B2",
"o. c #967DB1",
"O. c #9C7FB6",
"+. c #A07EBB",
"@. c #8B8298",
"#. c #958AA6",
"$. c #9483AD",
"%. c #9B8FAE",
"&. c #9780B1",
"*. c #9B83B4",
"=. c #9F81B9",
"-. c #9F92B3",
";. c #A29BAE",
":. c #A186BA",
">. c #A58EBC",
",. c #A69FB2",
"<. c #A793BD",
"1. c #A990BF",
"2. c #ACA0BD",
"3. c #B1A7BE",
"4. c #B4AFBD",
"5. c #B6B1BE",
"6. c #A88AC0",
"7. c #AD92C3",
"8. c #AE9DC2",
"9. c #B097C6",
"0. c #B49CC8",
"q. c #B4A4C7",
"w. c #B6ADC3",
"e. c #B6A4C9",
"r. c #BAA6CC",
"t. c #BBABCC",
"y. c #B7B1C1",
"u. c #B9B1C4",
"i. c #BDB4C9",
"p. c #C2BDC9",
"a. c #C3B3D3",
"s. c #C4B8D3",
"d. c #C9BAD6",
"f. c #C9B5D8",
"g. c #CCBDD9",
"h. c #C9C3D2",
"j. c #CCC8D1",
"k. c #CDC1DA",
"l. c #D3C4DF",
"z. c #D2CDDB",
"x. c #D6D2DC",
"c. c #D8D4DE",
"v. c #D6CBE1",
"b. c #D9CCE3",
"n. c #DAD2E3",
"m. c #DFD9E5",
"M. c #DFD5E8",
"N. c #E0D7E8",
"B. c #E3DCEA",
"V. c #E9E3EE",
"C. c #ECE6F1",
"Z. c #F1EDF4",
"A. c #F3F1F7",
"S. c #F7F4F9",
"D. c #F8F6FA",
"F. c #FBFAFC",
"G. c None",
/* pixels */
"G.G.G.G.G.G.G.G.G.G.G.G.G.G.: 2 2 3 G.G.G.G.G.G.G.G.G.G.G.G.G.G.",
"G.G.G.G.G.G.G.G.O % * > 0 N E $.*.! Z b f s i i G.G.G.G.G.G.G.G.",
"G.G.G.. X $ < e U #.3.h.n.m.n.k.g.b.m.n.k.t.>.{ K C k h h G.G.G.",
"G.G.G.= ,.j.c.n.z.s.8.&.R Z l d d l D ) =.0.f.b.N.N.b.r.S G.G.G.",
"G.G.  y m.$.H m f 9 5 5 5 i i p p a p p p a h x S / +.B...g G.G.",
"G.G.  u y., 3 4 4 5 9 i 5 9 i i i p p p a a a h h g z f...g G.G.",
"G.G.  u 5.* 6 6 9 5 5 G e.e.e.e.e.e.e.:.F a h h h h z f...g G.G.",
"G.G.  u 5.@ 3 6 6 5 5 R V.A.Z.Z.A.Z.Z.F.Z.7.k h h z z f...g G.G.",
"G.G.  u 4.. ; 9 9 5 9 s Z Z Z A A A D ] v.F.9.h g h z f...g G.G.",
"G.G.  u 5.. @ 3 9 9 5 5 5 i 5 i i p p p x l.Z./ h h z f...a G.G.",
"G.G.  u 4.. . - 5 5 f j f l l l l a p d p / S.0.h z z f...g G.G.",
"G.G.  u 4.. . @ 3 5  .B.B.B.B.B.B.:.p a a x C.g.h h z f...g G.G.",
"G.G.  u 5.. . X % 4 K d.k.k.k.k.k.| p a a C C.g.h g z f...g G.G.",
"G.G.  u 5.. . . o - 5 s 5 f s p d p a a p ..D.6.h z z f...g G.G.",
"G.G.  u 5.. . X X + , 5 5 5 i i i i i p F M.C.Q g h z f...g G.G.",
"G.G.  u 5.. . . X o O 7 ! ( ( ( ( ) ' 1.B.S.:.k h h z f...g G.G.",
"G.G.  u 5.. . . X o X B S.F.D.D.F.F.F.F.N.| h h h h z f.] g G.G.",
"G.G.  u 5.. . X X X O P F.w.o.O.O.=.O.) n a h h h h z f.] g G.G.",
"G.G.  u 5.. . X X O X P F.T * 5 i i p p a h h h h h z f...g G.G.",
"G.G.  u 5.. . . X o X P F.T @ * 4 p p a a d h h h h z f...g G.G.",
"G.G.  u 5.+ . . X + X P F.W @ % % : 4 p h h h h g z z f...g G.G.",
"G.G.G.w j.$ . . X + X P F.W @ % % % - > 4 5 h h z z c b./ G.G.G.",
"G.G.G.$ i.@.. X X X X P F.T @ % - - - ; ; > 3 5 i g >.g.c G.G.G.",
"G.G.G.. t x.L . o O o P F.T @ % % % % ; - > > > > ! N.` g G.G.G.",
"G.G.G.G.X I x.Y o X o q #.1 @ % % & * ; ; > > , [ N.X.h G.G.G.G.",
"G.G.G.G.G.o u z.;.= o O @ @ % % % * * ; ; ; r <.n.) h G.G.G.G.G.",
"G.G.G.G.G.G.O q w.j.I # O @ # % % * * * > E z.a.D p G.G.G.G.G.G.",
"G.G.G.G.G.G.G.O & ~ z.u.y % O % * % ; V i.v. .k i G.G.G.G.G.G.G.",
"G.G.G.G.G.G.G.G.G.% 8 %.x.y.B ; ; P w.n.1.n i G.G.G.G.G.G.G.G.G.",
"G.G.G.G.G.G.G.G.G.G.G.* r -.x.h.j.z.<.Z 5 G.G.G.G.G.G.G.G.G.G.G.",
"G.G.G.G.G.G.G.G.G.G.G.G.G.> v }  .b 4 G.G.G.G.G.G.G.G.G.G.G.G.G.",
"G.G.G.G.G.G.G.G.G.G.G.G.G.G.G.2 3 G.G.G.G.G.G.G.G.G.G.G.G.G.G.G."
};
